%
O20903 (Flywheel Hub Spokes)
(Using G0 which travels along dogleg path.)
(T2 D=0.25 CR=0. - ZMIN=-0.7 - flat end mill)
N10 G90 G94 G17
N15 G20
N20 M31
N25 G53 G0 Z0.

(2D Adaptive6)
N35 T2 M6
N40 S10000 M3
N45 G54
N50 M8
N65 G0 X-1.1085 Y-0.2545
N70 G43 Z0.6 H2
N75 G0 Z0.2
N80 Z-0.1732
N85 G1 Z-0.1982 F48.
N90 G3 X-1.1053 Y-0.2501 Z-0.2117 I0.0523 J-0.0342
N95 X-1.1018 Y-0.2459 Z-0.2252 I0.0492 J-0.0386
N100 X-1.0979 Y-0.2421 Z-0.2388 I0.0456 J-0.0427
N105 X-1.0937 Y-0.2387 Z-0.2523 I0.0417 J-0.0466
N110 X-1.0892 Y-0.2356 Z-0.2658 I0.0375 J-0.05
N115 X-1.0844 Y-0.2329 Z-0.2793 I0.033 J-0.0531
N120 X-1.0795 Y-0.2307 Z-0.2929 I0.0282 J-0.0558
N125 X-1.0743 Y-0.2288 Z-0.3064 I0.0233 J-0.058
N130 X-1.069 Y-0.2275 Z-0.3199 I0.0181 J-0.0598
N135 X-1.0636 Y-0.2266 Z-0.3334 I0.0128 J-0.0612
N140 X-1.0582 Y-0.2262 Z-0.347 I0.0075 J-0.0621
N145 X-1.0528 Y-0.2263 Z-0.3605 I0.002 J-0.0625
N150 X-1.0473 Y-0.2268 Z-0.374 I-0.0034 J-0.0624
N155 X-1.042 Y-0.2278 Z-0.3875 I-0.0089 J-0.0619
N160 X-1.0367 Y-0.2293 Z-0.401 I-0.0142 J-0.0609
N165 X-1.0316 Y-0.2312 Z-0.4146 I-0.0195 J-0.0594
N170 X-1.0267 Y-0.2336 Z-0.4281 I-0.0246 J-0.0575
N175 X-1.022 Y-0.2363 Z-0.4416 I-0.0295 J-0.0551
N180 X-1.0176 Y-0.2395 Z-0.4551 I-0.0342 J-0.0523
N185 X-1.0134 Y-0.2431 Z-0.4687 I-0.0386 J-0.0492
N190 X-1.0096 Y-0.247 Z-0.4822 I-0.0427 J-0.0456
N195 X-1.0062 Y-0.2512 Z-0.4957 I-0.0466 J-0.0417
N200 X-1.0031 Y-0.2557 Z-0.5092 I-0.05 J-0.0375
N205 X-1.0004 Y-0.2604 Z-0.5227 I-0.0531 J-0.033
N210 X-0.9982 Y-0.2654 Z-0.5363 I-0.0558 J-0.0282
N215 X-0.9964 Y-0.2705 Z-0.5498 I-0.058 J-0.0233
N220 X-0.995 Y-0.2758 Z-0.5633 I-0.0598 J-0.0181
N225 X-0.9941 Y-0.2812 Z-0.5768 I-0.0612 J-0.0128
N230 X-0.9937 Y-0.2866 Z-0.5904 I-0.0621 J-0.0075
N235 X-0.9938 Y-0.2921 Z-0.6039 I-0.0625 J-0.002
N240 X-0.9943 Y-0.2975 Z-0.6174 I-0.0624 J0.0034
N245 X-0.9953 Y-0.3029 Z-0.6309 I-0.0619 J0.0089
N250 X-0.9968 Y-0.3081 Z-0.6445 I-0.0609 J0.0142
N255 X-0.9987 Y-0.3132 Z-0.658 I-0.0594 J0.0195
N260 X-1.0011 Y-0.3181 Z-0.6715 I-0.0575 J0.0246
N265 X-1.0039 Y-0.3228 Z-0.685 I-0.0551 J0.0295
N270 X-1.007 Y-0.3273 Z-0.6985 I-0.0523 J0.0342
N275 X-0.9937 Y-0.2887 Z-0.7 I-0.0492 J0.0386
N280 X-1.1187 I-0.0625 J0.
N285 X-0.9937 I0.0625 J0.
N290 G1 X-0.9931 Y-0.2605 F100.
N295 X-0.994 Y-0.2551
N300 X-0.9956 Y-0.25
N305 X-0.9978 Y-0.245
N310 X-1.0005 Y-0.2404
N315 X-1.0036 Y-0.236
N320 X-1.0072 Y-0.2319
N325 X-1.011 Y-0.2281
N330 X-1.0152 Y-0.2247
N335 X-1.0197 Y-0.2216
N340 X-1.0243 Y-0.2189
N345 X-1.0292 Y-0.2166
N350 X-1.0342 Y-0.2146
N355 X-1.0394 Y-0.2131
N360 X-1.05 Y-0.2111
N365 X-1.0608 Y-0.2108
N370 X-1.0715 Y-0.212
N375 X-1.082 Y-0.2147
N380 X-1.092 Y-0.2188
N385 X-1.1013 Y-0.2243
N390 X-1.1097 Y-0.231
N395 X-1.1171 Y-0.2389
N400 X-1.1234 Y-0.2476
N405 X-1.1284 Y-0.2572
N410 X-1.132 Y-0.2674
N415 X-1.1343 Y-0.2779
N420 X-1.135 Y-0.2887
N425 X-1.1343 Y-0.2995
N430 X-1.1321 Y-0.31
N435 X-1.1284 Y-0.3202
N440 X-1.1235 Y-0.3298
N445 X-1.1172 Y-0.3386
N450 X-1.1098 Y-0.3465
N455 X-1.1014 Y-0.3532
N460 X-1.0922 Y-0.3588
N465 X-1.0823 Y-0.3631
N470 X-1.0719 Y-0.3659
N475 X-1.0612 Y-0.3674
N480 X-1.0504 Y-0.3673
N485 X-1.0397 Y-0.3658
N490 X-1.0293 Y-0.3628
N495 X-1.0195 Y-0.3585
N500 X-1.0103 Y-0.3528
N505 X-1.0019 Y-0.3459
N510 X-0.9946 Y-0.338
N515 X-0.9885 Y-0.3291
N520 X-0.9835 Y-0.3195
N525 X-0.9795 Y-0.3093
N530 X-0.9763 Y-0.299
N535 X-0.9743 Y-0.2884
N540 X-0.9734 Y-0.2777
N545 X-0.9739 Y-0.2669
N550 X-0.9757 Y-0.2563
N555 X-0.979 Y-0.246
N560 X-0.9837 Y-0.2362
N565 X-0.9896 Y-0.2272
N570 X-0.9966 Y-0.219
N575 X-1.0047 Y-0.2118
N580 X-1.0136 Y-0.2057
N585 X-1.0232 Y-0.2008
N590 X-1.0333 Y-0.1971
N595 X-1.0438 Y-0.1946
N600 X-1.0546 Y-0.1935
N605 X-1.0654 Y-0.1936
N610 X-1.0761 Y-0.195
N615 X-1.0866 Y-0.1976
N620 X-1.0967 Y-0.2014
N625 X-1.1062 Y-0.2063
N630 X-1.1152 Y-0.2124
N635 X-1.1234 Y-0.2193
N640 X-1.1308 Y-0.2272
N645 X-1.1373 Y-0.2359
N650 X-1.1427 Y-0.2452
N655 X-1.147 Y-0.2551
N660 X-1.1502 Y-0.2654
N665 X-1.1523 Y-0.276
N670 X-1.1531 Y-0.2868
N675 X-1.1528 Y-0.2976
N680 X-1.1512 Y-0.3082
N685 X-1.1484 Y-0.3187
N690 X-1.1445 Y-0.3288
N695 X-1.1396 Y-0.3383
N700 X-1.1335 Y-0.3473
N705 X-1.1265 Y-0.3555
N710 X-1.1187 Y-0.3629
N715 X-1.1101 Y-0.3694
N720 X-1.1008 Y-0.3749
N725 X-1.0909 Y-0.3793
N730 X-1.0806 Y-0.3826
N735 X-1.07 Y-0.3847
N740 X-1.0593 Y-0.3857
N745 X-1.0485 Y-0.3854
N750 X-1.0378 Y-0.384
N755 X-1.0273 Y-0.3814
N760 X-1.0172 Y-0.3776
N765 X-1.0076 Y-0.3727
N770 X-0.9986 Y-0.3668
N775 X-0.9902 Y-0.3599
N780 X-0.9827 Y-0.3522
N785 X-0.9759 Y-0.3438
N790 X-0.9699 Y-0.3348
N795 X-0.9648 Y-0.3253
N800 X-0.9606 Y-0.3153
N805 X-0.9574 Y-0.305
N810 X-0.9552 Y-0.2945
N815 X-0.9541 Y-0.2837
N820 X-0.954 Y-0.2729
N825 X-0.9551 Y-0.2622
N830 X-0.9573 Y-0.2516
N835 X-0.9606 Y-0.2413
N840 X-0.965 Y-0.2315
N845 X-0.9703 Y-0.2221
N850 X-0.9767 Y-0.2133
N855 X-0.9839 Y-0.2053
N860 X-0.9919 Y-0.1981
N865 X-1.0006 Y-0.1917
N870 X-1.0099 Y-0.1862
N875 X-1.0197 Y-0.1818
N880 X-1.03 Y-0.1783
N885 X-1.0405 Y-0.1759
N890 X-1.0512 Y-0.1745
N895 X-1.062 Y-0.1742
N900 X-1.0728 Y-0.1749
N905 X-1.0834 Y-0.1767
N910 X-1.0938 Y-0.1795
N915 X-1.1039 Y-0.1833
N920 X-1.1136 Y-0.1881
N925 X-1.1228 Y-0.1937
N930 X-1.1315 Y-0.2002
N935 X-1.1394 Y-0.2075
N940 X-1.1467 Y-0.2155
N945 X-1.1531 Y-0.2242
N950 X-1.1588 Y-0.2334
N955 X-1.1635 Y-0.2431
N960 X-1.1673 Y-0.2532
N965 X-1.1702 Y-0.2636
N970 X-1.172 Y-0.2742
N975 X-1.1729 Y-0.285
N980 X-1.1728 Y-0.2958
N985 X-1.1717 Y-0.3065
N990 X-1.1696 Y-0.3171
N995 X-1.1665 Y-0.3275
N1000 X-1.1624 Y-0.3375
N1005 X-1.1575 Y-0.3471
N1010 X-1.1517 Y-0.3562
N1015 X-1.1451 Y-0.3647
N1020 X-1.1377 Y-0.3726
N1025 X-1.1296 Y-0.3797
N1030 X-1.1209 Y-0.3861
N1035 X-1.1116 Y-0.3917
N1040 X-1.1019 Y-0.3964
N1045 X-1.0918 Y-0.4001
N1050 X-1.0814 Y-0.4029
N1055 X-1.0707 Y-0.4048
N1060 X-1.06 Y-0.4056
N1065 X-1.0492 Y-0.4055
N1070 X-1.0384 Y-0.4043
N1075 X-1.0278 Y-0.4022
N1080 X-1.0175 Y-0.3991
N1085 X-1.0075 Y-0.3951
N1090 X-0.9979 Y-0.3902
N1095 X-0.9887 Y-0.3844
N1100 X-0.9801 Y-0.3779
N1105 X-0.9721 Y-0.3707
N1110 X-0.9647 Y-0.3628
N1115 X-0.958 Y-0.3543
N1120 X-0.952 Y-0.3454
N1125 X-0.9467 Y-0.3359
N1130 X-0.9423 Y-0.3261
N1135 X-0.9387 Y-0.3159
N1140 X-0.936 Y-0.3054
N1145 X-0.9342 Y-0.2948
N1150 X-0.9333 Y-0.284
N1155 Y-0.2732
N1160 X-0.9342 Y-0.2625
N1165 X-0.936 Y-0.2518
N1170 X-0.9388 Y-0.2414
N1175 X-0.9425 Y-0.2313
N1180 X-0.947 Y-0.2215
N1185 X-0.9524 Y-0.2121
N1190 X-0.9586 Y-0.2032
N1195 X-0.9655 Y-0.1949
N1200 X-0.9731 Y-0.1873
N1205 X-0.9813 Y-0.1803
N1210 X-0.9901 Y-0.174
N1215 X-0.9994 Y-0.1685
N1220 X-1.0091 Y-0.1638
N1225 X-1.0141 Y-0.1618
N1230 X-1.0244 Y-0.1584
N1235 X-1.0348 Y-0.1558
N1240 X-1.0455 Y-0.1542
N1245 X-1.0563 Y-0.1534
N1250 X-1.0671 Y-0.1535
N1255 X-1.0778 Y-0.1545
N1260 X-1.0885 Y-0.1564
N1265 X-1.099 Y-0.1591
N1270 X-1.1092 Y-0.1627
N1275 X-1.1192 Y-0.1672
N1280 X-1.1288 Y-0.1725
N1285 X-1.138 Y-0.1785
N1290 X-1.1466 Y-0.1853
N1295 X-1.1547 Y-0.1928
N1300 X-1.1622 Y-0.201
N1305 X-1.169 Y-0.2097
N1310 X-1.1751 Y-0.219
N1315 X-1.1804 Y-0.2288
N1320 X-1.1849 Y-0.239
N1325 X-1.1886 Y-0.2495
N1330 X-1.1914 Y-0.2603
N1335 X-1.1933 Y-0.2714
N1340 X-1.1943 Y-0.2826
N1345 Y-0.2938
N1350 X-1.1935 Y-0.3049
N1355 X-1.1918 Y-0.316
N1360 X-1.1891 Y-0.327
N1365 X-1.1856 Y-0.3377
N1370 X-1.1812 Y-0.348
N1375 X-1.176 Y-0.358
N1380 X-1.1699 Y-0.3676
N1385 X-1.1632 Y-0.3766
N1390 X-1.1557 Y-0.385
N1395 X-1.1475 Y-0.3928
N1400 X-1.1387 Y-0.3999
N1405 X-1.1294 Y-0.4063
N1410 X-1.1196 Y-0.4118
N1415 X-1.1094 Y-0.4166
N1420 X-1.0988 Y-0.4205
N1425 X-1.0878 Y-0.4235
N1430 X-1.0767 Y-0.4257
N1435 X-1.0656 Y-0.4269
N1440 X-1.0543 Y-0.4272
N1445 X-1.0429 Y-0.4266
N1450 X-1.0316 Y-0.425
N1455 X-1.0204 Y-0.4226
N1460 X-1.0093 Y-0.4191
N1465 X-0.9985 Y-0.4148
N1470 X-0.9879 Y-0.4095
N1475 X-0.9776 Y-0.4033
N1480 X-0.9679 Y-0.3962
N1485 X-0.9586 Y-0.3883
N1490 X-0.95 Y-0.3797
N1495 X-0.9422 Y-0.3703
N1500 X-0.9351 Y-0.3603
N1505 X-0.9288 Y-0.3498
N1510 X-0.9234 Y-0.3388
N1515 X-0.919 Y-0.3274
N1520 X-0.9155 Y-0.3158
N1525 X-0.913 Y-0.304
N1530 X-0.9114 Y-0.2919
N1535 X-0.9109 Y-0.2799
N1540 X-0.9113 Y-0.2678
N1545 X-0.9127 Y-0.2558
N1550 X-0.9151 Y-0.244
N1555 X-0.9184 Y-0.2325
N1560 X-0.9226 Y-0.2213
N1565 X-0.9278 Y-0.2104
N1570 X-0.9338 Y-0.2001
N1575 X-0.9407 Y-0.1902
N1580 X-0.9483 Y-0.1808
N1585 X-0.9568 Y-0.1721
N1590 X-0.9659 Y-0.1641
N1595 X-0.9757 Y-0.1569
N1600 X-0.9861 Y-0.1504
N1605 X-0.997 Y-0.1448
N1610 X-1.0083 Y-0.1401
N1615 X-1.0201 Y-0.1364
N1620 X-1.0322 Y-0.1335
N1625 X-1.0445 Y-0.1317
N1630 X-1.0569 Y-0.1309
N1635 X-1.0695 Y-0.1311
N1640 X-1.082 Y-0.1323
N1645 X-1.0944 Y-0.1346
N1650 X-1.1066 Y-0.1378
N1655 X-1.1186 Y-0.1421
N1660 X-1.1302 Y-0.1473
N1665 X-1.1414 Y-0.1535
N1670 X-1.1521 Y-0.1606
N1675 X-1.1621 Y-0.1686
N1680 X-1.1715 Y-0.1774
N1685 X-1.1802 Y-0.1869
N1690 X-1.1881 Y-0.1972
N1695 X-1.1952 Y-0.208
N1700 X-1.2013 Y-0.2194
N1705 X-1.2065 Y-0.2314
N1710 X-1.2108 Y-0.2437
N1715 X-1.214 Y-0.2563
N1720 X-1.2161 Y-0.2692
N1725 X-1.2173 Y-0.2822
N1730 Y-0.2953
N1735 X-1.2163 Y-0.3083
N1740 X-1.2142 Y-0.3213
N1745 X-1.2111 Y-0.334
N1750 X-1.2069 Y-0.3465
N1755 X-1.2017 Y-0.3585
N1760 X-1.1956 Y-0.3701
N1765 X-1.1885 Y-0.3812
N1770 X-1.1806 Y-0.3917
N1775 X-1.1718 Y-0.4015
N1780 X-1.1622 Y-0.4105
N1785 X-1.152 Y-0.4188
N1790 X-1.1411 Y-0.4262
N1795 X-1.1296 Y-0.4326
N1800 X-1.1176 Y-0.4381
N1805 X-1.1052 Y-0.4427
N1810 X-1.0925 Y-0.4462
N1815 X-1.0795 Y-0.4486
N1820 X-1.0664 Y-0.45
N1825 X-1.0531 Y-0.4503
N1830 X-1.0398 Y-0.4495
N1835 X-1.0265 Y-0.4476
N1840 X-1.0133 Y-0.4447
N1845 X-1.0003 Y-0.4406
N1850 X-0.9876 Y-0.4355
N1855 X-0.9753 Y-0.4293
N1860 X-0.9635 Y-0.422
N1865 X-0.9522 Y-0.4138
N1870 X-0.9416 Y-0.4047
N1875 X-0.9318 Y-0.3947
N1880 X-0.9228 Y-0.3839
N1885 X-0.9147 Y-0.3724
N1890 X-0.9075 Y-0.3603
N1895 X-0.9014 Y-0.3476
N1900 X-0.8963 Y-0.3345
N1905 X-0.8924 Y-0.3211
N1910 X-0.8895 Y-0.3073
N1915 X-0.8878 Y-0.2934
N1920 X-0.8872 Y-0.2794
N1925 X-0.8877 Y-0.2655
N1930 X-0.8894 Y-0.2516
N1935 X-0.8922 Y-0.2379
N1940 X-0.8961 Y-0.2245
N1945 X-0.9011 Y-0.2115
N1950 X-0.9072 Y-0.1988
N1955 X-0.9142 Y-0.1868
N1960 X-0.9223 Y-0.1753
N1965 X-0.9312 Y-0.1644
N1970 X-0.9411 Y-0.1544
N1975 X-0.9517 Y-0.1451
N1980 X-0.9631 Y-0.1367
N1985 X-0.9752 Y-0.1293
N1990 X-0.9879 Y-0.1229
N1995 X-1.0011 Y-0.1174
N2000 X-1.0147 Y-0.1131
N2005 X-1.0287 Y-0.1099
N2010 X-1.043 Y-0.1079
N2015 X-1.0502 Y-0.1073
N2020 X-1.0646 Y-0.107
N2025 X-1.0791 Y-0.1078
N2030 X-1.0935 Y-0.1099
N2035 X-1.1078 Y-0.1131
N2040 X-1.1217 Y-0.1175
N2045 X-1.1353 Y-0.1231
N2050 X-1.1485 Y-0.1297
N2055 X-1.161 Y-0.1374
N2060 X-1.173 Y-0.1462
N2065 X-1.1842 Y-0.1559
N2070 X-1.1946 Y-0.1665
N2075 X-1.2041 Y-0.1779
N2080 X-1.2127 Y-0.1901
N2085 X-1.2202 Y-0.203
N2090 X-1.2267 Y-0.2165
N2095 X-1.2321 Y-0.2305
N2100 X-1.2363 Y-0.2448
N2105 X-1.2393 Y-0.2596
N2110 X-1.2412 Y-0.2745
N2115 X-1.2418 Y-0.2895
N2120 X-1.2412 Y-0.3046
N2125 X-1.2393 Y-0.3195
N2130 X-1.2363 Y-0.3343
N2135 X-1.232 Y-0.3488
N2140 X-1.2266 Y-0.3629
N2145 X-1.22 Y-0.3765
N2150 X-1.2124 Y-0.3896
N2155 X-1.2037 Y-0.402
N2160 X-1.194 Y-0.4136
N2165 X-1.1834 Y-0.4244
N2170 X-1.1719 Y-0.4343
N2175 X-1.1597 Y-0.4433
N2180 X-1.1467 Y-0.4512
N2185 X-1.1332 Y-0.4581
N2190 X-1.1191 Y-0.4638
N2195 X-1.1046 Y-0.4684
N2200 X-1.0898 Y-0.4717
N2205 X-1.0746 Y-0.4739
N2210 X-1.0593 Y-0.4748
N2215 X-1.0439 Y-0.4745
N2220 X-1.0285 Y-0.4729
N2225 X-1.0133 Y-0.47
N2230 X-0.9982 Y-0.4659
N2235 X-0.9834 Y-0.4606
N2240 X-0.9691 Y-0.454
N2245 X-0.9553 Y-0.4463
N2250 X-0.9421 Y-0.4374
N2255 X-0.9297 Y-0.4274
N2260 X-0.9181 Y-0.4165
N2265 X-0.9074 Y-0.4046
N2270 X-0.8977 Y-0.3918
N2275 X-0.889 Y-0.3783
N2280 X-0.8815 Y-0.3641
N2285 X-0.8751 Y-0.3494
N2290 X-0.87 Y-0.3342
N2295 X-0.8662 Y-0.3186
N2300 X-0.8636 Y-0.3028
N2305 X-0.8623 Y-0.2868
N2310 Y-0.2708
N2315 X-0.8637 Y-0.2548
N2320 X-0.8663 Y-0.239
N2325 X-0.8702 Y-0.2235
N2330 X-0.8754 Y-0.2083
N2335 X-0.8818 Y-0.1936
N2340 X-0.8894 Y-0.1794
N2345 X-0.8981 Y-0.1659
N2350 X-0.9079 Y-0.1531
N2355 X-0.9188 Y-0.1412
N2360 X-0.9306 Y-0.1301
N2365 X-0.9433 Y-0.1201
N2370 X-0.9568 Y-0.111
N2375 X-0.971 Y-0.1031
N2380 X-0.9859 Y-0.0964
N2385 X-1.0013 Y-0.0909
N2390 X-1.0171 Y-0.0866
N2395 X-1.0333 Y-0.0837
N2400 X-1.0497 Y-0.082
N2405 X-1.0662 Y-0.0818
N2410 X-1.0828 Y-0.0828
N2415 X-1.0992 Y-0.0852
N2420 X-1.1154 Y-0.089
N2425 X-1.1313 Y-0.0941
N2430 X-1.1468 Y-0.1005
N2435 X-1.1618 Y-0.1081
N2440 X-1.1761 Y-0.1169
N2445 X-1.1896 Y-0.127
N2450 X-1.2023 Y-0.1381
N2455 X-1.2141 Y-0.1502
N2460 X-1.2249 Y-0.1633
N2465 X-1.2346 Y-0.1772
N2470 X-1.2432 Y-0.1919
N2475 X-1.2505 Y-0.2073
N2480 X-1.2566 Y-0.2232
N2485 X-1.2613 Y-0.2396
N2490 X-1.2647 Y-0.2563
N2495 X-1.2667 Y-0.2733
N2500 X-1.2674 Y-0.2905
N2505 X-1.2666 Y-0.3076
N2510 X-1.2644 Y-0.3246
N2515 X-1.2609 Y-0.3414
N2520 X-1.256 Y-0.3579
N2525 X-1.2497 Y-0.3739
N2530 X-1.2422 Y-0.3894
N2535 X-1.2334 Y-0.4042
N2540 X-1.2235 Y-0.4182
N2545 X-1.2124 Y-0.4314
N2550 X-1.2003 Y-0.4437
N2555 X-1.1872 Y-0.4549
N2560 X-1.1732 Y-0.4651
N2565 X-1.1585 Y-0.4741
N2570 X-1.143 Y-0.4818
N2575 X-1.127 Y-0.4883
N2580 X-1.1104 Y-0.4934
N2585 X-1.0934 Y-0.4972
N2590 X-1.0762 Y-0.4996
N2595 X-1.0587 Y-0.5006
N2600 X-1.0411 Y-0.5001
N2605 X-1.0236 Y-0.4983
N2610 X-1.0063 Y-0.4949
N2615 X-0.9892 Y-0.4902
N2620 X-0.9724 Y-0.4841
N2625 X-0.9562 Y-0.4765
N2630 X-0.9483 Y-0.4723
N2635 X-0.9331 Y-0.4628
N2640 X-0.9186 Y-0.4521
N2645 X-0.905 Y-0.4402
N2650 X-0.8925 Y-0.4272
N2655 X-0.881 Y-0.4132
N2660 X-0.8706 Y-0.3984
N2665 X-0.8615 Y-0.3827
N2670 X-0.8538 Y-0.3663
N2675 X-0.8473 Y-0.3493
N2680 X-0.8423 Y-0.3318
N2685 X-0.8387 Y-0.314
N2690 X-0.8366 Y-0.296
N2695 X-0.836 Y-0.2779
N2700 X-0.8368 Y-0.2597
N2705 X-0.8392 Y-0.2417
N2710 X-0.843 Y-0.2239
N2715 X-0.8482 Y-0.2065
N2720 X-0.8548 Y-0.1896
N2725 X-0.8628 Y-0.1732
N2730 X-0.8722 Y-0.1575
N2735 X-0.8827 Y-0.1427
N2740 X-0.8945 Y-0.1287
N2745 X-0.9074 Y-0.1157
N2750 X-0.9213 Y-0.1038
N2755 X-0.9362 Y-0.093
N2760 X-0.952 Y-0.0835
N2765 X-0.9685 Y-0.0752
N2770 X-0.9857 Y-0.0684
N2775 X-1.0034 Y-0.0629
N2780 X-1.0215 Y-0.0589
N2785 X-1.04 Y-0.0564
N2790 X-1.0586 Y-0.0553
N2795 X-1.0773 Y-0.0558
N2800 X-1.096 Y-0.0579
N2805 X-1.1144 Y-0.0614
N2810 X-1.1326 Y-0.0665
N2815 X-1.1503 Y-0.0731
N2820 X-1.1674 Y-0.081
N2825 X-1.1839 Y-0.0904
N2830 X-1.1996 Y-0.1011
N2835 X-1.2144 Y-0.1131
N2840 X-1.2282 Y-0.1263
N2845 X-1.2409 Y-0.1405
N2850 X-1.2524 Y-0.1558
N2855 X-1.2626 Y-0.172
N2860 X-1.2715 Y-0.189
N2865 X-1.279 Y-0.2067
N2870 X-1.285 Y-0.2249
N2875 X-1.2895 Y-0.2436
N2880 X-1.2925 Y-0.2627
N2885 X-1.2939 Y-0.2819
N2890 X-1.2938 Y-0.3012
N2895 X-1.2921 Y-0.3205
N2900 X-1.2888 Y-0.3395
N2905 X-1.2839 Y-0.3583
N2910 X-1.2776 Y-0.3766
N2915 X-1.2697 Y-0.3943
N2920 X-1.2605 Y-0.4113
N2925 X-1.2499 Y-0.4276
N2930 X-1.238 Y-0.4429
N2935 X-1.2248 Y-0.4572
N2940 X-1.2106 Y-0.4704
N2945 X-1.1953 Y-0.4824
N2950 X-1.179 Y-0.4931
N2955 X-1.1619 Y-0.5025
N2960 X-1.1441 Y-0.5104
N2965 X-1.1257 Y-0.5169
N2970 X-1.1067 Y-0.5219
N2975 X-1.0971 Y-0.5238
N2980 X-1.0874 Y-0.5253
N2985 X-1.0776 Y-0.5264
N2990 X-1.0678 Y-0.5271
N2995 X-1.0579 Y-0.5274
N3000 X-1.048
N3005 X-1.0382 Y-0.5269
N3010 X-1.0283 Y-0.526
N3015 X-1.0184 Y-0.5247
N3020 X-1.0087 Y-0.523
N3025 X-0.9989 Y-0.5209
N3030 X-0.9893 Y-0.5184
N3035 X-0.9797 Y-0.5155
N3040 X-0.9703 Y-0.5122
N3045 X-0.9609 Y-0.5085
N3050 X-0.9518 Y-0.5044
N3055 X-0.9428 Y-0.5
N3060 X-0.9339 Y-0.4952
N3065 X-0.9253 Y-0.49
N3070 X-0.9169 Y-0.4845
N3075 X-0.9087 Y-0.4786
N3080 X-0.9007 Y-0.4724
N3085 X-0.893 Y-0.4659
N3090 X-0.8855 Y-0.459
N3095 X-0.8784 Y-0.4518
N3100 X-0.8715 Y-0.4444
N3105 X-0.8649 Y-0.4367
N3110 X-0.8587 Y-0.4287
N3115 X-0.8527 Y-0.4204
N3120 X-0.8471 Y-0.412
N3125 X-0.8419 Y-0.4032
N3130 X-0.837 Y-0.3943
N3135 X-0.8325 Y-0.3852
N3140 X-0.8284 Y-0.3759
N3145 X-0.8246 Y-0.3665
N3150 X-0.8213 Y-0.3569
N3155 X-0.8183 Y-0.3471
N3160 X-0.8157 Y-0.3373
N3165 X-0.8135 Y-0.3273
N3170 X-0.8118 Y-0.3173
N3175 X-0.8104 Y-0.3072
N3180 X-0.8095 Y-0.2971
N3185 X-0.809 Y-0.2869
N3190 X-0.8089 Y-0.2767
N3195 X-0.8092 Y-0.2665
N3200 X-0.8099 Y-0.2564
N3205 X-0.811 Y-0.2462
N3210 X-0.8126 Y-0.2361
N3215 X-0.8145 Y-0.2261
N3220 X-0.8169 Y-0.2162
N3225 X-0.8197 Y-0.2064
N3230 X-0.8229 Y-0.1967
N3235 X-0.8264 Y-0.1871
N3240 X-0.8304 Y-0.1777
N3245 X-0.8347 Y-0.1684
N3250 X-0.8394 Y-0.1594
N3255 X-0.8445 Y-0.1505
N3260 X-0.85 Y-0.1418
N3265 X-0.8558 Y-0.1334
N3270 X-0.8619 Y-0.1252
N3275 X-0.8684 Y-0.1172
N3280 X-0.8752 Y-0.1095
N3285 X-0.8823 Y-0.1021
N3290 X-0.8897 Y-0.095
N3295 X-0.8974 Y-0.0882
N3300 X-0.9054 Y-0.0817
N3305 X-0.9136 Y-0.0755
N3310 X-0.9222 Y-0.0697
N3315 X-0.9309 Y-0.0642
N3320 X-0.9399 Y-0.059
N3325 X-0.949 Y-0.0543
N3330 X-0.9584 Y-0.0499
N3335 X-0.968 Y-0.0459
N3340 X-0.9777 Y-0.0422
N3345 X-0.9876 Y-0.039
N3350 X-0.9976 Y-0.0362
N3355 X-1.0077 Y-0.0338
N3360 X-1.0179 Y-0.0318
N3365 X-1.0282 Y-0.0302
N3370 X-1.0386 Y-0.029
N3375 X-1.049 Y-0.0283
N3380 X-1.0595 Y-0.028
N3385 X-1.0699 Y-0.0281
N3390 X-1.0804 Y-0.0286
N3395 X-1.0908 Y-0.0296
N3400 X-1.1013 Y-0.031
N3405 X-1.1116 Y-0.0328
N3410 X-1.1219 Y-0.0351
N3415 X-1.1321 Y-0.0377
N3420 X-1.1422 Y-0.0408
N3425 X-1.1521 Y-0.0443
N3430 X-1.1619 Y-0.0482
N3435 X-1.1716 Y-0.0525
N3440 X-1.1811 Y-0.0572
N3445 X-1.1904 Y-0.0623
N3450 X-1.1995 Y-0.0677
N3455 X-1.2083 Y-0.0736
N3460 X-1.217 Y-0.0798
N3465 X-1.2253 Y-0.0863
N3470 X-1.2334 Y-0.0932
N3475 X-1.2413 Y-0.1005
N3480 X-1.2488 Y-0.108
N3485 X-1.256 Y-0.1158
N3490 X-1.2629 Y-0.124
N3495 X-1.2695 Y-0.1324
N3500 X-1.2757 Y-0.1411
N3505 X-1.2816 Y-0.1501
N3510 X-1.2871 Y-0.1592
N3515 X-1.2922 Y-0.1687
N3520 X-1.2969 Y-0.1783
N3525 X-1.3013 Y-0.1881
N3530 X-1.3052 Y-0.1981
N3535 X-1.3087 Y-0.2082
N3540 X-1.3119 Y-0.2185
N3545 X-1.3146 Y-0.2289
N3550 X-1.3168 Y-0.2394
N3555 X-1.3187 Y-0.25
N3560 X-1.3201 Y-0.2607
N3565 X-1.3211 Y-0.2714
N3570 X-1.3216 Y-0.2821
N3575 X-1.3217 Y-0.2929
N3580 X-1.3213 Y-0.3037
N3585 X-1.3206 Y-0.3145
N3590 X-1.3193 Y-0.3252
N3595 X-1.3177 Y-0.3359
N3600 X-1.3156 Y-0.3464
N3605 X-1.313 Y-0.3569
N3610 X-1.3101 Y-0.3673
N3615 X-1.3067 Y-0.3776
N3620 X-1.3029 Y-0.3877
N3625 X-1.2987 Y-0.3977
N3630 X-1.2941 Y-0.4075
N3635 X-1.2891 Y-0.4171
N3640 X-1.2837 Y-0.4265
N3645 X-1.2779 Y-0.4356
N3650 X-1.2718 Y-0.4445
N3655 X-1.2652 Y-0.4532
N3660 X-1.2584 Y-0.4616
N3665 X-1.2512 Y-0.4697
N3670 X-1.2437 Y-0.4775
N3675 X-1.2358 Y-0.485
N3680 X-1.2277 Y-0.4922
N3685 X-1.2192 Y-0.499
N3690 X-1.2105 Y-0.5055
N3695 X-1.2016 Y-0.5116
N3700 X-1.1923 Y-0.5174
N3705 X-1.1829 Y-0.5228
N3710 X-1.1732 Y-0.5278
N3715 X-1.1633 Y-0.5324
N3720 X-1.1533 Y-0.5366
N3725 X-1.143 Y-0.5404
N3730 X-1.1327 Y-0.5438
N3735 X-1.1221 Y-0.5467
N3740 X-1.1115 Y-0.5492
N3745 X-1.1007 Y-0.5513
N3750 X-1.0899 Y-0.553
N3755 X-1.0789 Y-0.5542
N3760 X-1.068 Y-0.5549
N3765 X-1.057 Y-0.5552
N3770 X-1.0459 Y-0.5551
N3775 X-1.0349 Y-0.5545
N3780 X-1.0239 Y-0.5535
N3785 X-1.0129 Y-0.552
N3790 X-1.002 Y-0.55
N3795 X-0.9912 Y-0.5477
N3800 X-0.9804 Y-0.5448
N3805 X-0.9698 Y-0.5416
N3810 X-0.9593 Y-0.5378
N3815 X-0.9489 Y-0.5337
N3820 X-0.9387 Y-0.5291
N3825 X-0.9287 Y-0.5242
N3830 X-0.9189 Y-0.5188
N3835 X-0.9093 Y-0.513
N3840 X-0.9 Y-0.5068
N3845 X-0.8909 Y-0.5002
N3850 X-0.882 Y-0.4933
N3855 X-0.8735 Y-0.486
N3860 X-0.8652 Y-0.4783
N3865 X-0.8573 Y-0.4704
N3870 X-0.8497 Y-0.462
N3875 X-0.8424 Y-0.4534
N3880 X-0.8355 Y-0.4445
N3885 X-0.8289 Y-0.4353
N3890 X-0.8228 Y-0.4259
N3895 X-0.817 Y-0.4162
N3900 X-0.8116 Y-0.4062
N3905 X-0.8066 Y-0.3961
N3910 X-0.8021 Y-0.3857
N3915 X-0.7979 Y-0.3752
N3920 X-0.7942 Y-0.3645
N3925 X-0.791 Y-0.3537
N3930 X-0.7881 Y-0.3427
N3935 X-0.7858 Y-0.3316
N3940 X-0.7839 Y-0.3205
N3945 X-0.7824 Y-0.3092
N3950 X-0.7814 Y-0.298
N3955 X-0.7809 Y-0.2866
N3960 X-0.7808 Y-0.2753
N3965 X-0.7812 Y-0.264
N3970 X-0.782 Y-0.2527
N3975 X-0.7833 Y-0.2414
N3980 X-0.7851 Y-0.2302
N3985 X-0.7873 Y-0.2191
N3990 X-0.79 Y-0.208
N3995 X-0.7931 Y-0.1971
N4000 X-0.7967 Y-0.1863
N4005 X-0.8007 Y-0.1757
N4010 X-0.8051 Y-0.1652
N4015 X-0.81 Y-0.155
N4020 X-0.8153 Y-0.1449
N4025 X-0.821 Y-0.135
N4030 X-0.8271 Y-0.1254
N4035 X-0.8336 Y-0.116
N4040 X-0.843 Y-0.1038
N4045 X-0.8511 Y-0.095
N4050 X-0.8603 Y-0.0873
N4055 X-0.8703 Y-0.0807
N4060 X-0.963 Y-0.0271
N4065 X-0.9786 Y-0.0195
N4070 X-0.9934 Y-0.0137
N4075 X-1.0101 Y-0.0088
N4080 X-1.0283 Y-0.0049
N4085 X-1.0477 Y-0.0025
N4090 X-1.0578 Y-0.0018
N4095 X-1.0681 Y-0.0015
N4100 X-1.0787 Y-0.0017
N4105 X-1.0893 Y-0.0023
N4110 X-1.1001 Y-0.0034
N4115 X-1.111 Y-0.0049
N4120 X-1.1219 Y-0.0069
N4125 X-1.1328 Y-0.0093
N4130 X-1.1437 Y-0.0122
N4135 X-1.1545 Y-0.0156
N4140 X-1.1653 Y-0.0194
N4145 X-1.1759 Y-0.0237
N4150 X-1.1863 Y-0.0285
N4155 X-1.1967 Y-0.0336
N4160 X-1.2068 Y-0.0392
N4165 X-1.2167 Y-0.0453
N4170 X-1.2264 Y-0.0517
N4175 X-1.2358 Y-0.0586
N4180 X-1.245 Y-0.0659
N4185 X-1.2539 Y-0.0735
N4190 X-1.2625 Y-0.0815
N4195 X-1.2707 Y-0.0899
N4200 X-1.2786 Y-0.0986
N4205 X-1.2862 Y-0.1076
N4210 X-1.2934 Y-0.117
N4215 X-1.3002 Y-0.1266
N4220 X-1.3067 Y-0.1366
N4225 X-1.3127 Y-0.1468
N4230 X-1.3183 Y-0.1572
N4235 X-1.3235 Y-0.1679
N4240 X-1.3282 Y-0.1788
N4245 X-1.3325 Y-0.1898
N4250 X-1.3364 Y-0.2011
N4255 X-1.3398 Y-0.2125
N4260 X-1.3429 Y-0.225
N4265 X-1.3447 Y-0.2369
N4270 X-1.345 Y-0.249
N4275 X-1.3438 Y-0.261
N4280 X-1.3423 Y-0.2704
N4285 X-1.3351 Y-0.3022
N4290 X-1.3077 Y-0.4055
N4295 X-1.3001 Y-0.4294
N4300 X-1.2903 Y-0.4518
N4305 X-1.2832 Y-0.4646
N4310 X-1.2744 Y-0.4779
N4315 X-1.2633 Y-0.4919
N4320 X-1.2505 Y-0.5057
N4325 X-1.2434 Y-0.5125
N4330 X-1.2357 Y-0.5192
N4335 X-1.2276 Y-0.5257
N4340 X-1.219 Y-0.5321
N4345 X-1.2101 Y-0.5382
N4350 X-1.2007 Y-0.544
N4355 X-1.1909 Y-0.5496
N4360 X-1.1809 Y-0.5547
N4365 X-1.1705 Y-0.5595
N4370 X-1.1599 Y-0.5639
N4375 X-1.149 Y-0.5679
N4380 X-1.1379 Y-0.5715
N4385 X-1.1266 Y-0.5747
N4390 X-1.1151 Y-0.5774
N4395 X-1.1035 Y-0.5796
N4400 X-1.0917 Y-0.5814
N4405 X-1.0798 Y-0.5826
N4410 X-1.0678 Y-0.5834
N4415 X-1.0557 Y-0.5838
N4420 X-1.0422 Y-0.5835
N4425 X-1.0267 Y-0.5814
N4430 X-1.0118 Y-0.577
N4435 X-0.9977 Y-0.5703
N4440 X-0.8552 Y-0.4879
N4445 X-0.8423 Y-0.4793
N4450 X-0.8321 Y-0.4712
N4455 X-0.8216 Y-0.4612
N4460 X-0.8105 Y-0.4488
N4465 X-0.7997 Y-0.4346
N4470 X-0.7892 Y-0.4182
N4475 X-0.7842 Y-0.4092
N4480 X-0.7794 Y-0.3997
N4485 X-0.775 Y-0.39
N4490 X-0.7709 Y-0.3798
N4495 X-0.7672 Y-0.3694
N4500 X-0.7638 Y-0.3585
N4505 X-0.7608 Y-0.3474
N4510 X-0.7582 Y-0.336
N4515 X-0.7561 Y-0.3244
N4520 X-0.7544 Y-0.3126
N4525 X-0.7532 Y-0.3006
N4530 X-0.7525 Y-0.2885
N4535 X-0.7523 Y-0.2764
N4540 X-0.7526 Y-0.2641
N4545 X-0.7534 Y-0.2519
N4550 X-0.7547 Y-0.2396
N4555 X-0.7565 Y-0.2274
N4560 X-0.7588 Y-0.2153
N4565 X-0.7616 Y-0.2032
N4570 X-0.7649 Y-0.1912
N4575 X-0.7687 Y-0.1793
N4580 X-0.773 Y-0.1676
N4585 X-0.7782 Y-0.155
N4590 X-0.7857 Y-0.1416
N4595 X-0.7951 Y-0.1295
N4600 X-0.8063 Y-0.119
N4605 X-0.819 Y-0.1103
N4610 X-0.8703 Y-0.0807
N4615 G3 X-0.8796 Y-0.0778 I-0.0117 J-0.0221 F48.
N4620 X-0.907 Y-0.1038 I-0.0024 J-0.0249 F100.
N4625 G1 X-0.8919 Y-0.4669
N4630 G3 X-0.8645 Y-0.4908 I0.025 J0.001
N4635 X-0.8552 Y-0.4879 I-0.0024 J0.0249 F48.
N4640 G1 X-0.8089 Y-0.4612 F100.
N4645 X-0.7978 Y-0.4538
N4650 X-0.7895 Y-0.4469
N4655 X-0.7814 Y-0.4389
N4660 X-0.7728 Y-0.4289
N4665 X-0.7642 Y-0.417
N4670 X-0.7556 Y-0.4029
N4675 X-0.7474 Y-0.3866
N4680 X-0.7435 Y-0.3775
N4685 X-0.7399 Y-0.3679
N4690 X-0.7366 Y-0.3581
N4695 X-0.7336 Y-0.3477
N4700 X-0.731 Y-0.3368
N4705 X-0.7287 Y-0.3255
N4710 X-0.7268 Y-0.3139
N4715 X-0.7254 Y-0.3019
N4720 X-0.7245 Y-0.2896
N4725 X-0.724 Y-0.2771
N4730 X-0.7241 Y-0.2645
N4735 X-0.7246 Y-0.2517
N4740 X-0.7258 Y-0.2389
N4745 X-0.7274 Y-0.226
N4750 X-0.7296 Y-0.213
N4755 X-0.732 Y-0.2019
N4760 X-0.735 Y-0.1903
N4765 X-0.7404 Y-0.1762
N4770 X-0.7479 Y-0.163
N4775 X-0.7572 Y-0.1512
N4780 X-0.7683 Y-0.1409
N4785 X-0.7808 Y-0.1323
N4790 X-0.819 Y-0.1103
N4795 G3 X-0.8283 Y-0.1075 I-0.0117 J-0.0221 F48.
N4800 X-0.8557 Y-0.1332 I-0.0024 J-0.0249 F100.
N4805 G1 X-0.8456 Y-0.44
N4810 G3 X-0.8182 Y-0.464 I0.025 J0.0008
N4815 X-0.8089 Y-0.4612 I-0.0024 J0.0249 F48.
N4820 G1 X-0.7695 Y-0.4385 F100.
N4825 X-0.7606 Y-0.4324
N4830 X-0.7525 Y-0.4254
N4835 X-0.745 Y-0.4175
N4840 X-0.7376 Y-0.4082
N4845 X-0.7298 Y-0.3968
N4850 X-0.7224 Y-0.3836
N4855 X-0.7152 Y-0.3679
N4860 X-0.7087 Y-0.3502
N4865 X-0.7058 Y-0.3404
N4870 X-0.7031 Y-0.33
N4875 X-0.7009 Y-0.3193
N4880 X-0.699 Y-0.3082
N4885 X-0.6975 Y-0.2966
N4890 X-0.6965 Y-0.2845
N4895 X-0.696 Y-0.2721
N4900 X-0.6959 Y-0.2596
N4905 X-0.6964 Y-0.2474
N4910 X-0.6971 Y-0.2378
N4915 X-0.6997 Y-0.2193
N4920 X-0.7047 Y-0.2017
N4925 X-0.7121 Y-0.1865
N4930 X-0.722 Y-0.1728
N4935 X-0.7341 Y-0.161
N4940 X-0.7479 Y-0.1513
N4945 X-0.7808 Y-0.1323
N4950 G3 X-0.7901 Y-0.1295 I-0.0117 J-0.0221 F48.
N4955 X-0.8175 Y-0.1555 I-0.0024 J-0.0249 F100.
N4960 G1 X-0.8063 Y-0.4175
N4965 G3 X-0.7789 Y-0.4413 I0.025 J0.0011
N4970 X-0.7695 Y-0.4385 I-0.0024 J0.0249 F48.
N4975 G1 X-0.7376 Y-0.4201 F100.
N4980 X-0.7283 Y-0.4138
N4985 X-0.7201 Y-0.4067
N4990 X-0.7128 Y-0.3988
N4995 X-0.7059 Y-0.39
N5000 X-0.6988 Y-0.3792
N5005 X-0.6919 Y-0.3665
N5010 X-0.6854 Y-0.3517
N5015 X-0.6794 Y-0.3344
N5020 X-0.6767 Y-0.325
N5025 X-0.6744 Y-0.3152
N5030 X-0.6724 Y-0.3048
N5035 X-0.6708 Y-0.2944
N5040 X-0.6696 Y-0.2837
N5045 X-0.6686 Y-0.2656
N5050 X-0.6692 Y-0.2483
N5055 X-0.6698 Y-0.2413
N5060 X-0.673 Y-0.2264
N5065 X-0.6784 Y-0.2122
N5070 X-0.6859 Y-0.199
N5075 X-0.6953 Y-0.187
N5080 X-0.7064 Y-0.1766
N5085 X-0.7189 Y-0.168
N5090 X-0.7479 Y-0.1513
N5095 G3 X-0.7573 Y-0.1485 I-0.0117 J-0.0221 F48.
N5100 X-0.7847 Y-0.1745 I-0.0024 J-0.0249 F100.
N5105 G1 X-0.7744 Y-0.3992
N5110 G3 X-0.747 Y-0.4229 I0.025 J0.0011
N5115 X-0.7376 Y-0.4201 I-0.0024 J0.0249 F48.
N5120 G1 X-0.7059 Y-0.4018 F100.
N5125 X-0.697 Y-0.3957
N5130 X-0.6889 Y-0.3885
N5135 X-0.6817 Y-0.3805
N5140 X-0.6751 Y-0.3717
N5145 X-0.6685 Y-0.3611
N5150 X-0.6621 Y-0.3487
N5155 X-0.656 Y-0.3342
N5160 X-0.6509 Y-0.3186
N5165 X-0.647 Y-0.302
N5170 X-0.6447 Y-0.2874
N5175 X-0.6436 Y-0.2728
N5180 Y-0.2662
N5185 X-0.6456 Y-0.2494
N5190 X-0.6503 Y-0.2331
N5195 X-0.6577 Y-0.218
N5200 X-0.6676 Y-0.2042
N5205 X-0.6797 Y-0.1924
N5210 X-0.6936 Y-0.1827
N5215 X-0.7189 Y-0.168
N5220 G3 X-0.7283 Y-0.1652 I-0.0117 J-0.0221 F48.
N5225 X-0.7556 Y-0.1918 I-0.0024 J-0.0249 F100.
N5230 G1 X-0.7426 Y-0.3814
N5235 G3 X-0.7153 Y-0.4046 I0.0249 J0.0017
N5240 X-0.7059 Y-0.4018 I-0.0024 J0.0249 F48.
N5245 G1 X-0.6765 Y-0.3848 F100.
N5250 X-0.6676 Y-0.3787
N5255 X-0.6596 Y-0.3715
N5260 X-0.6524 Y-0.3634
N5265 X-0.646 Y-0.3547
N5270 X-0.6402 Y-0.3449
N5275 X-0.6346 Y-0.3339
N5280 X-0.6298 Y-0.3218
N5285 X-0.6264 Y-0.3109
N5290 X-0.6236 Y-0.2983
N5295 X-0.6221 Y-0.2876
N5300 X-0.6222 Y-0.272
N5305 X-0.6248 Y-0.2566
N5310 X-0.6298 Y-0.2418
N5315 X-0.6371 Y-0.228
N5320 X-0.6465 Y-0.2156
N5325 X-0.6578 Y-0.2048
N5330 X-0.6707 Y-0.1959
N5335 X-0.6936 Y-0.1827
N5340 G3 X-0.7029 Y-0.1799 I-0.0117 J-0.0221 F48.
N5345 X-0.7301 Y-0.2075 I-0.0024 J-0.0249 F100.
N5350 G1 X-0.7131 Y-0.3654
N5355 G3 X-0.6858 Y-0.3876 I0.0249 J0.0027
N5360 X-0.6765 Y-0.3848 I-0.0024 J0.0249 F48.
N5365 G1 X-0.6482 Y-0.3685 F100.
N5370 X-0.6393 Y-0.3624
N5375 X-0.6314 Y-0.3551
N5380 X-0.6244 Y-0.3468
N5385 X-0.6184 Y-0.3379
N5390 X-0.6133 Y-0.3283
N5395 X-0.6091 Y-0.3184
N5400 X-0.6059 Y-0.3081
N5405 X-0.6047 Y-0.3028
N5410 X-0.6033 Y-0.2872
N5415 X-0.6045 Y-0.2715
N5420 X-0.6085 Y-0.2563
N5425 X-0.6151 Y-0.242
N5430 X-0.6241 Y-0.2291
N5435 X-0.6352 Y-0.218
N5440 X-0.648 Y-0.209
N5445 X-0.6707 Y-0.1959
N5450 G3 X-0.68 Y-0.1931 I-0.0117 J-0.0221 F48.
N5455 X-0.707 Y-0.2223 I-0.0024 J-0.0249 F100.
N5460 G1 X-0.6846 Y-0.3507
N5465 G3 X-0.6576 Y-0.3713 I0.0246 J0.0043
N5470 X-0.6482 Y-0.3685 I-0.0024 J0.0249 F48.
N5475 G1 X-0.6224 Y-0.3535 F100.
N5480 X-0.6135 Y-0.3474
N5485 X-0.6095 Y-0.3437
N5490 X-0.6059 Y-0.3398
N5495 X-0.6025 Y-0.3356
N5500 X-0.5967 Y-0.3265
N5505 X-0.5922 Y-0.3167
N5510 X-0.5887 Y-0.3033
N5515 X-0.5876 Y-0.2895
N5520 X-0.5889 Y-0.2757
N5525 X-0.5925 Y-0.2623
N5530 X-0.5984 Y-0.2498
N5535 X-0.6064 Y-0.2385
N5540 X-0.6162 Y-0.2287
N5545 X-0.6276 Y-0.2208
N5550 G3 X-0.6369 Y-0.218 I-0.0117 J-0.0221 F48.
N5555 X-0.6643 Y-0.2443 I-0.0024 J-0.0249 F100.
N5560 G1 X-0.6591 Y-0.3329
N5565 G3 X-0.6317 Y-0.3564 I0.025 J0.0015
N5570 X-0.6224 Y-0.3535 I-0.0024 J0.0249 F48.
N5575 G1 X-0.6007 Y-0.341 F100.
N5580 X-0.5961 Y-0.3381
N5585 X-0.5919 Y-0.3347
N5590 X-0.5882 Y-0.3308
N5595 X-0.5848 Y-0.3265
N5600 X-0.5819 Y-0.322
N5605 X-0.5794 Y-0.3172
N5610 X-0.5753 Y-0.3039
N5615 X-0.574 Y-0.29
N5620 X-0.5756 Y-0.2761
N5625 X-0.58 Y-0.2628
N5630 X-0.5871 Y-0.2508
N5635 X-0.5965 Y-0.2404
N5640 X-0.6078 Y-0.2322
N5645 G3 X-0.6172 Y-0.2294 I-0.0117 J-0.0221 F48.
N5650 X-0.6444 Y-0.257 I-0.0024 J-0.0249 F100.
N5655 G1 X-0.6372 Y-0.3217
N5660 G3 X-0.61 Y-0.3438 I0.0248 J0.0028
N5665 X-0.6007 Y-0.341 I-0.0024 J0.0249 F48.
N5670 G1 X-0.5834 Y-0.331 F100.
N5675 X-0.5788 Y-0.3281
N5680 X-0.5748 Y-0.3245
N5685 X-0.5713 Y-0.3203
N5690 X-0.5684 Y-0.3158
N5695 X-0.5641 Y-0.3046
N5700 X-0.5623 Y-0.2927
N5705 X-0.5631 Y-0.2807
N5710 X-0.5665 Y-0.2692
N5715 X-0.5723 Y-0.2587
N5720 X-0.5802 Y-0.2496
N5725 X-0.5899 Y-0.2425
N5730 G3 X-0.599 Y-0.2389 I-0.021 J-0.0394 F48.
N5735 X-0.64 Y-0.2481 I-0.0119 J-0.043 F100.
N5740 X-0.5924 Y-0.3347 I0.0329 J-0.0383
N5745 X-0.5834 Y-0.331 I-0.0147 J0.0483 F48.
N5750 G1 X-0.5697 Y-0.3231 F100.
N5755 X-0.5652 Y-0.3202
N5760 X-0.5613 Y-0.3164
N5765 X-0.558 Y-0.3122
N5770 X-0.5537 Y-0.3014
N5775 X-0.5523 Y-0.2898
N5780 X-0.5539 Y-0.2783
N5785 X-0.5584 Y-0.2676
N5790 X-0.5655 Y-0.2584
N5795 X-0.5748 Y-0.2513
N5800 G3 X-0.584 Y-0.2479 I-0.0171 J-0.0322 F48.
N5805 X-0.6154 Y-0.2556 I-0.0079 J-0.0356 F100.
N5810 X-0.5788 Y-0.3267 I0.0265 J-0.0313
N5815 X-0.5697 Y-0.3231 I-0.0101 J0.0397 F48.
N5820 G1 X-0.5579 Y-0.3163 F100.
N5825 X-0.5534 Y-0.3134
N5830 X-0.5497 Y-0.3094
N5835 X-0.5467 Y-0.3049
N5840 X-0.5441 Y-0.2965
N5845 X-0.5436 Y-0.2877
N5850 X-0.5453 Y-0.279
N5855 X-0.549 Y-0.271
N5860 X-0.5546 Y-0.2642
N5865 X-0.5616 Y-0.2589
N5870 G3 X-0.5709 Y-0.2558 I-0.0138 J-0.0259 F48.
N5875 X-0.5941 Y-0.2622 I-0.0045 J-0.029 F100.
N5880 X-0.5671 Y-0.3196 I0.0208 J-0.0252
N5885 X-0.5579 Y-0.3163 I-0.0061 J0.0321 F48.
N5890 G1 X-0.5481 Y-0.3106 F100.
N5895 X-0.5472 Y-0.3101
N5900 X-0.5463 Y-0.3094
N5905 X-0.5412 Y-0.3048
N5910 G3 X-0.538 Y-0.2957 I-0.0161 J0.0108 F48.
N5915 X-0.5429 Y-0.2811 I-0.0193 J0.0016 F100.
N5920 X-0.5555 Y-0.3127 I-0.0141 J-0.0127
N5925 X-0.5463 Y-0.3094 I-0.0016 J0.0189 F48.
N5930 G1 X-0.5442 Y-0.3079 F100.
N5935 X-0.5406 Y-0.304
N5940 X-0.5399 Y-0.303
N5945 X-0.5393 Y-0.3022
N5950 X-0.5361 Y-0.2942
N5955 G3 X-0.5381 Y-0.2848 I-0.0156 J0.0015 F48.
N5960 X-0.5458 Y-0.2782 I-0.0135 J-0.0079 F100.
N5965 X-0.5473 Y-0.3076 I-0.0059 J-0.0144
N5970 X-0.5393 Y-0.3022 I-0.0043 J0.015 F48.
N5975 G1 X-0.5373 Y-0.2982 F100.
N5980 X-0.5361 Y-0.2942
N5985 X-0.5358 Y-0.292
N5990 X-0.5356 Y-0.2863
N5995 X-0.5362 Y-0.2823
N6000 X-0.5376 Y-0.2783
N6005 X-0.5391 Y-0.2754
N6010 X-0.5412 Y-0.2725
N6015 X-0.5432 Y-0.2704
N6020 X-0.5462 Y-0.2679
N6025 X-0.648 Y-0.209
N6030 X-0.6501 Y-0.2083 Z-0.6997 F48.
N6035 X-0.6521 Y-0.2077 Z-0.699
N6040 X-0.6538 Y-0.2071 Z-0.6979
N6045 X-0.6553 Y-0.2066 Z-0.6963
N6050 X-0.6564 Y-0.2063 Z-0.6945
N6055 X-0.6571 Y-0.2062 Z-0.6924
N6060 X-0.6574 Z-0.6902
N6065 G0 Z0.2
N6070 X-0.9559 Y-0.0338
N6075 Z-0.675
N6080 G1 Z-0.7 F48.
N6085 G3 X-0.963 Y-0.0271 I-0.0204 J-0.0145
N6090 G1 X-1.0151 Y0.003 F100.
N6095 X-1.0271 Y0.0088
N6100 X-1.0372 Y0.0127
N6105 X-1.0487 Y0.0159
N6110 X-1.0619 Y0.0185
N6115 X-1.0773 Y0.0202
N6120 X-1.094 Y0.0208
N6125 X-1.1127 Y0.0198
N6130 X-1.1224 Y0.0187
N6135 X-1.1323 Y0.0172
N6140 X-1.1425 Y0.0152
N6145 X-1.1529 Y0.0127
N6150 X-1.1635 Y0.0097
N6155 X-1.1743 Y0.0062
N6160 X-1.1851 Y0.0022
N6165 X-1.1959 Y-0.0023
N6170 X-1.2066 Y-0.0073
N6175 X-1.2173 Y-0.0129
N6180 X-1.2278 Y-0.0189
N6185 X-1.2382 Y-0.0254
N6190 X-1.2484 Y-0.0324
N6195 X-1.2583 Y-0.0398
N6200 X-1.268 Y-0.0477
N6205 X-1.2775 Y-0.0561
N6210 X-1.2866 Y-0.0648
N6215 X-1.2954 Y-0.074
N6220 X-1.3039 Y-0.0836
N6225 X-1.312 Y-0.0935
N6230 X-1.3197 Y-0.1038
N6235 X-1.327 Y-0.1144
N6240 X-1.3339 Y-0.1254
N6245 X-1.3428 Y-0.1414
N6250 X-1.349 Y-0.1559
N6255 X-1.3528 Y-0.1713
N6260 X-1.3541 Y-0.1871
N6265 X-1.3529 Y-0.2029
N6270 X-1.3438 Y-0.261
N6275 G3 X-1.3402 Y-0.27 I0.0246 J0.0047 F48.
N6280 X-1.3035 Y-0.2756 I0.0209 J0.0137 F100.
N6285 G1 X-1.0126 Y-0.0376
N6290 G3 X-1.008 Y-0.0037 I-0.0158 J0.0193
N6295 X-1.0151 Y0.003 I-0.0204 J-0.0145 F48.
N6300 G1 X-1.0553 Y0.0261 F100.
N6305 X-1.065 Y0.0309
N6310 X-1.0752 Y0.0346
N6315 X-1.0857 Y0.0372
N6320 X-1.0974 Y0.0392
N6325 X-1.1111 Y0.0403
N6330 X-1.1263
N6335 X-1.1434 Y0.039
N6340 X-1.1617 Y0.0359
N6345 X-1.1716 Y0.0337
N6350 X-1.1817 Y0.031
N6355 X-1.1919 Y0.0278
N6360 X-1.2022 Y0.0241
N6365 X-1.2127 Y0.0198
N6370 X-1.2234 Y0.0149
N6375 X-1.2341 Y0.0095
N6380 X-1.2449 Y0.0035
N6385 X-1.2556 Y-0.003
N6390 X-1.2662 Y-0.0101
N6395 X-1.2767 Y-0.0178
N6400 X-1.2869 Y-0.026
N6405 X-1.297 Y-0.0346
N6410 X-1.3067 Y-0.0438
N6415 X-1.3162 Y-0.0534
N6420 X-1.3253 Y-0.0635
N6425 X-1.3333 Y-0.0731
N6430 X-1.3427 Y-0.0856
N6435 X-1.3503 Y-0.0984
N6440 X-1.3559 Y-0.1121
N6445 X-1.3595 Y-0.1265
N6450 X-1.3609 Y-0.1413
N6455 X-1.36 Y-0.1561
N6460 X-1.3529 Y-0.2029
N6465 G3 X-1.3492 Y-0.212 I0.0246 J0.0047 F48.
N6470 X-1.3129 Y-0.2179 I0.0209 J0.0137 F100.
N6475 G1 X-1.0531 Y-0.0148
N6480 G3 X-1.0482 Y0.0195 I-0.0154 J0.0197
N6485 X-1.0553 Y0.0261 I-0.0204 J-0.0145 F48.
N6490 G1 X-1.0887 Y0.0455 F100.
N6495 X-1.0986 Y0.0502
N6500 X-1.1087 Y0.0538
N6505 X-1.1193 Y0.0563
N6510 X-1.1304 Y0.0578
N6515 X-1.1433 Y0.0586
N6520 X-1.1576 Y0.0583
N6525 X-1.1739 Y0.0566
N6530 X-1.1914 Y0.0533
N6535 X-1.2009 Y0.0509
N6540 X-1.2107 Y0.048
N6545 X-1.2206 Y0.0446
N6550 X-1.2307 Y0.0407
N6555 X-1.2411 Y0.0361
N6560 X-1.2518 Y0.031
N6565 X-1.2625 Y0.0252
N6570 X-1.2734 Y0.0188
N6575 X-1.2842 Y0.0118
N6580 X-1.2949 Y0.0043
N6585 X-1.3054 Y-0.0038
N6590 X-1.3156 Y-0.0123
N6595 X-1.3245 Y-0.0203
N6600 X-1.3322 Y-0.0279
N6605 X-1.3402 Y-0.0366
N6610 X-1.3492 Y-0.0489
N6615 X-1.3563 Y-0.0624
N6620 X-1.3612 Y-0.0768
N6625 X-1.3639 Y-0.0918
N6630 X-1.3643 Y-0.107
N6635 X-1.3628 Y-0.1352
N6640 X-1.36 Y-0.1561
N6645 G3 X-1.3566 Y-0.1653 I0.0247 J0.0041 F48.
N6650 X-1.3203 Y-0.172 I0.0212 J0.0132 F100.
N6655 G1 X-1.0869 Y0.0043
N6660 G3 X-1.0816 Y0.0388 I-0.0151 J0.0199
N6665 X-1.0887 Y0.0455 I-0.0204 J-0.0145 F48.
N6670 G1 X-1.1202 Y0.0636 F100.
N6675 X-1.1299 Y0.0683
N6680 X-1.1401 Y0.0717
N6685 X-1.1507 Y0.074
N6690 X-1.1616 Y0.0754
N6695 X-1.174 Y0.0758
N6700 X-1.1879 Y0.0752
N6705 X-1.2038 Y0.0732
N6710 X-1.2208 Y0.0697
N6715 X-1.2302 Y0.0671
N6720 X-1.2398 Y0.0641
N6725 X-1.2495 Y0.0605
N6730 X-1.2595 Y0.0564
N6735 X-1.2699 Y0.0517
N6740 X-1.2805 Y0.0463
N6745 X-1.291 Y0.0403
N6750 X-1.3013 Y0.034
N6755 X-1.3112 Y0.0273
N6760 X-1.319 Y0.0216
N6765 X-1.3335 Y0.0095
N6770 X-1.3465 Y-0.0048
N6775 X-1.3556 Y-0.0195
N6780 X-1.362 Y-0.0356
N6785 X-1.3656 Y-0.0525
N6790 X-1.3662 Y-0.0697
N6795 X-1.3643 Y-0.107
N6800 G3 X-1.3616 Y-0.1164 I0.0249 J0.0022 F48.
N6805 X-1.3249 Y-0.1252 I0.0222 J0.0115 F100.
N6810 G1 X-1.1189 Y0.0221
N6815 G3 X-1.1131 Y0.0569 I-0.0145 J0.0203
N6820 X-1.1202 Y0.0636 I-0.0204 J-0.0145 F48.
N6825 G1 X-1.1496 Y0.0806 F100.
N6830 X-1.1594 Y0.0853
N6835 X-1.1696 Y0.0887
N6840 X-1.1802 Y0.0909
N6845 X-1.1909 Y0.0921
N6850 X-1.2031 Y0.0924
N6855 X-1.2167 Y0.0917
N6860 X-1.2321 Y0.0895
N6865 X-1.249 Y0.0858
N6870 X-1.2673 Y0.0801
N6875 X-1.2767 Y0.0766
N6880 X-1.286 Y0.0727
N6885 X-1.2953 Y0.0682
N6890 X-1.3109 Y0.0597
N6895 X-1.3254 Y0.0502
N6900 X-1.3315 Y0.0455
N6905 X-1.3427 Y0.0347
N6910 X-1.3521 Y0.0223
N6915 X-1.3595 Y0.0086
N6920 X-1.3647 Y-0.0061
N6925 X-1.3675 Y-0.0214
N6930 X-1.3679 Y-0.037
N6935 X-1.3662 Y-0.0697
N6940 G3 X-1.3635 Y-0.0791 I0.0249 J0.0022 F48.
N6945 X-1.3268 Y-0.088 I0.0222 J0.0115 F100.
N6950 G1 X-1.1484 Y0.039
N6955 G3 X-1.1425 Y0.0739 I-0.0145 J0.0204
N6960 X-1.1496 Y0.0806 I-0.0204 J-0.0145 F48.
N6965 G1 X-1.1779 Y0.0969 F100.
N6970 X-1.1876 Y0.1017
N6975 X-1.1979 Y0.1051
N6980 X-1.2084 Y0.1072
N6985 X-1.2192 Y0.1083
N6990 X-1.2311 Y0.1086
N6995 X-1.2443 Y0.1077
N7000 X-1.2591 Y0.1056
N7005 X-1.2744 Y0.1021
N7010 X-1.2902 Y0.0971
N7015 X-1.3038 Y0.0916
N7020 X-1.3171 Y0.0849
N7025 X-1.3239 Y0.0808
N7030 X-1.3365 Y0.0712
N7035 X-1.3475 Y0.0597
N7040 X-1.3565 Y0.0466
N7045 X-1.3633 Y0.0323
N7050 X-1.3677 Y0.0171
N7055 X-1.3697 Y0.0013
N7060 X-1.3679 Y-0.037
N7065 G3 X-1.3652 Y-0.0463 I0.0249 J0.0022 F48.
N7070 X-1.3283 Y-0.055 I0.0222 J0.0115 F100.
N7075 G1 X-1.1764 Y0.0555
N7080 G3 X-1.1708 Y0.0903 I-0.0147 J0.0202
N7085 X-1.1779 Y0.0969 I-0.0204 J-0.0145 F48.
N7090 G1 X-1.2066 Y0.1135 F100.
N7095 X-1.2164 Y0.1182
N7100 X-1.2267 Y0.1214
N7105 X-1.2373 Y0.1234
N7110 X-1.248 Y0.1243
N7115 X-1.2592
N7120 X-1.2712 Y0.1233
N7125 X-1.2838 Y0.1213
N7130 X-1.295 Y0.1185
N7135 X-1.307 Y0.1144
N7140 X-1.3212 Y0.1072
N7145 X-1.3342 Y0.0978
N7150 X-1.3454 Y0.0864
N7155 X-1.3546 Y0.0734
N7160 X-1.3617 Y0.0591
N7165 X-1.3663 Y0.0438
N7170 X-1.3684 Y0.028
N7175 X-1.3697 Y0.0013
N7180 G3 X-1.3679 Y-0.0082 I0.025 J-0.0003 F48.
N7185 X-1.33 Y-0.0191 I0.0232 J0.0093 F100.
N7190 G1 X-1.2051 Y0.0721
N7195 G3 X-1.1995 Y0.1068 I-0.0148 J0.0202
N7200 X-1.2066 Y0.1135 I-0.0204 J-0.0145 F48.
N7205 G1 X-1.2336 Y0.1291 F100.
N7210 X-1.2434 Y0.1337
N7215 X-1.2537 Y0.1369
N7220 X-1.2643 Y0.1387
N7225 X-1.2751 Y0.1393
N7230 X-1.2859 Y0.1387
N7235 X-1.2966 Y0.1371
N7240 X-1.3018 Y0.1359
N7245 X-1.3167 Y0.1302
N7250 X-1.3303 Y0.1221
N7255 X-1.3423 Y0.1116
N7260 X-1.3522 Y0.0992
N7265 X-1.3598 Y0.0853
N7270 X-1.3648 Y0.0702
N7275 X-1.367 Y0.0544
N7280 X-1.3684 Y0.028
N7285 G3 X-1.3666 Y0.0184 I0.025 J-0.0004 F48.
N7290 X-1.3274 Y0.0083 I0.0233 J0.0092 F100.
N7295 G1 X-1.2309 Y0.0887
N7300 G3 X-1.2265 Y0.1224 I-0.016 J0.0192
N7305 X-1.2336 Y0.1291 I-0.0204 J-0.0145 F48.
N7310 G1 X-1.2592 Y0.1439 F100.
N7315 X-1.264 Y0.1463
N7320 X-1.269 Y0.1484
N7325 X-1.2741 Y0.1499
N7330 X-1.2794 Y0.151
N7335 X-1.2902 Y0.1519
N7340 X-1.2956 Y0.1517
N7345 X-1.3092 Y0.1492
N7350 X-1.3221 Y0.1443
N7355 X-1.3339 Y0.1372
N7360 X-1.3443 Y0.1282
N7365 X-1.3529 Y0.1174
N7370 X-1.3595 Y0.1053
N7375 X-1.3638 Y0.0921
N7380 X-1.3658 Y0.0785
N7385 G3 X-1.364 Y0.0689 I0.025 J-0.0004 F48.
N7390 X-1.3271 Y0.0571 I0.0233 J0.0092 F100.
N7395 G1 X-1.2588 Y0.1017
N7400 G3 X-1.2521 Y0.1372 I-0.0137 J0.0209
N7405 X-1.2592 Y0.1439 I-0.0204 J-0.0145 F48.
N7410 G1 X-1.2789 Y0.1552 F100.
N7415 X-1.2837 Y0.1577
N7420 X-1.2887 Y0.1596
N7425 X-1.294 Y0.1609
N7430 X-1.2993 Y0.1616
N7435 X-1.3047 Y0.1618
N7440 X-1.3178 Y0.1596
N7445 X-1.3301 Y0.1549
N7450 X-1.3412 Y0.1476
N7455 X-1.3506 Y0.1382
N7460 X-1.3578 Y0.1271
N7465 X-1.3625 Y0.1147
N7470 X-1.3646 Y0.1016
N7475 G3 X-1.3628 Y0.092 I0.025 J-0.0004 F48.
N7480 X-1.3253 Y0.0807 I0.0233 J0.0092 F100.
N7485 G1 X-1.2779 Y0.1135
N7490 G3 X-1.2718 Y0.1486 I-0.0142 J0.0206
N7495 X-1.2789 Y0.1552 I-0.0204 J-0.0145 F48.
N7500 G1 X-1.2948 Y0.1644 F100.
N7505 X-1.2996 Y0.1669
N7510 X-1.3047 Y0.1687
N7515 X-1.31 Y0.1697
N7520 X-1.3154 Y0.17
N7525 X-1.3276 Y0.1678
N7530 X-1.3389 Y0.1627
N7535 X-1.3487 Y0.1551
N7540 X-1.3563 Y0.1453
N7545 X-1.3614 Y0.1339
N7550 X-1.3635 Y0.1217
N7555 G3 X-1.3626 Y0.1119 I0.0426 J-0.0007 F48.
N7560 X-1.3358 Y0.0811 I0.0416 J0.009 F100.
N7565 X-1.2871 Y0.1584 I0.0163 J0.0438
N7570 X-1.2948 Y0.1644 I-0.0325 J-0.0336 F48.
N7575 G1 X-1.3085 Y0.1723 F100.
N7580 X-1.3133 Y0.1748
N7585 X-1.3185 Y0.1763
N7590 X-1.3239 Y0.1769
N7595 X-1.3333 Y0.1753
N7600 X-1.3421 Y0.1716
N7605 X-1.3498 Y0.1659
N7610 X-1.356 Y0.1586
N7615 X-1.3602 Y0.1499
N7620 X-1.3622 Y0.1406
N7625 G3 X-1.3614 Y0.1308 I0.0334 J-0.0021 F48.
N7630 X-1.3401 Y0.107 I0.0326 J0.0077 F100.
N7635 X-1.301 Y0.1661 I0.0123 J0.0344
N7640 X-1.3085 Y0.1723 I-0.0269 J-0.0247 F48.
N7645 G1 X-1.3196 Y0.1787 F100.
N7650 X-1.3244 Y0.1812
N7655 X-1.3296 Y0.1824
N7660 X-1.3387 Y0.1812
N7665 X-1.347 Y0.1774
N7670 X-1.3539 Y0.1713
N7675 X-1.3586 Y0.1635
N7680 X-1.3609 Y0.1546
N7685 G3 X-1.3596 Y0.1449 I0.0258 J-0.0016 F48.
N7690 X-1.3441 Y0.1288 I0.0245 J0.0081 F100.
N7695 X-1.3123 Y0.1722 I0.0097 J0.0262
N7700 X-1.3196 Y0.1787 I-0.0221 J-0.0172 F48.
N7705 G1 X-1.3248 Y0.1816 F100.
N7710 X-1.3291 Y0.183
N7715 X-1.3331 Y0.1837
N7720 X-1.3371 Y0.1836
N7725 X-1.3413 Y0.1829
N7730 X-1.345 Y0.1816
N7735 X-1.349 Y0.1794
N7740 X-1.353 Y0.1762
N7745 X-1.3558 Y0.173
N7750 X-1.3581 Y0.169
N7755 X-1.36 Y0.163
N7760 X-1.3628 Y0.1352
N7765 X-1.367 Y0.0544
N7770 Y0.054 F48.
N7775 X-1.3666 Y0.0518 Z-0.6996
N7780 X-1.3662 Y0.0497 Z-0.6987
N7785 X-1.3659 Y0.0478 Z-0.6973
N7790 X-1.3657 Y0.0464 Z-0.6955
N7795 X-1.3655 Y0.0454 Z-0.6934
N7800 X-1.3653 Y0.045 Z-0.6918
N7805 Y0.0448 Z-0.6902
N7810 G0 Z0.2
N7815 X-1.3008 Y-0.4197
N7820 Z-0.675
N7825 G1 Z-0.7 F48.
N7830 G3 X-1.3001 Y-0.4294 I0.0248 J-0.003
N7835 G1 X-1.2761 Y-0.493 F100.
N7840 X-1.2713 Y-0.5035
N7845 X-1.2659 Y-0.5128
N7850 X-1.2592 Y-0.5224
N7855 X-1.2505 Y-0.5329
N7860 X-1.2399 Y-0.5438
N7865 X-1.2271 Y-0.5549
N7870 X-1.2122 Y-0.5659
N7875 X-1.2038 Y-0.5713
N7880 X-1.1949 Y-0.5765
N7885 X-1.1857 Y-0.5815
N7890 X-1.176 Y-0.5861
N7895 X-1.1658 Y-0.5906
N7900 X-1.1551 Y-0.5947
N7905 X-1.1441 Y-0.5985
N7910 X-1.1326 Y-0.6019
N7915 X-1.1209 Y-0.6048
N7920 X-1.1078 Y-0.6075
N7925 X-1.0907 Y-0.6089
N7930 X-1.0735 Y-0.6073
N7935 X-1.0569 Y-0.6027
N7940 X-1.0414 Y-0.5955
N7945 X-0.9977 Y-0.5703
N7950 G3 X-0.9906 Y-0.5636 I-0.0132 J0.0212 F48.
N7955 X-1.0046 Y-0.5249 I-0.0204 J0.0145 F100.
N7960 G1 X-1.246 Y-0.4608
N7965 G3 X-1.2774 Y-0.4833 I-0.0064 J-0.0242
N7970 X-1.2761 Y-0.493 I0.0249 J-0.0017 F48.
N7975 G1 X-1.2593 Y-0.5371 F100.
N7980 X-1.2545 Y-0.5468
N7985 X-1.2488 Y-0.5559
N7990 X-1.2421 Y-0.5645
N7995 X-1.2337 Y-0.5737
N8000 X-1.2234 Y-0.5833
N8005 X-1.2111 Y-0.593
N8010 X-1.1963 Y-0.6027
N8015 X-1.1795 Y-0.612
N8020 X-1.1634 Y-0.6193
N8025 X-1.1588 Y-0.621
N8030 X-1.1447 Y-0.6252
N8035 X-1.1301 Y-0.6272
N8040 X-1.1154 Y-0.6271
N8045 X-1.1009 Y-0.6248
N8050 X-1.0868 Y-0.6204
N8055 X-1.0735 Y-0.614
N8060 G3 X-1.0664 Y-0.6073 I-0.0132 J0.0212 F48.
N8065 X-1.0769 Y-0.5699 I-0.0204 J0.0145 F100.
N8070 G1 X-1.2259 Y-0.5056
N8075 G3 X-1.2608 Y-0.5275 I-0.0099 J-0.023
N8080 X-1.2593 Y-0.5371 I0.025 J-0.0011 F48.
N8085 G1 X-1.2472 Y-0.5646 F100.
N8090 X-1.2393 Y-0.5805
N8095 X-1.2331 Y-0.5909
N8100 X-1.2267 Y-0.5996
N8105 X-1.2194 Y-0.6076
N8110 X-1.211 Y-0.6154
N8115 X-1.2018 Y-0.6227
N8120 X-1.1881 Y-0.6307
N8125 X-1.1732 Y-0.6364
N8130 X-1.1576 Y-0.6396
N8135 X-1.1417 Y-0.6403
N8140 X-1.1259 Y-0.6384
N8145 X-1.1106 Y-0.634
N8150 X-1.0962 Y-0.6271
N8155 G3 X-1.0891 Y-0.6205 I-0.0132 J0.0212 F48.
N8160 X-1.1016 Y-0.5822 I-0.0204 J0.0145 F100.
N8165 G1 X-1.2086 Y-0.5464
N8170 G3 X-1.2415 Y-0.571 I-0.0079 J-0.0237
N8175 X-1.2393 Y-0.5805 I0.025 J0.0009 F48.
N8180 G1 X-1.2221 Y-0.6147 F100.
N8185 X-1.2166 Y-0.624
N8190 X-1.2133 Y-0.6282
N8195 X-1.2028 Y-0.6377
N8200 X-1.1906 Y-0.645
N8205 X-1.1773 Y-0.6498
N8210 X-1.1633 Y-0.652
N8215 X-1.1492 Y-0.6514
N8220 X-1.1354 Y-0.6482
N8225 X-1.1225 Y-0.6423
N8230 G3 X-1.1154 Y-0.6356 I-0.0132 J0.0212 F48.
N8235 X-1.1294 Y-0.5969 I-0.0204 J0.0145 F100.
N8240 G1 X-1.193 Y-0.5801
N8245 G3 X-1.2244 Y-0.6052 I-0.0064 J-0.0242
N8250 X-1.2221 Y-0.6147 I0.025 J0.0009 F48.
N8255 G1 X-1.2109 Y-0.6371 F100.
N8260 X-1.2082 Y-0.6418
N8265 X-1.205 Y-0.6461
N8270 X-1.2013 Y-0.6501
N8275 X-1.1911 Y-0.6567
N8280 X-1.1797 Y-0.6606
N8285 X-1.1677 Y-0.6617
N8290 X-1.1557 Y-0.6598
N8295 X-1.1446 Y-0.655
N8300 G3 X-1.1369 Y-0.649 I-0.0237 J0.0379 F48.
N8305 X-1.1352 Y-0.5871 I-0.0314 J0.0318 F100.
N8310 X-1.214 Y-0.6278 I-0.0339 J-0.0309
N8315 X-1.2109 Y-0.6371 I0.0448 J0.0098 F48.
N8320 G1 X-1.2034 Y-0.652 F100.
N8325 X-1.2007 Y-0.6567
N8330 X-1.1973 Y-0.6609
N8335 X-1.1908 Y-0.6653
N8340 X-1.1834 Y-0.6679
N8345 X-1.1756 Y-0.6686
N8350 X-1.1679 Y-0.6674
N8355 X-1.1607 Y-0.6644
N8360 G3 X-1.1534 Y-0.6579 I-0.0155 J0.0249 F48.
N8365 X-1.1538 Y-0.6206 I-0.0228 J0.0184 F100.
N8370 X-1.206 Y-0.6426 I-0.0226 J-0.0191
N8375 X-1.2034 Y-0.652 I0.0295 J0.0029 F48.
N8380 G1 X-1.1991 Y-0.66 F100.
N8385 X-1.1969 Y-0.6628
N8390 X-1.192 Y-0.6669
N8395 X-1.188 Y-0.6689
N8400 X-1.1819 Y-0.6706
N8405 X-1.1779 Y-0.6708
N8410 X-1.1739 Y-0.6704
N8415 X-1.1699 Y-0.6693
N8420 X-1.167 Y-0.6679
N8425 X-1.0414 Y-0.5955
N8430 X-1.0398 Y-0.594 Z-0.6997 F48.
N8435 X-1.0382 Y-0.5926 Z-0.699
N8440 X-1.0369 Y-0.5914 Z-0.6979
N8445 X-1.0357 Y-0.5903 Z-0.6963
N8450 X-1.0349 Y-0.5896 Z-0.6945
N8455 X-1.0344 Y-0.589 Z-0.6924
N8460 X-1.0343 Y-0.5888 Z-0.6902
N8465 G0 Z0.2
N8470 X-0.8304 Y0.8046
N8475 Z-0.1732
N8480 G1 Z-0.1982 F48.
N8485 G3 X-0.8272 Y0.809 Z-0.2117 I0.0523 J-0.0342
N8490 X-0.8237 Y0.8131 Z-0.2252 I0.0492 J-0.0386
N8495 X-0.8198 Y0.8169 Z-0.2388 I0.0456 J-0.0427
N8500 X-0.8156 Y0.8204 Z-0.2523 I0.0417 J-0.0466
N8505 X-0.8111 Y0.8235 Z-0.2658 I0.0375 J-0.05
N8510 X-0.8063 Y0.8261 Z-0.2793 I0.033 J-0.0531
N8515 X-0.8013 Y0.8284 Z-0.2929 I0.0282 J-0.0558
N8520 X-0.7962 Y0.8302 Z-0.3064 I0.0233 J-0.058
N8525 X-0.7909 Y0.8315 Z-0.3199 I0.0181 J-0.0598
N8530 X-0.7855 Y0.8324 Z-0.3334 I0.0128 J-0.0612
N8535 X-0.7801 Y0.8328 Z-0.347 I0.0075 J-0.0621
N8540 X-0.7746 Z-0.3605 I0.002 J-0.0625
N8545 X-0.7692 Y0.8322 Z-0.374 I-0.0034 J-0.0624
N8550 X-0.7639 Y0.8312 Z-0.3875 I-0.0089 J-0.0619
N8555 X-0.7586 Y0.8298 Z-0.401 I-0.0142 J-0.0609
N8560 X-0.7535 Y0.8278 Z-0.4146 I-0.0195 J-0.0594
N8565 X-0.7486 Y0.8255 Z-0.4281 I-0.0246 J-0.0575
N8570 X-0.7439 Y0.8227 Z-0.4416 I-0.0295 J-0.0551
N8575 X-0.7395 Y0.8195 Z-0.4551 I-0.0342 J-0.0523
N8580 X-0.7353 Y0.816 Z-0.4687 I-0.0386 J-0.0492
N8585 X-0.7315 Y0.8121 Z-0.4822 I-0.0427 J-0.0456
N8590 X-0.7281 Y0.8079 Z-0.4957 I-0.0466 J-0.0417
N8595 X-0.725 Y0.8034 Z-0.5092 I-0.05 J-0.0375
N8600 X-0.7223 Y0.7986 Z-0.5227 I-0.0531 J-0.033
N8605 X-0.7201 Y0.7936 Z-0.5363 I-0.0558 J-0.0282
N8610 X-0.7183 Y0.7885 Z-0.5498 I-0.058 J-0.0233
N8615 X-0.7169 Y0.7832 Z-0.5633 I-0.0598 J-0.0181
N8620 X-0.716 Y0.7778 Z-0.5768 I-0.0612 J-0.0128
N8625 X-0.7156 Y0.7724 Z-0.5904 I-0.0621 J-0.0075
N8630 X-0.7157 Y0.767 Z-0.6039 I-0.0625 J-0.002
N8635 X-0.7162 Y0.7615 Z-0.6174 I-0.0624 J0.0034
N8640 X-0.7172 Y0.7562 Z-0.6309 I-0.0619 J0.0089
N8645 X-0.7187 Y0.7509 Z-0.6445 I-0.0609 J0.0142
N8650 X-0.7206 Y0.7458 Z-0.658 I-0.0594 J0.0195
N8655 X-0.723 Y0.7409 Z-0.6715 I-0.0575 J0.0246
N8660 X-0.7257 Y0.7362 Z-0.685 I-0.0551 J0.0295
N8665 X-0.7289 Y0.7318 Z-0.6985 I-0.0523 J0.0342
N8670 X-0.7156 Y0.7704 Z-0.7 I-0.0492 J0.0386
N8675 X-0.8406 I-0.0625 J0.
N8680 X-0.7156 I0.0625 J0.
N8685 G1 X-0.715 Y0.7986 F100.
N8690 X-0.7159 Y0.8039
N8695 X-0.7175 Y0.8091
N8700 X-0.7197 Y0.814
N8705 X-0.7224 Y0.8187
N8710 X-0.7255 Y0.8231
N8715 X-0.7291 Y0.8272
N8720 X-0.7329 Y0.8309
N8725 X-0.7371 Y0.8344
N8730 X-0.7416 Y0.8374
N8735 X-0.7462 Y0.8401
N8740 X-0.7511 Y0.8425
N8745 X-0.7561 Y0.8444
N8750 X-0.7613 Y0.846
N8755 X-0.7719 Y0.8479
N8760 X-0.7827 Y0.8483
N8765 X-0.7934 Y0.8471
N8770 X-0.8039 Y0.8444
N8775 X-0.8139 Y0.8402
N8780 X-0.8231 Y0.8347
N8785 X-0.8316 Y0.828
N8790 X-0.839 Y0.8202
N8795 X-0.8453 Y0.8114
N8800 X-0.8503 Y0.8018
N8805 X-0.8539 Y0.7917
N8810 X-0.8562 Y0.7811
N8815 X-0.8569 Y0.7703
N8820 X-0.8562 Y0.7596
N8825 X-0.854 Y0.749
N8830 X-0.8503 Y0.7388
N8835 X-0.8454 Y0.7293
N8840 X-0.8391 Y0.7205
N8845 X-0.8317 Y0.7126
N8850 X-0.8233 Y0.7058
N8855 X-0.8141 Y0.7002
N8860 X-0.8042 Y0.696
N8865 X-0.7938 Y0.6931
N8870 X-0.7831 Y0.6917
N8875 X-0.7723
N8880 X-0.7616 Y0.6933
N8885 X-0.7512 Y0.6962
N8890 X-0.7413 Y0.7006
N8895 X-0.7322 Y0.7063
N8900 X-0.7238 Y0.7131
N8905 X-0.7165 Y0.7211
N8910 X-0.7104 Y0.7299
N8915 X-0.7054 Y0.7395
N8920 X-0.7014 Y0.7497
N8925 X-0.6982 Y0.76
N8930 X-0.6961 Y0.7706
N8935 X-0.6953 Y0.7814
N8940 X-0.6958 Y0.7922
N8945 X-0.6976 Y0.8028
N8950 X-0.7009 Y0.8131
N8955 X-0.7056 Y0.8228
N8960 X-0.7115 Y0.8318
N8965 X-0.7185 Y0.84
N8970 X-0.7266 Y0.8472
N8975 X-0.7355 Y0.8533
N8980 X-0.7451 Y0.8582
N8985 X-0.7552 Y0.8619
N8990 X-0.7657 Y0.8644
N8995 X-0.7765 Y0.8656
N9000 X-0.7873 Y0.8655
N9005 X-0.798 Y0.8641
N9010 X-0.8084 Y0.8615
N9015 X-0.8185 Y0.8576
N9020 X-0.8281 Y0.8527
N9025 X-0.8371 Y0.8467
N9030 X-0.8453 Y0.8397
N9035 X-0.8527 Y0.8318
N9040 X-0.8592 Y0.8232
N9045 X-0.8646 Y0.8138
N9050 X-0.8689 Y0.8039
N9055 X-0.8721 Y0.7936
N9060 X-0.8742 Y0.783
N9065 X-0.875 Y0.7723
N9070 X-0.8746 Y0.7615
N9075 X-0.8731 Y0.7508
N9080 X-0.8703 Y0.7404
N9085 X-0.8664 Y0.7303
N9090 X-0.8614 Y0.7207
N9095 X-0.8554 Y0.7118
N9100 X-0.8484 Y0.7035
N9105 X-0.8406 Y0.6961
N9110 X-0.8319 Y0.6896
N9115 X-0.8227 Y0.6841
N9120 X-0.8128 Y0.6797
N9125 X-0.8025 Y0.6764
N9130 X-0.7919 Y0.6743
N9135 X-0.7812 Y0.6734
N9140 X-0.7704 Y0.6736
N9145 X-0.7597 Y0.6751
N9150 X-0.7492 Y0.6777
N9155 X-0.7391 Y0.6815
N9160 X-0.7295 Y0.6863
N9165 X-0.7204 Y0.6923
N9170 X-0.7121 Y0.6991
N9175 X-0.7046 Y0.7068
N9180 X-0.6978 Y0.7152
N9185 X-0.6918 Y0.7242
N9190 X-0.6867 Y0.7338
N9195 X-0.6825 Y0.7437
N9200 X-0.6793 Y0.754
N9205 X-0.6771 Y0.7646
N9210 X-0.676 Y0.7753
N9215 X-0.6759 Y0.7861
N9220 X-0.677 Y0.7969
N9225 X-0.6792 Y0.8074
N9230 X-0.6825 Y0.8177
N9235 X-0.6869 Y0.8276
N9240 X-0.6922 Y0.8369
N9245 X-0.6986 Y0.8457
N9250 X-0.7058 Y0.8537
N9255 X-0.7138 Y0.861
N9260 X-0.7225 Y0.8673
N9265 X-0.7318 Y0.8728
N9270 X-0.7416 Y0.8773
N9275 X-0.7519 Y0.8807
N9280 X-0.7624 Y0.8832
N9285 X-0.7731 Y0.8845
N9290 X-0.7839 Y0.8849
N9295 X-0.7947 Y0.8841
N9300 X-0.8053 Y0.8823
N9305 X-0.8157 Y0.8795
N9310 X-0.8258 Y0.8757
N9315 X-0.8355 Y0.871
N9320 X-0.8447 Y0.8653
N9325 X-0.8533 Y0.8588
N9330 X-0.8613 Y0.8515
N9335 X-0.8686 Y0.8435
N9340 X-0.875 Y0.8349
N9345 X-0.8807 Y0.8257
N9350 X-0.8854 Y0.816
N9355 X-0.8892 Y0.8059
N9360 X-0.8921 Y0.7954
N9365 X-0.8939 Y0.7848
N9370 X-0.8948 Y0.7741
N9375 X-0.8947 Y0.7633
N9380 X-0.8936 Y0.7525
N9385 X-0.8914 Y0.7419
N9390 X-0.8884 Y0.7316
N9395 X-0.8843 Y0.7216
N9400 X-0.8794 Y0.712
N9405 X-0.8736 Y0.7029
N9410 X-0.867 Y0.6943
N9415 X-0.8596 Y0.6865
N9420 X-0.8515 Y0.6793
N9425 X-0.8428 Y0.6729
N9430 X-0.8335 Y0.6674
N9435 X-0.8238 Y0.6627
N9440 X-0.8137 Y0.6589
N9445 X-0.8032 Y0.6561
N9450 X-0.7926 Y0.6543
N9455 X-0.7818 Y0.6534
N9460 X-0.771 Y0.6536
N9465 X-0.7603 Y0.6547
N9470 X-0.7497 Y0.6568
N9475 X-0.7394 Y0.6599
N9480 X-0.7294 Y0.664
N9485 X-0.7198 Y0.6689
N9490 X-0.7106 Y0.6746
N9495 X-0.702 Y0.6812
N9500 X-0.694 Y0.6884
N9505 X-0.6866 Y0.6962
N9510 X-0.6799 Y0.7047
N9515 X-0.6739 Y0.7137
N9520 X-0.6686 Y0.7231
N9525 X-0.6642 Y0.733
N9530 X-0.6606 Y0.7432
N9535 X-0.6579 Y0.7536
N9540 X-0.6561 Y0.7642
N9545 X-0.6551 Y0.775
N9550 Y0.7858
N9555 X-0.6561 Y0.7966
N9560 X-0.6579 Y0.8072
N9565 X-0.6607 Y0.8176
N9570 X-0.6644 Y0.8278
N9575 X-0.6689 Y0.8376
N9580 X-0.6743 Y0.8469
N9585 X-0.6805 Y0.8558
N9590 X-0.6874 Y0.8641
N9595 X-0.695 Y0.8718
N9600 X-0.7032 Y0.8788
N9605 X-0.712 Y0.885
N9610 X-0.7213 Y0.8905
N9615 X-0.731 Y0.8952
N9620 X-0.736 Y0.8972
N9625 X-0.7463 Y0.9007
N9630 X-0.7567 Y0.9032
N9635 X-0.7674 Y0.9049
N9640 X-0.7782 Y0.9057
N9645 X-0.789 Y0.9055
N9650 X-0.7997 Y0.9045
N9655 X-0.8104 Y0.9027
N9660 X-0.8209 Y0.8999
N9665 X-0.8311 Y0.8963
N9670 X-0.8411 Y0.8919
N9675 X-0.8507 Y0.8866
N9680 X-0.8599 Y0.8805
N9685 X-0.8685 Y0.8738
N9690 X-0.8766 Y0.8662
N9695 X-0.8841 Y0.8581
N9700 X-0.8909 Y0.8493
N9705 X-0.897 Y0.8401
N9710 X-0.9023 Y0.8303
N9715 X-0.9068 Y0.82
N9720 X-0.9105 Y0.8095
N9725 X-0.9132 Y0.7987
N9730 X-0.9152 Y0.7877
N9735 X-0.9162 Y0.7765
N9740 Y0.7653
N9745 X-0.9154 Y0.7541
N9750 X-0.9137 Y0.743
N9755 X-0.911 Y0.732
N9760 X-0.9075 Y0.7213
N9765 X-0.9031 Y0.711
N9770 X-0.8979 Y0.701
N9775 X-0.8918 Y0.6915
N9780 X-0.885 Y0.6825
N9785 X-0.8776 Y0.6741
N9790 X-0.8694 Y0.6663
N9795 X-0.8606 Y0.6592
N9800 X-0.8513 Y0.6528
N9805 X-0.8415 Y0.6472
N9810 X-0.8313 Y0.6425
N9815 X-0.8206 Y0.6385
N9820 X-0.8097 Y0.6355
N9825 X-0.7986 Y0.6334
N9830 X-0.7875 Y0.6321
N9835 X-0.7761 Y0.6318
N9840 X-0.7648 Y0.6325
N9845 X-0.7535 Y0.634
N9850 X-0.7423 Y0.6365
N9855 X-0.7312 Y0.6399
N9860 X-0.7204 Y0.6443
N9865 X-0.7098 Y0.6495
N9870 X-0.6995 Y0.6557
N9875 X-0.6898 Y0.6628
N9880 X-0.6805 Y0.6707
N9885 X-0.6719 Y0.6794
N9890 X-0.6641 Y0.6887
N9895 X-0.6569 Y0.6987
N9900 X-0.6507 Y0.7093
N9905 X-0.6453 Y0.7202
N9910 X-0.6409 Y0.7316
N9915 X-0.6374 Y0.7432
N9920 X-0.6349 Y0.7551
N9925 X-0.6333 Y0.7671
N9930 X-0.6328 Y0.7792
N9935 X-0.6332 Y0.7912
N9940 X-0.6346 Y0.8032
N9945 X-0.637 Y0.815
N9950 X-0.6403 Y0.8266
N9955 X-0.6445 Y0.8378
N9960 X-0.6497 Y0.8486
N9965 X-0.6557 Y0.859
N9970 X-0.6625 Y0.8689
N9975 X-0.6702 Y0.8782
N9980 X-0.6786 Y0.8869
N9985 X-0.6878 Y0.8949
N9990 X-0.6976 Y0.9022
N9995 X-0.708 Y0.9086
N10000 X-0.7189 Y0.9142
N10005 X-0.7302 Y0.9189
N10010 X-0.742 Y0.9227
N10015 X-0.7541 Y0.9255
N10020 X-0.7664 Y0.9273
N10025 X-0.7788 Y0.9282
N10030 X-0.7913 Y0.928
N10035 X-0.8039 Y0.9267
N10040 X-0.8163 Y0.9245
N10045 X-0.8285 Y0.9212
N10050 X-0.8405 Y0.917
N10055 X-0.8521 Y0.9117
N10060 X-0.8633 Y0.9055
N10065 X-0.8739 Y0.8984
N10070 X-0.884 Y0.8905
N10075 X-0.8934 Y0.8817
N10080 X-0.9021 Y0.8721
N10085 X-0.91 Y0.8619
N10090 X-0.9171 Y0.851
N10095 X-0.9232 Y0.8396
N10100 X-0.9284 Y0.8277
N10105 X-0.9327 Y0.8154
N10110 X-0.9359 Y0.8027
N10115 X-0.938 Y0.7899
N10120 X-0.9391 Y0.7768
N10125 X-0.9392 Y0.7637
N10130 X-0.9382 Y0.7507
N10135 X-0.9361 Y0.7378
N10140 X-0.933 Y0.725
N10145 X-0.9288 Y0.7126
N10150 X-0.9236 Y0.7005
N10155 X-0.9175 Y0.6889
N10160 X-0.9104 Y0.6778
N10165 X-0.9025 Y0.6673
N10170 X-0.8937 Y0.6575
N10175 X-0.8841 Y0.6485
N10180 X-0.8739 Y0.6403
N10185 X-0.8629 Y0.6329
N10190 X-0.8515 Y0.6264
N10195 X-0.8395 Y0.6209
N10200 X-0.8271 Y0.6164
N10205 X-0.8144 Y0.6129
N10210 X-0.8014 Y0.6104
N10215 X-0.7883 Y0.6091
N10220 X-0.775 Y0.6087
N10225 X-0.7617 Y0.6095
N10230 X-0.7484 Y0.6114
N10235 X-0.7352 Y0.6144
N10240 X-0.7222 Y0.6184
N10245 X-0.7095 Y0.6236
N10250 X-0.6972 Y0.6298
N10255 X-0.6854 Y0.637
N10260 X-0.6741 Y0.6452
N10265 X-0.6635 Y0.6544
N10270 X-0.6537 Y0.6644
N10275 X-0.6447 Y0.6751
N10280 X-0.6366 Y0.6866
N10285 X-0.6294 Y0.6987
N10290 X-0.6233 Y0.7114
N10295 X-0.6182 Y0.7245
N10300 X-0.6143 Y0.738
N10305 X-0.6114 Y0.7517
N10310 X-0.6097 Y0.7656
N10315 X-0.6091 Y0.7796
N10320 X-0.6096 Y0.7936
N10325 X-0.6113 Y0.8075
N10330 X-0.6141 Y0.8211
N10335 X-0.618 Y0.8345
N10340 X-0.623 Y0.8476
N10345 X-0.629 Y0.8602
N10350 X-0.6361 Y0.8723
N10355 X-0.6442 Y0.8838
N10360 X-0.6531 Y0.8946
N10365 X-0.663 Y0.9047
N10370 X-0.6736 Y0.9139
N10375 X-0.685 Y0.9223
N10380 X-0.6971 Y0.9297
N10385 X-0.7098 Y0.9362
N10390 X-0.723 Y0.9416
N10395 X-0.7366 Y0.9459
N10400 X-0.7506 Y0.9491
N10405 X-0.7649 Y0.9512
N10410 X-0.7721 Y0.9518
N10415 X-0.7865 Y0.9521
N10420 X-0.801 Y0.9512
N10425 X-0.8154 Y0.9492
N10430 X-0.8297 Y0.9459
N10435 X-0.8436 Y0.9415
N10440 X-0.8572 Y0.936
N10445 X-0.8703 Y0.9293
N10450 X-0.8829 Y0.9216
N10455 X-0.8949 Y0.9129
N10460 X-0.9061 Y0.9032
N10465 X-0.9165 Y0.8926
N10470 X-0.926 Y0.8811
N10475 X-0.9345 Y0.8689
N10480 X-0.9421 Y0.856
N10485 X-0.9486 Y0.8426
N10490 X-0.954 Y0.8286
N10495 X-0.9582 Y0.8142
N10500 X-0.9612 Y0.7995
N10505 X-0.9631 Y0.7846
N10510 X-0.9637 Y0.7695
N10515 X-0.9631 Y0.7545
N10520 X-0.9612 Y0.7395
N10525 X-0.9582 Y0.7247
N10530 X-0.9539 Y0.7102
N10535 X-0.9485 Y0.6961
N10540 X-0.9419 Y0.6825
N10545 X-0.9343 Y0.6695
N10550 X-0.9255 Y0.6571
N10555 X-0.9159 Y0.6454
N10560 X-0.9053 Y0.6346
N10565 X-0.8938 Y0.6247
N10570 X-0.8816 Y0.6158
N10575 X-0.8686 Y0.6078
N10580 X-0.8551 Y0.601
N10585 X-0.841 Y0.5952
N10590 X-0.8265 Y0.5907
N10595 X-0.8116 Y0.5873
N10600 X-0.7965 Y0.5851
N10605 X-0.7812 Y0.5842
N10610 X-0.7658 Y0.5845
N10615 X-0.7504 Y0.5861
N10620 X-0.7352 Y0.589
N10625 X-0.7201 Y0.5931
N10630 X-0.7053 Y0.5985
N10635 X-0.691 Y0.605
N10640 X-0.6772 Y0.6128
N10645 X-0.664 Y0.6217
N10650 X-0.6516 Y0.6316
N10655 X-0.64 Y0.6426
N10660 X-0.6293 Y0.6545
N10665 X-0.6195 Y0.6672
N10670 X-0.6109 Y0.6807
N10675 X-0.6034 Y0.6949
N10680 X-0.597 Y0.7097
N10685 X-0.5919 Y0.7249
N10690 X-0.5881 Y0.7404
N10695 X-0.5855 Y0.7563
N10700 X-0.5842 Y0.7723
N10705 Y0.7883
N10710 X-0.5856 Y0.8042
N10715 X-0.5882 Y0.8201
N10720 X-0.5921 Y0.8356
N10725 X-0.5973 Y0.8508
N10730 X-0.6037 Y0.8655
N10735 X-0.6113 Y0.8796
N10740 X-0.62 Y0.8931
N10745 X-0.6298 Y0.9059
N10750 X-0.6407 Y0.9179
N10755 X-0.6525 Y0.9289
N10760 X-0.6652 Y0.939
N10765 X-0.6787 Y0.948
N10770 X-0.6929 Y0.9559
N10775 X-0.7078 Y0.9626
N10780 X-0.7232 Y0.9682
N10785 X-0.739 Y0.9724
N10790 X-0.7552 Y0.9754
N10795 X-0.7716 Y0.977
N10800 X-0.7881 Y0.9773
N10805 X-0.8046 Y0.9762
N10810 X-0.8211 Y0.9738
N10815 X-0.8373 Y0.97
N10820 X-0.8532 Y0.965
N10825 X-0.8687 Y0.9586
N10830 X-0.8836 Y0.9509
N10835 X-0.898 Y0.9421
N10840 X-0.9115 Y0.9321
N10845 X-0.9242 Y0.921
N10850 X-0.936 Y0.9089
N10855 X-0.9468 Y0.8958
N10860 X-0.9565 Y0.8819
N10865 X-0.9651 Y0.8672
N10870 X-0.9724 Y0.8518
N10875 X-0.9785 Y0.8358
N10880 X-0.9832 Y0.8194
N10885 X-0.9866 Y0.8027
N10890 X-0.9886 Y0.7857
N10895 X-0.9893 Y0.7686
N10900 X-0.9885 Y0.7515
N10905 X-0.9863 Y0.7344
N10910 X-0.9828 Y0.7176
N10915 X-0.9779 Y0.7012
N10920 X-0.9716 Y0.6851
N10925 X-0.9641 Y0.6697
N10930 X-0.9553 Y0.6548
N10935 X-0.9454 Y0.6408
N10940 X-0.9343 Y0.6276
N10945 X-0.9222 Y0.6153
N10950 X-0.9091 Y0.6041
N10955 X-0.8951 Y0.594
N10960 X-0.8804 Y0.585
N10965 X-0.8649 Y0.5772
N10970 X-0.8489 Y0.5708
N10975 X-0.8323 Y0.5656
N10980 X-0.8153 Y0.5618
N10985 X-0.798 Y0.5594
N10990 X-0.7806 Y0.5585
N10995 X-0.763 Y0.5589
N11000 X-0.7455 Y0.5608
N11005 X-0.7282 Y0.5641
N11010 X-0.711 Y0.5688
N11015 X-0.6943 Y0.575
N11020 X-0.6781 Y0.5825
N11025 X-0.6702 Y0.5868
N11030 X-0.655 Y0.5962
N11035 X-0.6405 Y0.607
N11040 X-0.6269 Y0.6188
N11045 X-0.6143 Y0.6318
N11050 X-0.6028 Y0.6458
N11055 X-0.5925 Y0.6607
N11060 X-0.5834 Y0.6764
N11065 X-0.5757 Y0.6928
N11070 X-0.5692 Y0.7098
N11075 X-0.5642 Y0.7272
N11080 X-0.5606 Y0.745
N11085 X-0.5585 Y0.763
N11090 X-0.5579 Y0.7812
N11095 X-0.5587 Y0.7993
N11100 X-0.5611 Y0.8173
N11105 X-0.5649 Y0.8351
N11110 X-0.5701 Y0.8525
N11115 X-0.5767 Y0.8695
N11120 X-0.5847 Y0.8858
N11125 X-0.594 Y0.9015
N11130 X-0.6046 Y0.9164
N11135 X-0.6164 Y0.9304
N11140 X-0.6293 Y0.9434
N11145 X-0.6432 Y0.9553
N11150 X-0.6581 Y0.966
N11155 X-0.6739 Y0.9756
N11160 X-0.6904 Y0.9838
N11165 X-0.7076 Y0.9907
N11170 X-0.7253 Y0.9962
N11175 X-0.7434 Y1.0002
N11180 X-0.7619 Y1.0027
N11185 X-0.7805 Y1.0037
N11190 X-0.7992 Y1.0032
N11195 X-0.8179 Y1.0012
N11200 X-0.8363 Y0.9976
N11205 X-0.8545 Y0.9925
N11210 X-0.8722 Y0.986
N11215 X-0.8893 Y0.978
N11220 X-0.9058 Y0.9686
N11225 X-0.9215 Y0.9579
N11230 X-0.9363 Y0.946
N11235 X-0.9501 Y0.9328
N11240 X-0.9628 Y0.9185
N11245 X-0.9743 Y0.9032
N11250 X-0.9845 Y0.8871
N11255 X-0.9934 Y0.8701
N11260 X-1.0009 Y0.8524
N11265 X-1.0069 Y0.8341
N11270 X-1.0114 Y0.8154
N11275 X-1.0144 Y0.7964
N11280 X-1.0158 Y0.7771
N11285 X-1.0157 Y0.7578
N11290 X-1.014 Y0.7386
N11295 X-1.0107 Y0.7195
N11300 X-1.0058 Y0.7008
N11305 X-0.9995 Y0.6825
N11310 X-0.9916 Y0.6647
N11315 X-0.9824 Y0.6477
N11320 X-0.9718 Y0.6315
N11325 X-0.9598 Y0.6161
N11330 X-0.9467 Y0.6018
N11335 X-0.9324 Y0.5887
N11340 X-0.9171 Y0.5767
N11345 X-0.9009 Y0.5659
N11350 X-0.8838 Y0.5566
N11355 X-0.866 Y0.5486
N11360 X-0.8476 Y0.5421
N11365 X-0.8286 Y0.5372
N11370 X-0.819 Y0.5353
N11375 X-0.8093 Y0.5337
N11380 X-0.7995 Y0.5326
N11385 X-0.7897 Y0.5319
N11390 X-0.7798 Y0.5316
N11395 X-0.7699 Y0.5317
N11400 X-0.7601 Y0.5322
N11405 X-0.7502 Y0.5331
N11410 X-0.7403 Y0.5344
N11415 X-0.7305 Y0.5361
N11420 X-0.7208 Y0.5382
N11425 X-0.7112 Y0.5407
N11430 X-0.7016 Y0.5436
N11435 X-0.6922 Y0.5469
N11440 X-0.6828 Y0.5506
N11445 X-0.6737 Y0.5546
N11450 X-0.6647 Y0.5591
N11455 X-0.6558 Y0.5639
N11460 X-0.6472 Y0.569
N11465 X-0.6388 Y0.5746
N11470 X-0.6306 Y0.5804
N11475 X-0.6226 Y0.5867
N11480 X-0.6149 Y0.5932
N11485 X-0.6074 Y0.6
N11490 X-0.6003 Y0.6072
N11495 X-0.5934 Y0.6146
N11500 X-0.5868 Y0.6224
N11505 X-0.5806 Y0.6304
N11510 X-0.5746 Y0.6386
N11515 X-0.569 Y0.6471
N11520 X-0.5638 Y0.6558
N11525 X-0.5589 Y0.6647
N11530 X-0.5544 Y0.6738
N11535 X-0.5503 Y0.6831
N11540 X-0.5465 Y0.6926
N11545 X-0.5432 Y0.7022
N11550 X-0.5402 Y0.7119
N11555 X-0.5376 Y0.7218
N11560 X-0.5354 Y0.7317
N11565 X-0.5337 Y0.7417
N11570 X-0.5323 Y0.7518
N11575 X-0.5314 Y0.762
N11580 X-0.5309 Y0.7722
N11585 X-0.5308 Y0.7823
N11590 X-0.5311 Y0.7925
N11595 X-0.5318 Y0.8027
N11600 X-0.5329 Y0.8128
N11605 X-0.5345 Y0.8229
N11610 X-0.5364 Y0.8329
N11615 X-0.5388 Y0.8428
N11620 X-0.5416 Y0.8527
N11625 X-0.5447 Y0.8624
N11630 X-0.5483 Y0.8719
N11635 X-0.5523 Y0.8813
N11640 X-0.5566 Y0.8906
N11645 X-0.5613 Y0.8997
N11650 X-0.5664 Y0.9086
N11655 X-0.5719 Y0.9172
N11660 X-0.5777 Y0.9257
N11665 X-0.5838 Y0.9339
N11670 X-0.5903 Y0.9418
N11675 X-0.5971 Y0.9495
N11680 X-0.6042 Y0.9569
N11685 X-0.6116 Y0.964
N11690 X-0.6193 Y0.9709
N11695 X-0.6273 Y0.9774
N11700 X-0.6355 Y0.9835
N11705 X-0.644 Y0.9894
N11710 X-0.6528 Y0.9949
N11715 X-0.6618 Y1.
N11720 X-0.6709 Y1.0048
N11725 X-0.6803 Y1.0092
N11730 X-0.6899 Y1.0132
N11735 X-0.6996 Y1.0168
N11740 X-0.7095 Y1.02
N11745 X-0.7195 Y1.0228
N11750 X-0.7296 Y1.0253
N11755 X-0.7398 Y1.0273
N11760 X-0.7501 Y1.0288
N11765 X-0.7605 Y1.03
N11770 X-0.7709 Y1.0307
N11775 X-0.7814 Y1.0311
N11780 X-0.7918 Y1.031
N11785 X-0.8023 Y1.0304
N11790 X-0.8127 Y1.0294
N11795 X-0.8231 Y1.028
N11800 X-0.8335 Y1.0262
N11805 X-0.8438 Y1.024
N11810 X-0.854 Y1.0213
N11815 X-0.8641 Y1.0182
N11820 X-0.874 Y1.0147
N11825 X-0.8838 Y1.0108
N11830 X-0.8935 Y1.0065
N11835 X-0.903 Y1.0018
N11840 X-0.9123 Y0.9968
N11845 X-0.9214 Y0.9913
N11850 X-0.9302 Y0.9855
N11855 X-0.9389 Y0.9793
N11860 X-0.9472 Y0.9727
N11865 X-0.9553 Y0.9658
N11870 X-0.9632 Y0.9586
N11875 X-0.9707 Y0.951
N11880 X-0.9779 Y0.9432
N11885 X-0.9848 Y0.935
N11890 X-0.9914 Y0.9266
N11895 X-0.9976 Y0.9179
N11900 X-1.0035 Y0.909
N11905 X-1.009 Y0.8998
N11910 X-1.0141 Y0.8904
N11915 X-1.0188 Y0.8808
N11920 X-1.0232 Y0.871
N11925 X-1.0271 Y0.861
N11930 X-1.0306 Y0.8509
N11935 X-1.0338 Y0.8406
N11940 X-1.0365 Y0.8302
N11945 X-1.0387 Y0.8197
N11950 X-1.0406 Y0.8091
N11955 X-1.042 Y0.7984
N11960 X-1.0429 Y0.7877
N11965 X-1.0435 Y0.7769
N11970 X-1.0436 Y0.7661
N11975 X-1.0432 Y0.7553
N11980 X-1.0424 Y0.7446
N11985 X-1.0412 Y0.7339
N11990 X-1.0396 Y0.7232
N11995 X-1.0375 Y0.7126
N12000 X-1.0349 Y0.7021
N12005 X-1.032 Y0.6917
N12010 X-1.0286 Y0.6814
N12015 X-1.0248 Y0.6713
N12020 X-1.0206 Y0.6613
N12025 X-1.016 Y0.6516
N12030 X-1.011 Y0.642
N12035 X-1.0056 Y0.6326
N12040 X-0.9998 Y0.6234
N12045 X-0.9937 Y0.6145
N12050 X-0.9871 Y0.6058
N12055 X-0.9803 Y0.5974
N12060 X-0.9731 Y0.5893
N12065 X-0.9656 Y0.5815
N12070 X-0.9577 Y0.574
N12075 X-0.9496 Y0.5669
N12080 X-0.9411 Y0.56
N12085 X-0.9324 Y0.5535
N12090 X-0.9235 Y0.5474
N12095 X-0.9142 Y0.5416
N12100 X-0.9048 Y0.5362
N12105 X-0.8951 Y0.5312
N12110 X-0.8852 Y0.5266
N12115 X-0.8752 Y0.5224
N12120 X-0.8649 Y0.5186
N12125 X-0.8545 Y0.5153
N12130 X-0.844 Y0.5123
N12135 X-0.8334 Y0.5098
N12140 X-0.8226 Y0.5077
N12145 X-0.8118 Y0.5061
N12150 X-0.8008 Y0.5049
N12155 X-0.7899 Y0.5041
N12160 X-0.7789 Y0.5038
N12165 X-0.7678 Y0.5039
N12170 X-0.7568 Y0.5045
N12175 X-0.7458 Y0.5056
N12180 X-0.7348 Y0.5071
N12185 X-0.7239 Y0.509
N12190 X-0.7131 Y0.5114
N12195 X-0.7023 Y0.5142
N12200 X-0.6917 Y0.5175
N12205 X-0.6812 Y0.5212
N12210 X-0.6708 Y0.5253
N12215 X-0.6606 Y0.5299
N12220 X-0.6506 Y0.5349
N12225 X-0.6408 Y0.5403
N12230 X-0.6312 Y0.5461
N12235 X-0.6219 Y0.5522
N12240 X-0.6128 Y0.5588
N12245 X-0.6039 Y0.5658
N12250 X-0.5954 Y0.5731
N12255 X-0.5871 Y0.5807
N12260 X-0.5792 Y0.5887
N12265 X-0.5716 Y0.597
N12270 X-0.5643 Y0.6056
N12275 X-0.5574 Y0.6145
N12280 X-0.5508 Y0.6237
N12285 X-0.5447 Y0.6332
N12290 X-0.5389 Y0.6429
N12295 X-0.5335 Y0.6528
N12300 X-0.5285 Y0.663
N12305 X-0.524 Y0.6733
N12310 X-0.5198 Y0.6838
N12315 X-0.5161 Y0.6945
N12320 X-0.5129 Y0.7054
N12325 X-0.51 Y0.7163
N12330 X-0.5064 Y0.7345
N12335 X-0.5052 Y0.7458
N12340 X-0.505 Y0.7514
N12345 Y0.7872
N12350 X-0.506 Y0.8074
N12355 X-0.5069 Y0.8175
N12360 X-0.5083 Y0.8277
N12365 X-0.5101 Y0.8379
N12370 X-0.5123 Y0.8482
N12375 X-0.515 Y0.8586
N12380 X-0.5181 Y0.8689
N12385 X-0.5217 Y0.8791
N12390 X-0.5257 Y0.8893
N12395 X-0.5302 Y0.8994
N12400 X-0.5351 Y0.9093
N12405 X-0.5404 Y0.919
N12410 X-0.5461 Y0.9286
N12415 X-0.5523 Y0.938
N12420 X-0.5588 Y0.9471
N12425 X-0.5658 Y0.956
N12430 X-0.5731 Y0.9646
N12435 X-0.5807 Y0.973
N12440 X-0.5888 Y0.981
N12445 X-0.5971 Y0.9887
N12450 X-0.6058 Y0.9961
N12455 X-0.6148 Y1.0031
N12460 X-0.6241 Y1.0098
N12465 X-0.6336 Y1.016
N12470 X-0.6434 Y1.0219
N12475 X-0.6535 Y1.0274
N12480 X-0.6638 Y1.0325
N12485 X-0.6743 Y1.0372
N12490 X-0.685 Y1.0414
N12495 X-0.6958 Y1.0452
N12500 X-0.7069 Y1.0486
N12505 X-0.718 Y1.0515
N12510 X-0.7293 Y1.054
N12515 X-0.7407 Y1.056
N12520 X-0.7522 Y1.0575
N12525 X-0.7637 Y1.0586
N12530 X-0.7753 Y1.0592
N12535 X-0.7869 Y1.0593
N12540 X-0.7986 Y1.0589
N12545 X-0.8102 Y1.0581
N12550 X-0.8217 Y1.0568
N12555 X-0.8333 Y1.055
N12560 X-0.8447 Y1.0528
N12565 X-0.8561 Y1.0501
N12570 X-0.8731 Y1.045
N12575 X-0.8843 Y1.0405
N12580 X-0.8949 Y1.0348
N12585 X-0.9048 Y1.0278
N12590 X-0.9165 Y1.0178
N12595 X-0.9965 Y0.9383
N12600 X-1.0187 Y0.9151
N12605 X-1.0308 Y0.9
N12610 X-1.0387 Y0.888
N12615 X-1.0464 Y0.874
N12620 X-1.0535 Y0.8582
N12625 X-1.0598 Y0.8403
N12630 X-1.0625 Y0.8309
N12635 X-1.0649 Y0.8211
N12640 X-1.0669 Y0.8111
N12645 X-1.0685 Y0.8007
N12650 X-1.0697 Y0.7901
N12655 X-1.0705 Y0.7792
N12660 X-1.0709 Y0.7682
N12665 X-1.0708 Y0.757
N12670 X-1.0703 Y0.7457
N12675 X-1.0693 Y0.7344
N12680 X-1.0678 Y0.723
N12685 X-1.0658 Y0.7116
N12690 X-1.0634 Y0.7002
N12695 X-1.0605 Y0.6889
N12700 X-1.0571 Y0.6777
N12705 X-1.0532 Y0.6666
N12710 X-1.0489 Y0.6556
N12715 X-1.0442 Y0.6448
N12720 X-1.0389 Y0.6341
N12725 X-1.0333 Y0.6237
N12730 X-1.0249 Y0.6099
N12735 X-1.0153 Y0.5976
N12740 X-1.004 Y0.5868
N12745 X-0.9912 Y0.578
N12750 X-0.8596 Y0.502
N12755 X-0.8436 Y0.4942
N12760 X-0.8315 Y0.4894
N12765 X-0.8171 Y0.4852
N12770 X-0.8011 Y0.4818
N12775 X-0.7831 Y0.4795
N12780 X-0.7639 Y0.4786
N12785 X-0.7538 Y0.4788
N12790 X-0.7434 Y0.4794
N12795 X-0.7327 Y0.4804
N12800 X-0.7219 Y0.482
N12805 X-0.711 Y0.4839
N12810 X-0.7 Y0.4864
N12815 X-0.6889 Y0.4894
N12820 X-0.6779 Y0.4928
N12825 X-0.6669 Y0.4967
N12830 X-0.656 Y0.5011
N12835 X-0.6452 Y0.506
N12840 X-0.6346 Y0.5114
N12845 X-0.6241 Y0.5172
N12850 X-0.6137 Y0.5235
N12855 X-0.6036 Y0.5302
N12860 X-0.5938 Y0.5374
N12865 X-0.5842 Y0.545
N12870 X-0.5749 Y0.553
N12875 X-0.5659 Y0.5614
N12880 X-0.5572 Y0.5701
N12885 X-0.5489 Y0.5793
N12890 X-0.541 Y0.5888
N12895 X-0.5334 Y0.5986
N12900 X-0.5263 Y0.6087
N12905 X-0.5189 Y0.6201
N12910 X-0.5129 Y0.632
N12915 X-0.5085 Y0.6446
N12920 X-0.5059 Y0.6577
N12925 X-0.505 Y0.671
N12930 Y0.7514
N12935 G3 X-0.5072 Y0.7608 I-0.025 J-0.0009
N12940 G2 X-0.506 Y0.7836 I0.0228 J0.0103
N12945 G3 X-0.505 Y0.7872 I-0.0068 J0.0039
N12950 G1 Y0.8667
N12955 X-0.5059 Y0.8795
N12960 X-0.5076 Y0.8908
N12965 X-0.5107 Y0.9033
N12970 X-0.5153 Y0.9175
N12975 X-0.5217 Y0.9326
N12980 X-0.5302 Y0.9487
N12985 X-0.5405 Y0.9651
N12990 X-0.5465 Y0.9734
N12995 X-0.5531 Y0.9818
N13000 X-0.5601 Y0.99
N13005 X-0.5677 Y0.9982
N13010 X-0.5757 Y1.0062
N13015 X-0.5841 Y1.0139
N13020 X-0.593 Y1.0214
N13025 X-0.6023 Y1.0286
N13030 X-0.612 Y1.0355
N13035 X-0.622 Y1.0421
N13040 X-0.6324 Y1.0483
N13045 X-0.6432 Y1.0541
N13050 X-0.6542 Y1.0596
N13055 X-0.6655 Y1.0645
N13060 X-0.6771 Y1.0691
N13065 X-0.6889 Y1.0732
N13070 X-0.7009 Y1.0768
N13075 X-0.7131 Y1.08
N13080 X-0.7254 Y1.0826
N13085 X-0.7379 Y1.0848
N13090 X-0.7504 Y1.0864
N13095 X-0.7631 Y1.0875
N13100 X-0.7758 Y1.0881
N13105 X-0.7886 Y1.0882
N13110 X-0.8022 Y1.0877
N13115 X-0.8171 Y1.0855
N13120 X-0.8315 Y1.081
N13125 X-0.8451 Y1.0744
N13130 X-0.8575 Y1.0659
N13135 X-0.9048 Y1.0278
N13140 X-0.906 Y1.0267 Z-0.6999 F48.
N13145 X-0.9075 Y1.0251 Z-0.6992
N13150 X-0.9089 Y1.0237 Z-0.6981
N13155 X-0.9101 Y1.0226 Z-0.6965
N13160 X-0.911 Y1.0217 Z-0.6946
N13165 X-0.9116 Y1.0211 Z-0.6925
N13170 X-0.9118 Y1.0209 Z-0.6902
N13175 G0 Z0.2
N13180 X-0.5072 Y0.8572
N13185 Z-0.675
N13190 G1 Z-0.7 F48.
N13195 G3 X-0.505 Y0.8667 I-0.0227 J0.0104
N13200 G1 Y0.9145 F100.
N13205 X-0.5059 Y0.9271
N13210 X-0.5077 Y0.9377
N13215 X-0.5106 Y0.9485
N13220 X-0.5149 Y0.9601
N13225 X-0.5208 Y0.973
N13230 X-0.5286 Y0.987
N13235 X-0.5384 Y1.0015
N13240 X-0.5505 Y1.0166
N13245 X-0.5575 Y1.0243
N13250 X-0.5649 Y1.0318
N13255 X-0.5728 Y1.0393
N13260 X-0.5813 Y1.0466
N13265 X-0.5903 Y1.0537
N13270 X-0.5999 Y1.0607
N13275 X-0.61 Y1.0675
N13280 X-0.6206 Y1.074
N13285 X-0.6316 Y1.0801
N13290 X-0.643 Y1.0858
N13295 X-0.6548 Y1.0912
N13300 X-0.6669 Y1.0961
N13305 X-0.6794 Y1.1006
N13310 X-0.6921 Y1.1046
N13315 X-0.705 Y1.1081
N13320 X-0.7181 Y1.111
N13325 X-0.7315 Y1.1135
N13330 X-0.7427 Y1.1151
N13335 X-0.7537 Y1.1162
N13340 X-0.7684 Y1.116
N13345 X-0.783 Y1.1136
N13350 X-0.797 Y1.1091
N13355 X-0.8102 Y1.1026
N13360 X-0.8224 Y1.0942
N13365 X-0.8575 Y1.0659
N13370 G3 X-0.8635 Y1.0582 I0.0164 J-0.0189 F48.
N13375 X-0.8509 Y1.0239 I0.0223 J-0.0112 F100.
N13380 G1 X-0.5397 Y0.8923
N13385 G3 X-0.5072 Y0.905 I0.0097 J0.023
N13390 X-0.505 Y0.9145 I-0.0227 J0.0104 F48.
N13395 G1 Y0.9566 F100.
N13400 X-0.5058 Y0.9674
N13405 X-0.5077 Y0.978
N13410 X-0.5108 Y0.9884
N13415 X-0.515 Y0.9991
N13420 X-0.5209 Y1.011
N13425 X-0.5284 Y1.0236
N13430 X-0.538 Y1.0372
N13435 X-0.5498 Y1.0512
N13440 X-0.5567 Y1.0584
N13445 X-0.5642 Y1.0656
N13450 X-0.5721 Y1.0726
N13455 X-0.5806 Y1.0796
N13460 X-0.5898 Y1.0866
N13465 X-0.5997 Y1.0934
N13470 X-0.6101 Y1.1
N13475 X-0.6211 Y1.1063
N13480 X-0.6325 Y1.1123
N13485 X-0.6444 Y1.118
N13490 X-0.6567 Y1.1232
N13495 X-0.6693 Y1.1279
N13500 X-0.6819 Y1.1321
N13505 X-0.6923 Y1.1351
N13510 X-0.7067 Y1.1384
N13515 X-0.7223 Y1.1402
N13520 X-0.7381 Y1.1396
N13525 X-0.7535 Y1.1365
N13530 X-0.7683 Y1.131
N13535 X-0.782 Y1.1233
N13540 X-0.8086 Y1.1053
N13545 X-0.8224 Y1.0942
N13550 G3 X-0.8283 Y1.0865 I0.0164 J-0.0189 F48.
N13555 X-0.8158 Y1.0523 I0.0223 J-0.0112 F100.
N13560 G1 X-0.5398 Y0.9345
N13565 G3 X-0.5072 Y0.9471 I0.0098 J0.023
N13570 X-0.505 Y0.9566 I-0.0227 J0.0104 F48.
N13575 G1 Y0.994 F100.
N13580 X-0.5058 Y1.0047
N13585 X-0.5079 Y1.0153
N13590 X-0.5112 Y1.0256
N13595 X-0.5155 Y1.0359
N13600 X-0.5213 Y1.0472
N13605 X-0.5288 Y1.0591
N13610 X-0.5386 Y1.0721
N13615 X-0.5503 Y1.0855
N13620 X-0.5573 Y1.0924
N13625 X-0.5648 Y1.0994
N13630 X-0.5728 Y1.1062
N13635 X-0.5815 Y1.113
N13640 X-0.5908 Y1.1197
N13645 X-0.6009 Y1.1263
N13650 X-0.6115 Y1.1327
N13655 X-0.6224 Y1.1387
N13660 X-0.6334 Y1.1441
N13665 X-0.643 Y1.1484
N13670 X-0.6527 Y1.1523
N13675 X-0.6691 Y1.1577
N13680 X-0.6855 Y1.1605
N13685 X-0.7021 Y1.1607
N13690 X-0.7185 Y1.158
N13695 X-0.7342 Y1.1527
N13700 X-0.7488 Y1.1449
N13705 X-0.782 Y1.1233
N13710 G3 X-0.7886 Y1.1162 I0.0147 J-0.0203 F48.
N13715 X-0.7777 Y1.0803 I0.0213 J-0.0131 F100.
N13720 G1 X-0.5404 Y0.9721
N13725 G3 X-0.5072 Y0.9845 I0.0104 J0.0227
N13730 X-0.505 Y0.994 I-0.0227 J0.0104 F48.
N13735 G1 Y1.0301 F100.
N13740 X-0.5059 Y1.0409
N13745 X-0.5083 Y1.0514
N13750 X-0.5118 Y1.0616
N13755 X-0.5164 Y1.0718
N13760 X-0.5224 Y1.0827
N13765 X-0.5302 Y1.0945
N13770 X-0.5402 Y1.1072
N13775 X-0.5522 Y1.1202
N13780 X-0.5593 Y1.1269
N13785 X-0.5669 Y1.1336
N13790 X-0.575 Y1.1401
N13795 X-0.5834 Y1.1464
N13800 X-0.5922 Y1.1524
N13805 X-0.6087 Y1.1622
N13810 X-0.6243 Y1.1699
N13815 X-0.6318 Y1.1729
N13820 X-0.6467 Y1.1771
N13825 X-0.662 Y1.179
N13830 X-0.6775 Y1.1785
N13835 X-0.6927 Y1.1756
N13840 X-0.7072 Y1.1704
N13845 X-0.7208 Y1.163
N13850 X-0.7488 Y1.1449
N13855 G3 X-0.7556 Y1.1378 I0.0143 J-0.0205 F48.
N13860 X-0.7449 Y1.1016 I0.0211 J-0.0135 F100.
N13865 G1 X-0.5404 Y1.0083
N13870 G3 X-0.5072 Y1.0207 I0.0104 J0.0227
N13875 X-0.505 Y1.0301 I-0.0227 J0.0104 F48.
N13880 G1 Y1.062 F100.
N13885 X-0.5058 Y1.0727
N13890 X-0.508 Y1.0833
N13895 X-0.5114 Y1.0935
N13900 X-0.5157 Y1.1034
N13905 X-0.5215 Y1.114
N13910 X-0.529 Y1.1254
N13915 X-0.5383 Y1.1372
N13920 X-0.5494 Y1.1493
N13925 X-0.562 Y1.1609
N13930 X-0.5746 Y1.1708
N13935 X-0.5876 Y1.1793
N13940 X-0.5993 Y1.1857
N13945 X-0.6151 Y1.1915
N13950 X-0.6317 Y1.1946
N13955 X-0.6486 Y1.1949
N13960 X-0.6652 Y1.1923
N13965 X-0.6812 Y1.187
N13970 X-0.6961 Y1.179
N13975 X-0.7208 Y1.163
N13980 G3 X-0.7276 Y1.156 I0.0143 J-0.0205 F48.
N13985 X-0.7168 Y1.1198 I0.0211 J-0.0135 F100.
N13990 G1 X-0.5403 Y1.04
N13995 G3 X-0.5072 Y1.0525 I0.0103 J0.0228
N14000 X-0.505 Y1.062 I-0.0227 J0.0104 F48.
N14005 G1 Y1.0957 F100.
N14010 X-0.5059 Y1.1065
N14015 X-0.5083 Y1.117
N14020 X-0.5119 Y1.1272
N14025 X-0.5164 Y1.137
N14030 X-0.5221 Y1.1469
N14035 X-0.5292 Y1.1572
N14040 X-0.5376 Y1.1675
N14045 X-0.5465 Y1.1769
N14050 X-0.5558 Y1.185
N14055 X-0.5609 Y1.189
N14060 X-0.5742 Y1.1971
N14065 X-0.5886 Y1.203
N14070 X-0.6038 Y1.2065
N14075 X-0.6193 Y1.2077
N14080 X-0.6348 Y1.2064
N14085 X-0.65 Y1.2028
N14090 X-0.6643 Y1.1968
N14095 X-0.6868 Y1.1848
N14100 X-0.6961 Y1.179
N14105 G3 X-0.7029 Y1.172 I0.0143 J-0.0205 F48.
N14110 X-0.6912 Y1.1354 I0.0211 J-0.0135 F100.
N14115 G1 X-0.5394 Y1.0735
N14120 G3 X-0.5072 Y1.0862 I0.0094 J0.0231
N14125 X-0.505 Y1.0957 I-0.0227 J0.0104 F48.
N14130 G1 Y1.1275 F100.
N14135 X-0.5059 Y1.1383
N14140 X-0.5084 Y1.1488
N14145 X-0.5122 Y1.1589
N14150 X-0.517 Y1.1686
N14155 X-0.5227 Y1.1777
N14160 X-0.5293 Y1.1863
N14165 X-0.5367 Y1.1942
N14170 X-0.5493 Y1.204
N14175 X-0.5634 Y1.2115
N14180 X-0.5786 Y1.2165
N14185 X-0.5944 Y1.2187
N14190 X-0.6104 Y1.2181
N14195 X-0.626 Y1.2148
N14200 X-0.6409 Y1.2088
N14205 X-0.6643 Y1.1968
N14210 G3 X-0.6718 Y1.1905 I0.0121 J-0.0219 F48.
N14215 X-0.6611 Y1.1516 I0.0196 J-0.0156 F100.
N14220 G1 X-0.5389 Y1.105
N14225 G3 X-0.5072 Y1.118 I0.0089 J0.0234
N14230 X-0.505 Y1.1275 I-0.0227 J0.0104 F48.
N14235 G1 Y1.1574 F100.
N14240 X-0.5053 Y1.1628
N14245 X-0.506 Y1.1681
N14250 X-0.5072 Y1.1734
N14255 X-0.5088 Y1.1785
N14260 X-0.5133 Y1.1884
N14265 X-0.516 Y1.193
N14270 X-0.5253 Y1.2043
N14275 X-0.5364 Y1.2138
N14280 X-0.549 Y1.221
N14285 X-0.5628 Y1.2259
N14290 X-0.5772 Y1.2283
N14295 X-0.5918 Y1.228
N14300 X-0.6061 Y1.2251
N14305 X-0.6196 Y1.2196
N14310 G3 X-0.627 Y1.2133 I0.0121 J-0.0219 F48.
N14315 X-0.6188 Y1.1755 I0.0196 J-0.0156 F100.
N14320 G1 X-0.5413 Y1.136
N14325 G3 X-0.5072 Y1.1479 I0.0114 J0.0223
N14330 X-0.505 Y1.1574 I-0.0227 J0.0104 F48.
N14335 G1 Y1.1812 F100.
N14340 X-0.5053 Y1.1866
N14345 X-0.5061 Y1.192
N14350 X-0.5077 Y1.1971
N14355 X-0.5097 Y1.2021
N14360 X-0.5122 Y1.2069
N14365 X-0.5209 Y1.2179
N14370 X-0.5317 Y1.2267
N14375 X-0.5442 Y1.2331
N14380 X-0.5577 Y1.2368
N14385 X-0.5716 Y1.2376
N14390 X-0.5855 Y1.2354
N14395 X-0.5985 Y1.2304
N14400 G3 X-0.606 Y1.2241 I0.0121 J-0.0219 F48.
N14405 X-0.597 Y1.1859 I0.0196 J-0.0156 F100.
N14410 G1 X-0.5406 Y1.1595
N14415 G3 X-0.5072 Y1.1717 I0.0106 J0.0226
N14420 X-0.505 Y1.1812 I-0.0227 J0.0104 F48.
N14425 G1 Y1.2007 F100.
N14430 X-0.5053 Y1.2061
N14435 X-0.5064 Y1.2114
N14440 X-0.5082 Y1.2165
N14445 X-0.5107 Y1.2213
N14450 X-0.5177 Y1.23
N14455 X-0.5265 Y1.237
N14460 X-0.5365 Y1.2421
N14465 X-0.5473 Y1.245
N14470 X-0.5585 Y1.2456
N14475 X-0.5696 Y1.2438
N14480 X-0.5801 Y1.2398
N14485 G3 X-0.5881 Y1.2341 I0.0213 J-0.0383 F48.
N14490 X-0.6019 Y1.1932 I0.0293 J-0.0327 F100.
N14495 X-0.5063 Y1.191 I0.048 J0.0092
N14500 X-0.505 Y1.2007 I-0.0475 J0.0114 F48.
N14505 G1 Y1.2166 F100.
N14510 X-0.5053 Y1.222
N14515 X-0.5066 Y1.2272
N14520 X-0.5088 Y1.2322
N14525 X-0.5152 Y1.2403
N14530 X-0.5235 Y1.2466
N14535 X-0.533 Y1.2508
N14540 X-0.5433 Y1.2524
N14545 X-0.5536 Y1.2516
N14550 X-0.5635 Y1.2482
N14555 G3 X-0.5714 Y1.2425 I0.0164 J-0.0309 F48.
N14560 X-0.5815 Y1.2109 I0.0243 J-0.0252 F100.
N14565 X-0.5066 Y1.207 I0.0379 J0.0071
N14570 X-0.505 Y1.2166 I-0.037 J0.011 F48.
N14575 G1 Y1.23 F100.
N14580 X-0.5053 Y1.2354
N14585 X-0.5069 Y1.2406
N14590 X-0.5128 Y1.2484
N14595 X-0.5208 Y1.2542
N14600 X-0.5301 Y1.2573
N14605 X-0.5399 Y1.2575
N14610 X-0.5494 Y1.2548
N14615 G3 X-0.5572 Y1.249 I0.0121 J-0.0242 F48.
N14620 X-0.5639 Y1.2256 I0.0199 J-0.0184 F100.
N14625 X-0.5069 Y1.2204 I0.0292 J0.0055
N14630 X-0.505 Y1.23 I-0.0278 J0.0106 F48.
N14635 G1 X-0.5051 Y1.2365 F100.
N14640 X-0.5056 Y1.2405
N14645 X-0.5079 Y1.2464
N14650 X-0.511 Y1.2511
N14655 X-0.5131 Y1.2533
N14660 X-0.5173 Y1.2566
N14665 X-0.5213 Y1.2587
N14670 X-0.5253 Y1.26
N14675 X-0.5293 Y1.2605
N14680 X-0.5332 Y1.2604
N14685 X-0.5372 Y1.2597
N14690 X-0.5492 Y1.2549
N14695 X-0.573 Y1.2434
N14700 X-0.6409 Y1.2088
N14705 X-0.6425 Y1.2074 Z-0.6997 F48.
N14710 X-0.6441 Y1.2061 Z-0.699
N14715 X-0.6456 Y1.205 Z-0.6979
N14720 X-0.6468 Y1.204 Z-0.6963
N14725 X-0.6477 Y1.2032 Z-0.6945
N14730 X-0.6481 Y1.2027 Z-0.6924
N14735 X-0.6483 Y1.2025 Z-0.6902
N14740 G0 Z0.2
N14745 X-1.0118 Y0.922
N14750 Z-0.675
N14755 G1 Z-0.7 F48.
N14760 X-1.0187 Y0.9151
N14765 X-1.0649 Y0.8588 F100.
N14770 X-1.0711 Y0.85
N14775 X-1.0765 Y0.8406
N14780 X-1.0815 Y0.8298
N14785 X-1.0862 Y0.817
N14790 X-1.0904 Y0.8022
N14795 X-1.0936 Y0.7856
N14800 X-1.0956 Y0.7671
N14805 X-1.0961 Y0.7571
N14810 X-1.0962 Y0.7468
N14815 X-1.0959 Y0.7362
N14820 X-1.0951 Y0.7255
N14825 X-1.0938 Y0.7145
N14830 X-1.092 Y0.7032
N14835 X-1.0898 Y0.6918
N14840 X-1.087 Y0.6803
N14845 X-1.0837 Y0.6687
N14850 X-1.079 Y0.655
N14855 X-1.0716 Y0.6395
N14860 X-1.0617 Y0.6255
N14865 X-1.0495 Y0.6134
N14870 X-1.0354 Y0.6036
N14875 X-0.9912 Y0.578
N14880 G3 X-0.9818 Y0.5752 I0.0117 J0.0221 F48.
N14885 X-0.9553 Y0.6067 I0.0024 J0.0249 F100.
N14890 G1 X-1.022 Y0.8489
N14895 G3 X-1.0572 Y0.8647 I-0.0241 J-0.0066
N14900 X-1.0649 Y0.8588 I0.011 J-0.0224 F48.
N14905 G1 X-1.0928 Y0.8246 F100.
N14910 X-1.099 Y0.8157
N14915 X-1.1043 Y0.8063
N14920 X-1.1086 Y0.7963
N14925 X-1.1124 Y0.7849
N14930 X-1.1157 Y0.7715
N14935 X-1.1182 Y0.7564
N14940 X-1.1195 Y0.7392
N14945 Y0.7204
N14950 X-1.1179 Y0.7016
N14955 X-1.1162 Y0.6904
N14960 X-1.1115 Y0.6739
N14965 X-1.1041 Y0.6583
N14970 X-1.0942 Y0.6443
N14975 X-1.082 Y0.6322
N14980 X-1.0679 Y0.6223
N14985 G3 X-1.0585 Y0.6195 I0.0117 J0.0221 F48.
N14990 X-1.0313 Y0.6471 I0.0024 J0.0249 F100.
N14995 G1 X-1.0491 Y0.8109
N15000 G3 X-1.0851 Y0.8305 I-0.0249 J-0.0027
N15005 X-1.0928 Y0.8246 I0.0111 J-0.0224 F48.
N15010 G1 X-1.1038 Y0.8111 F100.
N15015 X-1.1222 Y0.7832
N15020 X-1.1278 Y0.7733
N15025 X-1.1321 Y0.7634
N15030 X-1.1354 Y0.7531
N15035 X-1.138 Y0.7417
N15040 X-1.1396 Y0.7308
N15045 X-1.1402 Y0.7243
N15050 X-1.1397 Y0.7093
N15055 X-1.1369 Y0.6945
N15060 X-1.1318 Y0.6803
N15065 X-1.1245 Y0.667
N15070 X-1.1153 Y0.6551
N15075 X-1.1043 Y0.6447
N15080 X-1.0919 Y0.6362
N15085 G3 X-1.0825 Y0.6334 I0.0117 J0.0221 F48.
N15090 X-1.0556 Y0.6631 I0.0024 J0.0249 F100.
N15095 G1 X-1.0773 Y0.7736
N15100 G3 X-1.1151 Y0.7899 I-0.0245 J-0.0048
N15105 X-1.1222 Y0.7832 I0.0133 J-0.0212 F48.
N15110 G1 X-1.1434 Y0.751 F100.
N15115 X-1.1486 Y0.7416
N15120 X-1.1507 Y0.7366
N15125 X-1.1536 Y0.7227
N15130 X-1.1538 Y0.7085
N15135 X-1.1513 Y0.6946
N15140 X-1.1462 Y0.6814
N15145 X-1.1386 Y0.6694
N15150 X-1.1288 Y0.6591
N15155 X-1.1173 Y0.6508
N15160 G3 X-1.1079 Y0.648 I0.0117 J0.0221 F48.
N15165 X-1.0814 Y0.6795 I0.0024 J0.0249 F100.
N15170 G1 X-1.0989 Y0.7432
N15175 G3 X-1.1363 Y0.7577 I-0.0241 J-0.0066
N15180 X-1.1434 Y0.751 I0.0133 J-0.0212 F48.
N15185 G1 X-1.1571 Y0.7302 F100.
N15190 X-1.1598 Y0.7256
N15195 X-1.162 Y0.7206
N15200 X-1.1635 Y0.7154
N15205 X-1.1642 Y0.7033
N15210 X-1.1619 Y0.6914
N15215 X-1.1567 Y0.6804
N15220 X-1.1491 Y0.6709
N15225 X-1.1394 Y0.6636
N15230 G3 X-1.1303 Y0.66 I0.021 J0.0396 F48.
N15235 X-1.0756 Y0.6896 I0.0119 J0.0432 F100.
N15240 X-1.1506 Y0.7376 I-0.0439 J0.014
N15245 X-1.1571 Y0.7302 I0.0311 J-0.034 F48.
N15250 G1 X-1.1667 Y0.7157 F100.
N15255 X-1.1694 Y0.711
N15260 X-1.1713 Y0.7059
N15265 X-1.1714 Y0.6963
N15270 X-1.1686 Y0.687
N15275 X-1.1632 Y0.6791
N15280 X-1.1557 Y0.673
N15285 G3 X-1.1464 Y0.67 I0.0135 J0.0254 F48.
N15290 X-1.1149 Y0.6893 I0.0042 J0.0285 F100.
N15295 X-1.1598 Y0.7226 I-0.0279 J0.0094
N15300 X-1.1667 Y0.7157 I0.0171 J-0.0239 F48.
N15305 G1 X-1.1699 Y0.7107 F100.
N15310 X-1.1715 Y0.7077
N15315 X-1.1728 Y0.7037
N15320 X-1.1734 Y0.6998
N15325 Y0.6958
N15330 X-1.1728 Y0.6918
N15335 X-1.1717 Y0.6884
N15340 X-1.1692 Y0.6839
N15345 X-1.1656 Y0.6796
N15350 X-1.1607 Y0.6759
N15355 X-1.0354 Y0.6036
N15360 X-1.0334 Y0.6029 Z-0.6997 F48.
N15365 X-1.0314 Y0.6023 Z-0.699
N15370 X-1.0296 Y0.6017 Z-0.6979
N15375 X-1.0282 Y0.6012 Z-0.6963
N15380 X-1.0271 Y0.6009 Z-0.6945
N15385 X-1.0263 Y0.6008 Z-0.6924
N15390 X-1.0261 Z-0.6902
N15395 G0 Z0.2
N15400 X-0.8667 Y0.5087
N15405 Z-0.675
N15410 G1 Z-0.7 F48.
N15415 G3 X-0.8596 Y0.502 I0.0204 J0.0145
N15420 G1 X-0.8094 Y0.4731 F100.
N15425 X-0.7996 Y0.4683
N15430 X-0.7895 Y0.4645
N15435 X-0.7785 Y0.4615
N15440 X-0.7655 Y0.4591
N15445 X-0.7509 Y0.4575
N15450 X-0.7343 Y0.4572
N15455 X-0.7162 Y0.4582
N15460 X-0.7065 Y0.4594
N15465 X-0.6965 Y0.461
N15470 X-0.6863 Y0.4631
N15475 X-0.6759 Y0.4657
N15480 X-0.6653 Y0.4687
N15485 X-0.6545 Y0.4724
N15490 X-0.6436 Y0.4765
N15495 X-0.6326 Y0.4813
N15500 X-0.6216 Y0.4865
N15505 X-0.6107 Y0.4923
N15510 X-0.5999 Y0.4986
N15515 X-0.5892 Y0.5054
N15520 X-0.5787 Y0.5128
N15525 X-0.5684 Y0.5206
N15530 X-0.5584 Y0.5289
N15535 X-0.5487 Y0.5376
N15540 X-0.5392 Y0.5468
N15545 X-0.5296 Y0.5572
N15550 X-0.521 Y0.5686
N15555 X-0.5141 Y0.5812
N15560 X-0.5091 Y0.5946
N15565 X-0.506 Y0.6086
N15570 X-0.505 Y0.6228
N15575 Y0.671
N15580 G3 X-0.5072 Y0.6805 I-0.025 J-0.0009 F48.
N15585 X-0.5438 Y0.691 I-0.0227 J-0.0104 F100.
N15590 G1 X-0.8099 Y0.5151
N15595 G3 X-0.8165 Y0.4798 I0.0138 J-0.0209
N15600 X-0.8094 Y0.4731 I0.0204 J0.0145 F48.
N15605 G1 X-0.772 Y0.4515 F100.
N15610 X-0.7623 Y0.4468
N15615 X-0.7521 Y0.4433
N15620 X-0.7416 Y0.4407
N15625 X-0.7298 Y0.4389
N15630 X-0.7162 Y0.4379
N15635 X-0.7011 Y0.4381
N15640 X-0.6839 Y0.4397
N15645 X-0.6656 Y0.4429
N15650 X-0.6557 Y0.4453
N15655 X-0.6455 Y0.4482
N15660 X-0.6351 Y0.4515
N15665 X-0.6247 Y0.4554
N15670 X-0.614 Y0.4599
N15675 X-0.6031 Y0.465
N15680 X-0.5922 Y0.4707
N15685 X-0.5812 Y0.477
N15690 X-0.5702 Y0.4839
N15695 X-0.5596 Y0.4912
N15700 X-0.5511 Y0.4975
N15705 X-0.5362 Y0.5102
N15710 X-0.5251 Y0.5226
N15715 X-0.5165 Y0.5362
N15720 X-0.5101 Y0.551
N15725 X-0.5063 Y0.5667
N15730 X-0.505 Y0.5827
N15735 Y0.6228
N15740 G3 X-0.5072 Y0.6323 I-0.025 J-0.0009 F48.
N15745 X-0.5436 Y0.6429 I-0.0227 J-0.0104 F100.
N15750 G1 X-0.7724 Y0.4936
N15755 G3 X-0.7791 Y0.4582 I0.0137 J-0.0209
N15760 X-0.772 Y0.4515 I0.0204 J0.0145 F48.
N15765 G1 X-0.7402 Y0.4331 F100.
N15770 X-0.73 Y0.4281
N15775 X-0.7198 Y0.4246
N15780 X-0.7093 Y0.4222
N15785 X-0.6983 Y0.4206
N15790 X-0.6854 Y0.4199
N15795 X-0.671 Y0.4203
N15800 X-0.655 Y0.4221
N15805 X-0.6372 Y0.4255
N15810 X-0.6276 Y0.4279
N15815 X-0.618 Y0.4308
N15820 X-0.608 Y0.4343
N15825 X-0.5977 Y0.4383
N15830 X-0.5874 Y0.4428
N15835 X-0.5772 Y0.4478
N15840 X-0.5603 Y0.4573
N15845 X-0.5456 Y0.4673
N15850 X-0.5325 Y0.4789
N15855 X-0.5229 Y0.4906
N15860 X-0.5152 Y0.5037
N15865 X-0.5096 Y0.5178
N15870 X-0.5062 Y0.5326
N15875 X-0.505 Y0.5478
N15880 Y0.5827
N15885 G3 X-0.5072 Y0.5922 I-0.025 J-0.0009 F48.
N15890 X-0.5436 Y0.6028 I-0.0227 J-0.0104 F100.
N15895 G1 X-0.7405 Y0.4753
N15900 G3 X-0.7473 Y0.4398 I0.0136 J-0.021
N15905 X-0.7402 Y0.4331 I0.0204 J0.0145 F48.
N15910 G1 X-0.7083 Y0.4147 F100.
N15915 X-0.6986 Y0.4101
N15920 X-0.6883 Y0.4067
N15925 X-0.6778 Y0.4045
N15930 X-0.6668 Y0.4032
N15935 X-0.6543 Y0.4028
N15940 X-0.6404 Y0.4035
N15945 X-0.6245 Y0.4055
N15950 X-0.6077 Y0.4091
N15955 X-0.5903 Y0.4144
N15960 X-0.5747 Y0.4205
N15965 X-0.5601 Y0.4276
N15970 X-0.5521 Y0.4323
N15975 X-0.5386 Y0.4424
N15980 X-0.527 Y0.4546
N15985 X-0.5176 Y0.4686
N15990 X-0.5106 Y0.484
N15995 X-0.5064 Y0.5003
N16000 X-0.505 Y0.5171
N16005 Y0.5478
N16010 G3 X-0.5072 Y0.5573 I-0.025 J-0.0009 F48.
N16015 X-0.5439 Y0.5676 I-0.0227 J-0.0104 F100.
N16020 G1 X-0.709 Y0.4567
N16025 G3 X-0.7154 Y0.4214 I0.0139 J-0.0208
N16030 X-0.7083 Y0.4147 I0.0204 J0.0145 F48.
N16035 G1 X-0.6786 Y0.3976 F100.
N16040 X-0.6689 Y0.393
N16045 X-0.6586 Y0.3897
N16050 X-0.648 Y0.3876
N16055 X-0.6372 Y0.3865
N16060 X-0.6253 Y0.3863
N16065 X-0.6124 Y0.3871
N16070 X-0.5987 Y0.3891
N16075 X-0.586 Y0.392
N16080 X-0.5728 Y0.3962
N16085 X-0.5614 Y0.4009
N16090 X-0.5476 Y0.409
N16095 X-0.5353 Y0.4192
N16100 X-0.5248 Y0.4312
N16105 X-0.5163 Y0.4448
N16110 X-0.5101 Y0.4595
N16115 X-0.5063 Y0.475
N16120 X-0.505 Y0.491
N16125 Y0.5171
N16130 G3 X-0.5072 Y0.5266 I-0.025 J-0.0009 F48.
N16135 X-0.5446 Y0.5366 I-0.0227 J-0.0104 F100.
N16140 G1 X-0.68 Y0.4391
N16145 G3 X-0.6857 Y0.4043 I0.0146 J-0.0203
N16150 X-0.6786 Y0.3976 I0.0204 J0.0145 F48.
N16155 G1 X-0.6511 Y0.3817 F100.
N16160 X-0.6414 Y0.377
N16165 X-0.6311 Y0.3737
N16170 X-0.6205 Y0.3716
N16175 X-0.6097 Y0.3707
N16180 X-0.5989 Y0.3708
N16185 X-0.5882 Y0.3719
N16190 X-0.5775 Y0.3739
N16195 X-0.567 Y0.3769
N16200 X-0.5619 Y0.3788
N16205 X-0.5481 Y0.3858
N16210 X-0.5358 Y0.3951
N16215 X-0.5251 Y0.4063
N16220 X-0.5165 Y0.4191
N16225 X-0.5102 Y0.4332
N16230 X-0.5063 Y0.4482
N16235 X-0.505 Y0.4636
N16240 Y0.491
N16245 G3 X-0.5072 Y0.5004 I-0.025 J-0.0009 F48.
N16250 X-0.5457 Y0.5095 I-0.0227 J-0.0104 F100.
N16255 G1 X-0.6536 Y0.4223
N16260 G3 X-0.6582 Y0.3884 I0.0157 J-0.0194
N16265 X-0.6511 Y0.3817 I0.0204 J0.0145 F48.
N16270 G1 X-0.6236 Y0.3658 F100.
N16275 X-0.6187 Y0.3633
N16280 X-0.6138 Y0.3612
N16285 X-0.6086 Y0.3596
N16290 X-0.598 Y0.3575
N16295 X-0.5872 Y0.3569
N16300 X-0.5765 Y0.3575
N16305 X-0.5711 Y0.3583
N16310 X-0.5575 Y0.3625
N16315 X-0.5449 Y0.3689
N16320 X-0.5334 Y0.3773
N16325 X-0.5236 Y0.3876
N16330 X-0.5156 Y0.3994
N16335 X-0.5098 Y0.4123
N16340 X-0.5062 Y0.4261
N16345 X-0.505 Y0.4402
N16350 G3 X-0.5072 Y0.4497 I-0.025 J-0.0009 F48.
N16355 X-0.5436 Y0.4603 I-0.0227 J-0.0104 F100.
N16360 G1 X-0.624 Y0.4079
N16365 G3 X-0.6307 Y0.3725 I0.0137 J-0.0209
N16370 X-0.6236 Y0.3658 I0.0204 J0.0145 F48.
N16375 G1 X-0.6005 Y0.3525 F100.
N16380 X-0.5957 Y0.35
N16385 X-0.5906 Y0.3481
N16390 X-0.5854 Y0.3468
N16395 X-0.5801 Y0.346
N16400 X-0.5693 Y0.3458
N16405 X-0.5564 Y0.3482
N16410 X-0.5442 Y0.353
N16415 X-0.5331 Y0.36
N16420 X-0.5235 Y0.3688
N16425 X-0.5156 Y0.3793
N16430 X-0.5098 Y0.391
N16435 X-0.5062 Y0.4036
N16440 X-0.505 Y0.4167
N16445 G3 X-0.5072 Y0.4262 I-0.025 J-0.0009 F48.
N16450 X-0.5448 Y0.4359 I-0.0227 J-0.0104 F100.
N16455 G1 X-0.6021 Y0.3938
N16460 G3 X-0.6076 Y0.3592 I0.0148 J-0.0201
N16465 X-0.6005 Y0.3525 I0.0204 J0.0145 F48.
N16470 G1 X-0.5822 Y0.3419 F100.
N16475 X-0.5774 Y0.3395
N16480 X-0.5723 Y0.3378
N16485 X-0.567 Y0.3369
N16490 X-0.5616 Y0.3365
N16495 X-0.5489 Y0.3385
N16500 X-0.5369 Y0.3431
N16505 X-0.5261 Y0.3502
N16510 X-0.5172 Y0.3595
N16515 X-0.5105 Y0.3705
N16520 X-0.5064 Y0.3827
N16525 X-0.505 Y0.3955
N16530 G3 X-0.5064 Y0.4052 I-0.0467 J-0.0016 F48.
N16535 X-0.537 Y0.4382 I-0.0453 J-0.0113 F100.
N16540 X-0.59 Y0.3479 I-0.0169 J-0.0508
N16545 X-0.5822 Y0.3419 I0.0362 J0.0395 F48.
N16550 G1 X-0.5685 Y0.334 F100.
N16555 X-0.5637 Y0.3315
N16560 X-0.5585 Y0.33
N16565 X-0.5531 Y0.3292
N16570 X-0.5424 Y0.3303
N16575 X-0.5323 Y0.3338
N16580 X-0.5231 Y0.3395
N16585 X-0.5155 Y0.3471
N16590 X-0.5098 Y0.3562
N16595 X-0.5062 Y0.3664
N16600 X-0.505 Y0.3771
N16605 G3 X-0.5066 Y0.3867 I-0.0387 J-0.0013 F48.
N16610 X-0.5308 Y0.4122 I-0.0371 J-0.011 F100.
N16615 X-0.5761 Y0.3401 I-0.0146 J-0.0412
N16620 X-0.5685 Y0.334 I0.0308 J0.0309 F48.
N16625 G1 X-0.5558 Y0.3267 F100.
N16630 X-0.551 Y0.3242
N16635 X-0.5457 Y0.3229
N16640 X-0.5353 Y0.3238
N16645 X-0.5255 Y0.3274
N16650 X-0.5171 Y0.3335
N16655 X-0.5105 Y0.3416
N16660 X-0.5064 Y0.3512
N16665 X-0.505 Y0.3616
N16670 G3 X-0.5069 Y0.3712 I-0.0308 J-0.0011 F48.
N16675 X-0.5259 Y0.3897 I-0.0289 J-0.0107 F100.
N16680 X-0.5633 Y0.3329 I-0.0113 J-0.0332
N16685 X-0.5558 Y0.3267 I0.0261 J0.0235 F48.
N16690 G1 X-0.5458 Y0.321 F100.
N16695 X-0.541 Y0.3185
N16700 X-0.5357 Y0.3174
N16705 X-0.5262 Y0.3191
N16710 X-0.5176 Y0.3235
N16715 X-0.5108 Y0.3304
N16720 X-0.5065 Y0.339
N16725 X-0.505 Y0.3486
N16730 G3 X-0.5072 Y0.3581 I-0.0252 J-0.0009 F48.
N16735 X-0.5218 Y0.3714 I-0.023 J-0.0104 F100.
N16740 X-0.5532 Y0.3274 I-0.0094 J-0.0265
N16745 X-0.5458 Y0.321 I0.022 J0.0175 F48.
N16750 G1 X-0.5406 Y0.3181 F100.
N16755 X-0.5369 Y0.3168
N16760 X-0.5332 Y0.3161
N16765 X-0.5293 Y0.316
N16770 X-0.5229 Y0.3172
N16775 X-0.5173 Y0.3198
N16780 X-0.5139 Y0.3224
N16785 X-0.5094 Y0.3275
N16790 X-0.5075 Y0.3308
N16795 X-0.5062 Y0.334
N16800 X-0.5053 Y0.3379
N16805 X-0.505 Y0.3499
N16810 Y0.4636
N16815 X-0.5055 Y0.4657 Z-0.6997 F48.
N16820 X-0.5059 Y0.4677 Z-0.699
N16825 X-0.5063 Y0.4695 Z-0.6979
N16830 X-0.5066 Y0.471 Z-0.6963
N16835 X-0.5068 Y0.4722 Z-0.6945
N16840 X-0.5071 Y0.4728 Z-0.6924
N16845 X-0.5072 Y0.4731 Z-0.6902
N16850 G0 Z0.2
N16855 X0.2261 Y1.0939
N16860 Z-0.1732
N16865 G1 Z-0.1982 F48.
N16870 G3 X0.2293 Y1.0983 Z-0.2117 I0.0523 J-0.0342
N16875 X0.2329 Y1.1025 Z-0.2252 I0.0492 J-0.0386
N16880 X0.2367 Y1.1063 Z-0.2388 I0.0456 J-0.0427
N16885 X0.241 Y1.1097 Z-0.2523 I0.0417 J-0.0466
N16890 X0.2455 Y1.1128 Z-0.2658 I0.0375 J-0.05
N16895 X0.2502 Y1.1155 Z-0.2793 I0.033 J-0.0531
N16900 X0.2552 Y1.1177 Z-0.2929 I0.0282 J-0.0558
N16905 X0.2603 Y1.1195 Z-0.3064 I0.0233 J-0.058
N16910 X0.2656 Y1.1209 Z-0.3199 I0.0181 J-0.0598
N16915 X0.271 Y1.1218 Z-0.3334 I0.0128 J-0.0612
N16920 X0.2764 Y1.1222 Z-0.347 I0.0075 J-0.0621
N16925 X0.2819 Y1.1221 Z-0.3605 I0.002 J-0.0625
N16930 X0.2873 Y1.1216 Z-0.374 I-0.0034 J-0.0624
N16935 X0.2927 Y1.1206 Z-0.3875 I-0.0089 J-0.0619
N16940 X0.2979 Y1.1191 Z-0.401 I-0.0142 J-0.0609
N16945 X0.303 Y1.1172 Z-0.4146 I-0.0195 J-0.0594
N16950 X0.3079 Y1.1148 Z-0.4281 I-0.0246 J-0.0575
N16955 X0.3126 Y1.1121 Z-0.4416 I-0.0295 J-0.0551
N16960 X0.3171 Y1.1089 Z-0.4551 I-0.0342 J-0.0523
N16965 X0.3212 Y1.1053 Z-0.4687 I-0.0386 J-0.0492
N16970 X0.325 Y1.1014 Z-0.4822 I-0.0427 J-0.0456
N16975 X0.3285 Y1.0972 Z-0.4957 I-0.0466 J-0.0417
N16980 X0.3315 Y1.0927 Z-0.5092 I-0.05 J-0.0375
N16985 X0.3342 Y1.088 Z-0.5227 I-0.0531 J-0.033
N16990 X0.3365 Y1.083 Z-0.5363 I-0.0558 J-0.0282
N16995 X0.3383 Y1.0778 Z-0.5498 I-0.058 J-0.0233
N17000 X0.3396 Y1.0726 Z-0.5633 I-0.0598 J-0.0181
N17005 X0.3405 Y1.0672 Z-0.5768 I-0.0612 J-0.0128
N17010 X0.3409 Y1.0617 Z-0.5904 I-0.0621 J-0.0075
N17015 Y1.0563 Z-0.6039 I-0.0625 J-0.002
N17020 X0.3403 Y1.0509 Z-0.6174 I-0.0624 J0.0034
N17025 X0.3393 Y1.0455 Z-0.6309 I-0.0619 J0.0089
N17030 X0.3378 Y1.0403 Z-0.6445 I-0.0609 J0.0142
N17035 X0.3359 Y1.0352 Z-0.658 I-0.0594 J0.0195
N17040 X0.3336 Y1.0302 Z-0.6715 I-0.0575 J0.0246
N17045 X0.3308 Y1.0255 Z-0.685 I-0.0551 J0.0295
N17050 X0.3276 Y1.0211 Z-0.6985 I-0.0523 J0.0342
N17055 X0.341 Y1.0597 Z-0.7 I-0.0492 J0.0386
N17060 X0.216 I-0.0625 J0.
N17065 X0.341 I0.0625 J0.
N17070 G1 X0.3415 Y1.0879 F100.
N17075 X0.3406 Y1.0932
N17080 X0.339 Y1.0984
N17085 X0.3368 Y1.1033
N17090 X0.3341 Y1.108
N17095 X0.331 Y1.1124
N17100 X0.3275 Y1.1165
N17105 X0.3236 Y1.1203
N17110 X0.3194 Y1.1237
N17115 X0.315 Y1.1268
N17120 X0.3103 Y1.1295
N17125 X0.3054 Y1.1318
N17130 X0.3004 Y1.1337
N17135 X0.2952 Y1.1353
N17140 X0.2846 Y1.1372
N17145 X0.2738 Y1.1376
N17150 X0.2631 Y1.1364
N17155 X0.2526 Y1.1337
N17160 X0.2427 Y1.1296
N17165 X0.2334 Y1.1241
N17170 X0.2249 Y1.1174
N17175 X0.2175 Y1.1095
N17180 X0.2112 Y1.1007
N17185 X0.2062 Y1.0912
N17190 X0.2026 Y1.081
N17195 X0.2004 Y1.0705
N17200 X0.1996 Y1.0597
N17205 X0.2004 Y1.0489
N17210 X0.2026 Y1.0383
N17215 X0.2062 Y1.0282
N17220 X0.2112 Y1.0186
N17225 X0.2174 Y1.0098
N17230 X0.2248 Y1.0019
N17235 X0.2332 Y0.9951
N17240 X0.2424 Y0.9896
N17245 X0.2523 Y0.9853
N17250 X0.2628 Y0.9824
N17255 X0.2735 Y0.981
N17260 X0.2842 Y0.9811
N17265 X0.2949 Y0.9826
N17270 X0.3053 Y0.9856
N17275 X0.3152 Y0.9899
N17280 X0.3244 Y0.9956
N17285 X0.3327 Y1.0025
N17290 X0.34 Y1.0104
N17295 X0.3462 Y1.0193
N17300 X0.3511 Y1.0289
N17305 X0.3552 Y1.039
N17310 X0.3583 Y1.0494
N17315 X0.3604 Y1.06
N17320 X0.3612 Y1.0707
N17325 X0.3608 Y1.0815
N17330 X0.3589 Y1.0921
N17335 X0.3556 Y1.1024
N17340 X0.351 Y1.1121
N17345 X0.3451 Y1.1212
N17350 X0.338 Y1.1294
N17355 X0.3299 Y1.1365
N17360 X0.321 Y1.1426
N17365 X0.3114 Y1.1476
N17370 X0.3013 Y1.1513
N17375 X0.2908 Y1.1537
N17380 X0.2801 Y1.1549
N17385 X0.2693 Y1.1548
N17390 X0.2586 Y1.1534
N17395 X0.2481 Y1.1508
N17400 X0.238 Y1.147
N17405 X0.2284 Y1.142
N17410 X0.2194 Y1.136
N17415 X0.2112 Y1.129
N17420 X0.2038 Y1.1212
N17425 X0.1974 Y1.1125
N17430 X0.1919 Y1.1032
N17435 X0.1876 Y1.0933
N17440 X0.1844 Y1.083
N17445 X0.1824 Y1.0724
N17450 X0.1815 Y1.0616
N17455 X0.1819 Y1.0508
N17460 X0.1834 Y1.0401
N17465 X0.1862 Y1.0297
N17470 X0.1901 Y1.0196
N17475 X0.1951 Y1.0101
N17480 X0.2011 Y1.0011
N17485 X0.2081 Y0.9929
N17490 X0.2159 Y0.9855
N17495 X0.2246 Y0.979
N17500 X0.2339 Y0.9735
N17505 X0.2437 Y0.9691
N17510 X0.254 Y0.9658
N17515 X0.2646 Y0.9636
N17520 X0.2753 Y0.9627
N17525 X0.2861 Y0.9629
N17530 X0.2968 Y0.9644
N17535 X0.3073 Y0.967
N17540 X0.3174 Y0.9708
N17545 X0.3271 Y0.9757
N17550 X0.3361 Y0.9816
N17555 X0.3444 Y0.9885
N17560 X0.352 Y0.9962
N17565 X0.3587 Y1.0046
N17570 X0.3647 Y1.0136
N17575 X0.3698 Y1.0231
N17580 X0.374 Y1.033
N17585 X0.3772 Y1.0433
N17590 X0.3794 Y1.0539
N17595 X0.3806 Y1.0647
N17600 Y1.0755
N17605 X0.3795 Y1.0862
N17610 X0.3773 Y1.0968
N17615 X0.374 Y1.107
N17620 X0.3697 Y1.1169
N17625 X0.3643 Y1.1263
N17630 X0.358 Y1.135
N17635 X0.3508 Y1.1431
N17640 X0.3428 Y1.1503
N17645 X0.334 Y1.1567
N17650 X0.3247 Y1.1621
N17655 X0.3149 Y1.1666
N17660 X0.3047 Y1.1701
N17665 X0.2942 Y1.1725
N17670 X0.2834 Y1.1739
N17675 X0.2727 Y1.1742
N17680 X0.2619 Y1.1734
N17685 X0.2512 Y1.1717
N17690 X0.2408 Y1.1688
N17695 X0.2307 Y1.165
N17700 X0.221 Y1.1603
N17705 X0.2118 Y1.1546
N17710 X0.2032 Y1.1482
N17715 X0.1952 Y1.1409
N17720 X0.188 Y1.1329
N17725 X0.1815 Y1.1242
N17730 X0.1759 Y1.115
N17735 X0.1711 Y1.1053
N17740 X0.1673 Y1.0952
N17745 X0.1645 Y1.0848
N17750 X0.1626 Y1.0742
N17755 X0.1617 Y1.0634
N17760 X0.1618 Y1.0526
N17765 X0.163 Y1.0419
N17770 X0.1651 Y1.0313
N17775 X0.1682 Y1.0209
N17780 X0.1722 Y1.0109
N17785 X0.1771 Y1.0013
N17790 X0.183 Y0.9922
N17795 X0.1896 Y0.9837
N17800 X0.197 Y0.9758
N17805 X0.205 Y0.9686
N17810 X0.2137 Y0.9623
N17815 X0.223 Y0.9567
N17820 X0.2327 Y0.952
N17825 X0.2429 Y0.9483
N17830 X0.2533 Y0.9455
N17835 X0.2639 Y0.9436
N17840 X0.2747 Y0.9428
N17845 X0.2855 Y0.9429
N17850 X0.2962 Y0.9441
N17855 X0.3068 Y0.9462
N17860 X0.3171 Y0.9493
N17865 X0.3272 Y0.9533
N17870 X0.3368 Y0.9582
N17875 X0.3459 Y0.964
N17880 X0.3545 Y0.9705
N17885 X0.3626 Y0.9777
N17890 X0.3699 Y0.9856
N17895 X0.3767 Y0.994
N17900 X0.3827 Y1.003
N17905 X0.3879 Y1.0125
N17910 X0.3923 Y1.0223
N17915 X0.3959 Y1.0325
N17920 X0.3986 Y1.0429
N17925 X0.4005 Y1.0536
N17930 X0.4014 Y1.0643
N17935 Y1.0751
N17940 X0.4004 Y1.0859
N17945 X0.3986 Y1.0965
N17950 X0.3958 Y1.107
N17955 X0.3921 Y1.1171
N17960 X0.3876 Y1.1269
N17965 X0.3822 Y1.1363
N17970 X0.3761 Y1.1452
N17975 X0.3692 Y1.1535
N17980 X0.3616 Y1.1611
N17985 X0.3533 Y1.1681
N17990 X0.3446 Y1.1744
N17995 X0.3353 Y1.1799
N18000 X0.3255 Y1.1846
N18005 X0.3205 Y1.1866
N18010 X0.3103 Y1.19
N18015 X0.2998 Y1.1926
N18020 X0.2891 Y1.1942
N18025 X0.2783 Y1.195
N18030 X0.2676 Y1.1949
N18035 X0.2568 Y1.1939
N18040 X0.2461 Y1.192
N18045 X0.2356 Y1.1892
N18050 X0.2254 Y1.1856
N18055 X0.2155 Y1.1812
N18060 X0.2058 Y1.1759
N18065 X0.1967 Y1.1699
N18070 X0.188 Y1.1631
N18075 X0.1799 Y1.1556
N18080 X0.1724 Y1.1474
N18085 X0.1656 Y1.1387
N18090 X0.1596 Y1.1294
N18095 X0.1542 Y1.1196
N18100 X0.1497 Y1.1094
N18105 X0.1461 Y1.0988
N18110 X0.1433 Y1.0881
N18115 X0.1414 Y1.077
N18120 X0.1404 Y1.0658
N18125 X0.1403 Y1.0546
N18130 X0.1411 Y1.0435
N18135 X0.1429 Y1.0323
N18140 X0.1455 Y1.0213
N18145 X0.149 Y1.0107
N18150 X0.1534 Y1.0004
N18155 X0.1586 Y0.9904
N18160 X0.1647 Y0.9808
N18165 X0.1715 Y0.9718
N18170 X0.1789 Y0.9634
N18175 X0.1871 Y0.9556
N18180 X0.1959 Y0.9485
N18185 X0.2053 Y0.9421
N18190 X0.215 Y0.9366
N18195 X0.2253 Y0.9318
N18200 X0.2359 Y0.9279
N18205 X0.2468 Y0.9248
N18210 X0.2579 Y0.9227
N18215 X0.2691 Y0.9215
N18220 X0.2804 Y0.9212
N18225 X0.2918 Y0.9218
N18230 X0.3031 Y0.9234
N18235 X0.3143 Y0.9258
N18240 X0.3253 Y0.9292
N18245 X0.3362 Y0.9336
N18250 X0.3468 Y0.9389
N18255 X0.357 Y0.9451
N18260 X0.3668 Y0.9522
N18265 X0.376 Y0.9601
N18270 X0.3846 Y0.9687
N18275 X0.3925 Y0.9781
N18280 X0.3996 Y0.9881
N18285 X0.4058 Y0.9986
N18290 X0.4112 Y1.0096
N18295 X0.4157 Y1.0209
N18300 X0.4191 Y1.0326
N18305 X0.4217 Y1.0444
N18310 X0.4232 Y1.0564
N18315 X0.4238 Y1.0685
N18320 X0.4234 Y1.0806
N18325 X0.4219 Y1.0926
N18330 X0.4196 Y1.1044
N18335 X0.4163 Y1.1159
N18340 X0.412 Y1.1271
N18345 X0.4069 Y1.1379
N18350 X0.4008 Y1.1483
N18355 X0.394 Y1.1582
N18360 X0.3863 Y1.1675
N18365 X0.3779 Y1.1762
N18370 X0.3687 Y1.1842
N18375 X0.3589 Y1.1915
N18380 X0.3486 Y1.1979
N18385 X0.3377 Y1.2035
N18390 X0.3263 Y1.2082
N18395 X0.3145 Y1.212
N18400 X0.3025 Y1.2148
N18405 X0.2902 Y1.2167
N18410 X0.2777 Y1.2175
N18415 X0.2652 Y1.2173
N18420 X0.2527 Y1.2161
N18425 X0.2402 Y1.2138
N18430 X0.228 Y1.2106
N18435 X0.216 Y1.2063
N18440 X0.2044 Y1.2011
N18445 X0.1932 Y1.1949
N18450 X0.1826 Y1.1878
N18455 X0.1725 Y1.1798
N18460 X0.1631 Y1.171
N18465 X0.1544 Y1.1615
N18470 X0.1465 Y1.1512
N18475 X0.1395 Y1.1404
N18480 X0.1333 Y1.1289
N18485 X0.1281 Y1.117
N18490 X0.1239 Y1.1047
N18495 X0.1207 Y1.0921
N18500 X0.1185 Y1.0792
N18505 X0.1174 Y1.0662
N18510 X0.1173 Y1.0531
N18515 X0.1184 Y1.04
N18520 X0.1204 Y1.0271
N18525 X0.1236 Y1.0144
N18530 X0.1277 Y1.0019
N18535 X0.1329 Y0.9898
N18540 X0.139 Y0.9782
N18545 X0.1461 Y0.9672
N18550 X0.1541 Y0.9567
N18555 X0.1629 Y0.9469
N18560 X0.1724 Y0.9378
N18565 X0.1827 Y0.9296
N18570 X0.1936 Y0.9222
N18575 X0.2051 Y0.9157
N18580 X0.217 Y0.9102
N18585 X0.2294 Y0.9057
N18590 X0.2421 Y0.9022
N18595 X0.2551 Y0.8998
N18600 X0.2683 Y0.8984
N18605 X0.2815 Y0.8981
N18610 X0.2949 Y0.8989
N18615 X0.3081 Y0.9007
N18620 X0.3213 Y0.9037
N18625 X0.3343 Y0.9078
N18630 X0.347 Y0.9129
N18635 X0.3593 Y0.9191
N18640 X0.3712 Y0.9264
N18645 X0.3824 Y0.9346
N18650 X0.393 Y0.9437
N18655 X0.4028 Y0.9537
N18660 X0.4119 Y0.9645
N18665 X0.42 Y0.976
N18670 X0.4271 Y0.9881
N18675 X0.4332 Y1.0007
N18680 X0.4383 Y1.0138
N18685 X0.4423 Y1.0273
N18690 X0.4451 Y1.041
N18695 X0.4469 Y1.055
N18700 X0.4475 Y1.0689
N18705 X0.4469 Y1.0829
N18710 X0.4452 Y1.0968
N18715 X0.4424 Y1.1105
N18720 X0.4385 Y1.1239
N18725 X0.4335 Y1.1369
N18730 X0.4275 Y1.1495
N18735 X0.4204 Y1.1616
N18740 X0.4124 Y1.1731
N18745 X0.4034 Y1.1839
N18750 X0.3936 Y1.194
N18755 X0.3829 Y1.2033
N18760 X0.3715 Y1.2116
N18765 X0.3594 Y1.2191
N18770 X0.3468 Y1.2255
N18775 X0.3335 Y1.2309
N18780 X0.3199 Y1.2353
N18785 X0.3059 Y1.2385
N18790 X0.2917 Y1.2405
N18795 X0.2845 Y1.2411
N18800 X0.27 Y1.2414
N18805 X0.2555 Y1.2406
N18810 X0.2411 Y1.2385
N18815 X0.2269 Y1.2353
N18820 X0.2129 Y1.2309
N18825 X0.1993 Y1.2253
N18830 X0.1862 Y1.2187
N18835 X0.1736 Y1.2109
N18840 X0.1617 Y1.2022
N18845 X0.1505 Y1.1925
N18850 X0.1401 Y1.1819
N18855 X0.1306 Y1.1705
N18860 X0.122 Y1.1583
N18865 X0.1144 Y1.1454
N18870 X0.1079 Y1.1319
N18875 X0.1026 Y1.1179
N18880 X0.0983 Y1.1035
N18885 X0.0953 Y1.0888
N18890 X0.0935 Y1.0739
N18895 X0.0928 Y1.0589
N18900 X0.0935 Y1.0438
N18905 X0.0953 Y1.0288
N18910 X0.0984 Y1.0141
N18915 X0.1026 Y0.9996
N18920 X0.1081 Y0.9855
N18925 X0.1146 Y0.9719
N18930 X0.1223 Y0.9588
N18935 X0.131 Y0.9464
N18940 X0.1407 Y0.9348
N18945 X0.1513 Y0.924
N18950 X0.1627 Y0.914
N18955 X0.175 Y0.9051
N18960 X0.1879 Y0.8972
N18965 X0.2014 Y0.8903
N18970 X0.2155 Y0.8846
N18975 X0.23 Y0.88
N18980 X0.2449 Y0.8766
N18985 X0.26 Y0.8745
N18990 X0.2753 Y0.8736
N18995 X0.2907 Y0.8739
N19000 X0.3061 Y0.8755
N19005 X0.3214 Y0.8783
N19010 X0.3364 Y0.8825
N19015 X0.3512 Y0.8878
N19020 X0.3655 Y0.8944
N19025 X0.3793 Y0.9021
N19030 X0.3925 Y0.911
N19035 X0.4049 Y0.921
N19040 X0.4166 Y0.9319
N19045 X0.4273 Y0.9438
N19050 X0.437 Y0.9566
N19055 X0.4456 Y0.9701
N19060 X0.4532 Y0.9842
N19065 X0.4595 Y0.999
N19070 X0.4646 Y1.0142
N19075 X0.4685 Y1.0298
N19080 X0.4711 Y1.0456
N19085 X0.4723 Y1.0616
N19090 Y1.0776
N19095 X0.471 Y1.0936
N19100 X0.4683 Y1.1094
N19105 X0.4644 Y1.1249
N19110 X0.4592 Y1.1401
N19115 X0.4528 Y1.1548
N19120 X0.4452 Y1.169
N19125 X0.4365 Y1.1825
N19130 X0.4267 Y1.1953
N19135 X0.4159 Y1.2072
N19140 X0.404 Y1.2183
N19145 X0.3914 Y1.2283
N19150 X0.3779 Y1.2373
N19155 X0.3636 Y1.2452
N19160 X0.3488 Y1.252
N19165 X0.3334 Y1.2575
N19170 X0.3175 Y1.2618
N19175 X0.3014 Y1.2647
N19180 X0.285 Y1.2663
N19185 X0.2684 Y1.2666
N19190 X0.2519 Y1.2656
N19195 X0.2354 Y1.2631
N19200 X0.2192 Y1.2594
N19205 X0.2033 Y1.2543
N19210 X0.1878 Y1.2479
N19215 X0.1729 Y1.2403
N19220 X0.1586 Y1.2314
N19225 X0.145 Y1.2214
N19230 X0.1323 Y1.2103
N19235 X0.1205 Y1.1982
N19240 X0.1097 Y1.1851
N19245 X0.1 Y1.1712
N19250 X0.0915 Y1.1565
N19255 X0.0841 Y1.1411
N19260 X0.0781 Y1.1252
N19265 X0.0733 Y1.1088
N19270 X0.0699 Y1.092
N19275 X0.0679 Y1.075
N19280 X0.0673 Y1.0579
N19285 X0.068 Y1.0408
N19290 X0.0702 Y1.0238
N19295 X0.0737 Y1.007
N19300 X0.0787 Y0.9905
N19305 X0.0849 Y0.9745
N19310 X0.0924 Y0.959
N19315 X0.1012 Y0.9442
N19320 X0.1112 Y0.9301
N19325 X0.1222 Y0.9169
N19330 X0.1343 Y0.9047
N19335 X0.1474 Y0.8934
N19340 X0.1614 Y0.8833
