%
O20902 (Flywheel Hub Dish)
(Using G0 which travels along dogleg path.)
(T1 D=0.5 CR=0. - ZMIN=-0.375 - flat end mill)
(T4 D=0.5 CR=0.25 - ZMIN=-0.375 - ball end mill)
N10 G90 G94 G17
N15 G20
N20 M31
N25 G53 G0 Z0.

(2D Adaptive3)
N35 T1 M6
N40 S10000 M3
N45 G54
N50 M8
N65 G0 X-1.799 Y-1.2864
N70 G43 Z0.6 H1
N75 G0 Z0.2
N80 Z0.0375
N85 G1 Z-0.0125 F92.
N90 Y-1.286 Z-0.0181
N95 X-1.7987 Y-1.2851 Z-0.0236
N100 X-1.7984 Y-1.2836 Z-0.029
N105 X-1.7978 Y-1.2816 Z-0.0342
N110 X-1.7971 Y-1.2789 Z-0.0391
N115 X-1.7963 Y-1.2758 Z-0.0437
N120 X-1.7954 Y-1.2722 Z-0.0479
N125 X-1.7944 Y-1.2681 Z-0.0516
N130 X-1.7932 Y-1.2637 Z-0.0548
N135 X-1.792 Y-1.2589 Z-0.0575
N140 X-1.7907 Y-1.2539 Z-0.0597
N145 X-1.7894 Y-1.2487 Z-0.0612
N150 X-1.788 Y-1.2433 Z-0.0622
N155 X-1.7866 Y-1.2379 Z-0.0625
N160 G3 X-1.7475 Y-0.9657 I-1.2366 J0.3167
N165 G1 Y-0.9562 F120.
N170 X-1.7467 Y-0.9429
N175 X-1.7468 Y-0.9242
N180 X-1.7475 Y-0.9118
N185 X-1.7491 Y-0.8969
N190 X-1.7517 Y-0.8786
N195 X-1.7568 Y-0.8516
N200 X-1.7678 Y-0.8037
N205 X-1.7803 Y-0.7562
N210 X-1.7939 Y-0.709
N215 X-1.8081 Y-0.6619
N220 X-1.8216 Y-0.6147
N225 X-1.8472 Y-0.5198
N230 X-1.8589 Y-0.4721
N235 X-1.8694 Y-0.4241
N240 X-1.879 Y-0.3759
N245 X-1.8879 Y-0.3275
N250 X-1.8952 Y-0.279
N255 X-1.9013 Y-0.2302
N260 X-1.9064 Y-0.1813
N265 X-1.9105 Y-0.1324
N270 X-1.913 Y-0.0833
N275 X-1.9143 Y-0.0342
N280 X-1.9147 Y0.015
N285 X-1.9137 Y0.0641
N290 X-1.9112 Y0.1132
N295 X-1.9076 Y0.1622
N300 X-1.903 Y0.2111
N305 X-1.8969 Y0.2598
N310 X-1.8895 Y0.3084
N315 X-1.8809 Y0.3568
N320 X-1.8714 Y0.405
N325 X-1.8603 Y0.4529
N330 X-1.8479 Y0.5004
N335 X-1.8345 Y0.5477
N340 X-1.82 Y0.5946
N345 X-1.804 Y0.6411
N350 X-1.7868 Y0.6871
N355 X-1.7688 Y0.7328
N360 X-1.7494 Y0.778
N365 X-1.7287 Y0.8226
N370 X-1.707 Y0.8666
N375 X-1.6845 Y0.9103
N380 X-1.6605 Y0.9532
N385 X-1.6353 Y0.9954
N390 X-1.6093 Y1.0371
N395 X-1.5823 Y1.0781
N400 X-1.554 Y1.1183
N405 X-1.5247 Y1.1577
N410 X-1.4946 Y1.1966
N415 X-1.4634 Y1.2346
N420 X-1.4311 Y1.2716
N425 X-1.398 Y1.3079
N430 X-1.3642 Y1.3435
N435 X-1.3292 Y1.378
N440 X-1.2933 Y1.4116
N445 X-1.2566 Y1.4443
N450 X-1.2193 Y1.4763
N455 X-1.181 Y1.507
N460 X-1.1418 Y1.5366
N465 X-1.102 Y1.5655
N470 X-1.0616 Y1.5934
N475 X-1.0202 Y1.62
N480 X-0.9783 Y1.6455
N485 X-0.9358 Y1.6703
N490 X-0.8927 Y1.6938
N495 X-0.8488 Y1.716
N500 X-0.8045 Y1.7372
N505 X-0.7598 Y1.7575
N510 X-0.7144 Y1.7764
N515 X-0.6685 Y1.7939
N520 X-0.6223 Y1.8105
N525 X-0.5757 Y1.8261
N530 X-0.5286 Y1.8401
N535 X-0.4811 Y1.8529
N540 X-0.4335 Y1.8649
N545 X-0.3855 Y1.8754
N550 X-0.3372 Y1.8845
N555 X-0.2887 Y1.8925
N560 X-0.2401 Y1.8996
N565 X-0.1913 Y1.9051
N570 X-0.1423 Y1.9091
N575 X-0.0932 Y1.9122
N580 X-0.0441 Y1.9142
N585 X0.005 Y1.9146
N590 X0.0541 Y1.9136
N595 X0.1032 Y1.9117
N600 X0.1522 Y1.9086
N605 X0.2012 Y1.9039
N610 X0.2499 Y1.898
N615 X0.2986 Y1.8912
N620 X0.347 Y1.8829
N625 X0.3952 Y1.8732
N630 X0.4431 Y1.8624
N635 X0.4909 Y1.8507
N640 X0.5382 Y1.8374
N645 X0.5851 Y1.8228
N650 X0.6317 Y1.8073
N655 X0.6779 Y1.7906
N660 X0.7236 Y1.7725
N665 X0.7688 Y1.7532
N670 X0.8136 Y1.7331
N675 X0.8579 Y1.7117
N680 X0.9014 Y1.6889
N685 X0.9444 Y1.6652
N690 X0.987 Y1.6407
N695 X1.0288 Y1.6148
N700 X1.0698 Y1.5877
N705 X1.1102 Y1.5597
N710 X1.15 Y1.5309
N715 X1.1888 Y1.5008
N720 X1.2268 Y1.4697
N725 X1.2642 Y1.4378
N730 X1.3007 Y1.4049
N735 X1.3363 Y1.371
N740 X1.3709 Y1.3362
N745 X1.405 Y1.3007
N750 X1.4379 Y1.2642
N755 X1.4697 Y1.2268
N760 X1.5007 Y1.1887
N765 X1.5309 Y1.15
N770 X1.5598 Y1.1102
N775 X1.5877 Y1.0697
N780 X1.6147 Y1.0287
N785 X1.6407 Y0.987
N790 X1.6653 Y0.9445
N795 X1.6889 Y0.9014
N800 X1.7117 Y0.8578
N805 X1.7331 Y0.8136
N810 X1.7533 Y0.7688
N815 X1.7724 Y0.7235
N820 X1.7907 Y0.6779
N825 X1.8074 Y0.6317
N830 X1.8229 Y0.5851
N835 X1.8373 Y0.5381
N840 X1.8507 Y0.4908
N845 X1.8625 Y0.4432
N850 X1.8732 Y0.3952
N855 X1.8828 Y0.347
N860 X1.8912 Y0.2986
N865 X1.8981 Y0.2499
N870 X1.9038 Y0.2011
N875 X1.9086 Y0.1522
N880 X1.9118 Y0.1032
N885 X1.9137 Y0.0541
N890 X1.9144 Y0.005
N895 X1.9142 Y-0.0442
N900 X1.9123 Y-0.0933
N905 X1.9091 Y-0.1423
N910 X1.9049 Y-0.1913
N915 X1.8995 Y-0.2401
N920 X1.8926 Y-0.2887
N925 X1.8844 Y-0.3372
N930 X1.8754 Y-0.3855
N935 X1.8649 Y-0.4335
N940 X1.853 Y-0.4812
N945 X1.84 Y-0.5286
N950 X1.8262 Y-0.5757
N955 X1.8107 Y-0.6223
N960 X1.7939 Y-0.6685
N965 X1.7762 Y-0.7144
N970 X1.7575 Y-0.7598
N975 X1.7373 Y-0.8046
N980 X1.7159 Y-0.8488
N985 X1.6937 Y-0.8927
N990 X1.6703 Y-0.9359
N995 X1.6456 Y-0.9783
N1000 X1.6199 Y-1.0202
N1005 X1.5934 Y-1.0616
N1010 X1.5656 Y-1.1021
N1015 X1.5367 Y-1.1418
N1020 X1.5069 Y-1.1809
N1025 X1.4763 Y-1.2193
N1030 X1.4444 Y-1.2567
N1035 X1.4115 Y-1.2933
N1040 X1.378 Y-1.3292
N1045 X1.3435 Y-1.3642
N1050 X1.3079 Y-1.3981
N1055 X1.2715 Y-1.4311
N1060 X1.2345 Y-1.4635
N1065 X1.1966 Y-1.4946
N1070 X1.1577 Y-1.5247
N1075 X1.1182 Y-1.5539
N1080 X1.0781 Y-1.5824
N1085 X1.0371 Y-1.6094
N1090 X0.9954 Y-1.6353
N1095 X0.9531 Y-1.6604
N1100 X0.9103 Y-1.6845
N1105 X0.8667 Y-1.7071
N1110 X0.8225 Y-1.7287
N1115 X0.778 Y-1.7494
N1120 X0.7328 Y-1.7688
N1125 X0.6871 Y-1.7869
N1130 X0.641 Y-1.8039
N1135 X0.5946 Y-1.82
N1140 X0.5477 Y-1.8346
N1145 X0.5004 Y-1.8479
N1150 X0.4528 Y-1.8601
N1155 X0.405 Y-1.8714
N1160 X0.3568 Y-1.881
N1165 X0.3084 Y-1.8894
N1170 X0.2598 Y-1.8968
N1175 X0.211 Y-1.903
N1180 X0.1621 Y-1.9076
N1185 X0.1131 Y-1.911
N1190 X0.064 Y-1.9136
N1195 X0.0149 Y-1.9146
N1200 X-0.0342 Y-1.9141
N1205 X-0.0833 Y-1.9126
N1210 X-0.1324 Y-1.9101
N1215 X-0.1814 Y-1.906
N1220 X-0.2302 Y-1.9005
N1225 X-0.2789 Y-1.8941
N1230 X-0.3275 Y-1.8865
N1235 X-0.3757 Y-1.8773
N1240 X-0.4237 Y-1.8669
N1245 X-0.4716 Y-1.8556
N1250 X-0.519 Y-1.8429
N1255 X-0.5661 Y-1.8288
N1260 X-0.6128 Y-1.8136
N1265 X-0.6593 Y-1.7976
N1270 X-0.7052 Y-1.78
N1275 X-0.7506 Y-1.7612
N1280 X-0.7955 Y-1.7414
N1285 X-0.84 Y-1.7206
N1290 X-0.8838 Y-1.6983
N1295 X-0.9271 Y-1.6749
N1300 X-0.9698 Y-1.6507
N1305 X-1.0119 Y-1.6254
N1310 X-1.0532 Y-1.5987
N1315 X-1.0938 Y-1.5711
N1320 X-1.134 Y-1.5427
N1325 X-1.1731 Y-1.5131
N1330 X-1.2115 Y-1.4824
N1335 X-1.2491 Y-1.4508
N1340 X-1.2861 Y-1.4185
N1345 X-1.322 Y-1.3849
N1350 X-1.357 Y-1.3504
N1355 X-1.3913 Y-1.3152
N1360 X-1.4247 Y-1.2791
N1365 X-1.4569 Y-1.2421
N1370 X-1.4882 Y-1.2042
N1375 X-1.5188 Y-1.1657
N1380 X-1.5482 Y-1.1264
N1385 X-1.5751 Y-1.0852
N1390 X-1.5981 Y-1.0418
N1395 X-1.618 Y-0.9969
N1400 X-1.6358 Y-0.9511
N1405 X-1.6522 Y-0.9048
N1410 X-1.6676 Y-0.8581
N1415 X-1.6972 Y-0.7644
N1420 X-1.7116 Y-0.7174
N1425 X-1.7256 Y-0.6703
N1430 X-1.7392 Y-0.6231
N1435 X-1.7522 Y-0.5757
N1440 X-1.7645 Y-0.5282
N1445 X-1.776 Y-0.4804
N1450 X-1.7867 Y-0.4324
N1455 X-1.7964 Y-0.3843
N1460 X-1.805 Y-0.3359
N1465 X-1.8126 Y-0.2873
N1470 X-1.819 Y-0.2386
N1475 X-1.8243 Y-0.1898
N1480 X-1.8283 Y-0.1408
N1485 X-1.8312 Y-0.0917
N1490 X-1.8327 Y-0.0426
N1495 X-1.833 Y0.0065
N1500 X-1.8321 Y0.0556
N1505 X-1.8299 Y0.1047
N1510 X-1.8263 Y0.1537
N1515 X-1.8214 Y0.2026
N1520 X-1.8153 Y0.2514
N1525 X-1.8079 Y0.3
N1530 X-1.7992 Y0.3483
N1535 X-1.7891 Y0.3964
N1540 X-1.7779 Y0.4442
N1545 X-1.7653 Y0.4917
N1550 X-1.7514 Y0.5389
N1555 X-1.7363 Y0.5856
N1560 X-1.72 Y0.632
N1565 X-1.7024 Y0.6779
N1570 X-1.6836 Y0.7233
N1575 X-1.6637 Y0.7682
N1580 X-1.6425 Y0.8125
N1585 X-1.6201 Y0.8562
N1590 X-1.5966 Y0.8994
N1595 X-1.5719 Y0.9419
N1600 X-1.546 Y0.9837
N1605 X-1.5191 Y1.0248
N1610 X-1.4911 Y1.0651
N1615 X-1.462 Y1.1047
N1620 X-1.4319 Y1.1435
N1625 X-1.4007 Y1.1815
N1630 X-1.3686 Y1.2187
N1635 X-1.3354 Y1.2549
N1640 X-1.3012 Y1.2902
N1645 X-1.2662 Y1.3247
N1650 X-1.2302 Y1.3581
N1655 X-1.1933 Y1.3906
N1660 X-1.1556 Y1.4221
N1665 X-1.1171 Y1.4526
N1670 X-1.0777 Y1.482
N1675 X-1.0376 Y1.5103
N1680 X-0.9967 Y1.5376
N1685 X-0.9551 Y1.5638
N1690 X-0.9128 Y1.5888
N1695 X-0.8699 Y1.6128
N1700 X-0.8264 Y1.6355
N1705 X-0.7822 Y1.6571
N1710 X-0.7375 Y1.6775
N1715 X-0.6923 Y1.6967
N1720 X-0.6465 Y1.7146
N1725 X-0.6003 Y1.7313
N1730 X-0.5537 Y1.7468
N1735 X-0.5067 Y1.7611
N1740 X-0.4593 Y1.774
N1745 X-0.4115 Y1.7856
N1750 X-0.3635 Y1.7961
N1755 X-0.3152 Y1.8052
N1760 X-0.2667 Y1.8129
N1765 X-0.218 Y1.8194
N1770 X-0.1691 Y1.8246
N1775 X-0.1202 Y1.8285
N1780 X-0.0711 Y1.831
N1785 X-0.022 Y1.8323
N1790 X0.0272 Y1.8322
N1795 X0.0763 Y1.8308
N1800 X0.1254 Y1.8281
N1805 X0.1743 Y1.8241
N1810 X0.2232 Y1.8188
N1815 X0.2719 Y1.8121
N1820 X0.3204 Y1.8042
N1825 X0.3686 Y1.795
N1830 X0.4166 Y1.7845
N1835 X0.4643 Y1.7727
N1840 X0.5117 Y1.7596
N1845 X0.5587 Y1.7453
N1850 X0.6053 Y1.7296
N1855 X0.6514 Y1.7128
N1860 X0.6971 Y1.6947
N1865 X0.7423 Y1.6754
N1870 X0.7869 Y1.6549
N1875 X0.831 Y1.6332
N1880 X0.8745 Y1.6103
N1885 X0.9174 Y1.5863
N1890 X0.9596 Y1.5611
N1895 X1.0011 Y1.5348
N1900 X1.0419 Y1.5074
N1905 X1.0819 Y1.4789
N1910 X1.1212 Y1.4494
N1915 X1.1596 Y1.4188
N1920 X1.1972 Y1.3872
N1925 X1.234 Y1.3546
N1930 X1.2699 Y1.3211
N1935 X1.3049 Y1.2865
N1940 X1.3389 Y1.2511
N1945 X1.372 Y1.2148
N1950 X1.4041 Y1.1775
N1955 X1.4351 Y1.1395
N1960 X1.4652 Y1.1006
N1965 X1.4942 Y1.0609
N1970 X1.5221 Y1.0204
N1975 X1.5488 Y0.9793
N1980 X1.5746 Y0.9374
N1985 X1.5991 Y0.8948
N1990 X1.6225 Y0.8516
N1995 X1.6448 Y0.8078
N2000 X1.6659 Y0.7634
N2005 X1.6857 Y0.7185
N2010 X1.7044 Y0.673
N2015 X1.7218 Y0.6271
N2020 X1.738 Y0.5807
N2025 X1.7529 Y0.5339
N2030 X1.7666 Y0.4867
N2035 X1.779 Y0.4391
N2040 X1.7902 Y0.3913
N2045 X1.8 Y0.3431
N2050 X1.8086 Y0.2948
N2055 X1.8159 Y0.2462
N2060 X1.8218 Y0.1974
N2065 X1.8264 Y0.1485
N2070 X1.8298 Y0.0995
N2075 X1.8318 Y0.0504
N2080 X1.8325 Y0.0012
N2085 X1.8318 Y-0.0479
N2090 X1.8299 Y-0.097
N2095 X1.8266 Y-0.146
N2100 X1.822 Y-0.195
N2105 X1.8162 Y-0.2437
N2110 X1.809 Y-0.2923
N2115 X1.8004 Y-0.3407
N2120 X1.7907 Y-0.3889
N2125 X1.7796 Y-0.4368
N2130 X1.7673 Y-0.4843
N2135 X1.7536 Y-0.5315
N2140 X1.7388 Y-0.5784
N2145 X1.7226 Y-0.6248
N2150 X1.7052 Y-0.6707
N2155 X1.6867 Y-0.7162
N2160 X1.6669 Y-0.7612
N2165 X1.6459 Y-0.8056
N2170 X1.6237 Y-0.8494
N2175 X1.6004 Y-0.8927
N2180 X1.5759 Y-0.9353
N2185 X1.5502 Y-0.9772
N2190 X1.5234 Y-1.0184
N2195 X1.4956 Y-1.0589
N2200 X1.4666 Y-1.0986
N2205 X1.4366 Y-1.1375
N2210 X1.4056 Y-1.1756
N2215 X1.3736 Y-1.2129
N2220 X1.3406 Y-1.2493
N2225 X1.3066 Y-1.2847
N2230 X1.2717 Y-1.3193
N2235 X1.2358 Y-1.353
N2240 X1.1991 Y-1.3856
N2245 X1.1615 Y-1.4172
N2250 X1.1231 Y-1.4479
N2255 X1.0839 Y-1.4775
N2260 X1.0439 Y-1.506
N2265 X1.0031 Y-1.5335
N2270 X0.9617 Y-1.5598
N2275 X0.9195 Y-1.585
N2280 X0.8767 Y-1.6092
N2285 X0.8332 Y-1.6321
N2290 X0.7892 Y-1.6538
N2295 X0.7445 Y-1.6744
N2300 X0.6994 Y-1.6938
N2305 X0.6537 Y-1.7119
N2310 X0.6076 Y-1.7288
N2315 X0.561 Y-1.7445
N2320 X0.514 Y-1.7589
N2325 X0.4667 Y-1.772
N2330 X0.419 Y-1.7839
N2335 X0.371 Y-1.7945
N2340 X0.3228 Y-1.8038
N2345 X0.2743 Y-1.8117
N2350 X0.2256 Y-1.8185
N2355 X0.1768 Y-1.8239
N2360 X0.1278 Y-1.828
N2365 X0.0787 Y-1.8307
N2370 X0.0296 Y-1.8322
N2375 X-0.0195 Y-1.8324
N2380 X-0.0686 Y-1.8312
N2385 X-0.1177 Y-1.8287
N2390 X-0.1667 Y-1.8249
N2395 X-0.2156 Y-1.8198
N2400 X-0.2643 Y-1.8133
N2405 X-0.3128 Y-1.8056
N2410 X-0.3611 Y-1.7966
N2415 X-0.4091 Y-1.7862
N2420 X-0.4569 Y-1.7746
N2425 X-0.5043 Y-1.7617
N2430 X-0.5514 Y-1.7476
N2435 X-0.598 Y-1.7321
N2440 X-0.6442 Y-1.7155
N2445 X-0.69 Y-1.6976
N2450 X-0.7353 Y-1.6785
N2455 X-0.78 Y-1.6581
N2460 X-0.8242 Y-1.6366
N2465 X-0.8678 Y-1.6139
N2470 X-0.9107 Y-1.59
N2475 X-0.953 Y-1.5651
N2480 X-0.9947 Y-1.539
N2485 X-1.0356 Y-1.5118
N2490 X-1.0757 Y-1.4834
N2495 X-1.1151 Y-1.4541
N2500 X-1.1537 Y-1.4237
N2505 X-1.1915 Y-1.3922
N2510 X-1.2284 Y-1.3598
N2515 X-1.2644 Y-1.3264
N2520 X-1.2995 Y-1.292
N2525 X-1.3337 Y-1.2567
N2530 X-1.3669 Y-1.2205
N2535 X-1.399 Y-1.1833
N2540 X-1.4294 Y-1.1447
N2545 X-1.4575 Y-1.1044
N2550 X-1.4834 Y-1.0626
N2555 X-1.5071 Y-1.0196
N2560 X-1.5289 Y-0.9755
N2565 X-1.5491 Y-0.9307
N2570 X-1.5679 Y-0.8853
N2575 X-1.5856 Y-0.8395
N2580 X-1.6024 Y-0.7933
N2585 X-1.6184 Y-0.7469
N2590 X-1.6337 Y-0.7002
N2595 X-1.6482 Y-0.6532
N2600 X-1.662 Y-0.6061
N2605 X-1.675 Y-0.5587
N2610 X-1.6872 Y-0.5111
N2615 X-1.6985 Y-0.4633
N2620 X-1.7089 Y-0.4152
N2625 X-1.7182 Y-0.367
N2630 X-1.7265 Y-0.3186
N2635 X-1.7336 Y-0.27
N2640 X-1.7396 Y-0.2212
N2645 X-1.7444 Y-0.1723
N2650 X-1.7479 Y-0.1233
N2655 X-1.7502 Y-0.0742
N2660 X-1.7513 Y-0.0251
N2665 X-1.751 Y0.0241
N2670 X-1.7494 Y0.0732
N2675 X-1.7464 Y0.1222
N2680 X-1.7422 Y0.1712
N2685 X-1.7365 Y0.22
N2690 X-1.7296 Y0.2686
N2695 X-1.7213 Y0.3171
N2700 X-1.7117 Y0.3653
N2705 X-1.7007 Y0.4131
N2710 X-1.6884 Y0.4607
N2715 X-1.6748 Y0.5079
N2720 X-1.6598 Y0.5547
N2725 X-1.6436 Y0.6011
N2730 X-1.6261 Y0.647
N2735 X-1.6072 Y0.6924
N2740 X-1.5872 Y0.7373
N2745 X-1.5658 Y0.7815
N2750 X-1.5433 Y0.8252
N2755 X-1.5195 Y0.8682
N2760 X-1.4945 Y0.9105
N2765 X-1.4683 Y0.9521
N2770 X-1.441 Y0.9929
N2775 X-1.4126 Y1.033
N2780 X-1.383 Y1.0722
N2785 X-1.3524 Y1.1106
N2790 X-1.3207 Y1.1482
N2795 X-1.2879 Y1.1848
N2800 X-1.2541 Y1.2205
N2805 X-1.2194 Y1.2552
N2810 X-1.1837 Y1.289
N2815 X-1.147 Y1.3217
N2820 X-1.1094 Y1.3534
N2825 X-1.071 Y1.384
N2830 X-1.0317 Y1.4135
N2835 X-0.9916 Y1.4419
N2840 X-0.9508 Y1.4692
N2845 X-0.9092 Y1.4953
N2850 X-0.8668 Y1.5202
N2855 X-0.8238 Y1.544
N2860 X-0.7801 Y1.5665
N2865 X-0.7358 Y1.5878
N2870 X-0.691 Y1.6078
N2875 X-0.6455 Y1.6266
N2880 X-0.5996 Y1.6441
N2885 X-0.5532 Y1.6602
N2890 X-0.5064 Y1.6751
N2895 X-0.4592 Y1.6887
N2900 X-0.4116 Y1.7009
N2905 X-0.3637 Y1.7118
N2910 X-0.3155 Y1.7213
N2915 X-0.267 Y1.7295
N2920 X-0.2183 Y1.7363
N2925 X-0.1695 Y1.7418
N2930 X-0.1205 Y1.7459
N2935 X-0.0715 Y1.7486
N2940 X-0.0224 Y1.7499
N2945 X0.0268 Y1.7498
N2950 X0.0759 Y1.7484
N2955 X0.1249 Y1.7455
N2960 X0.1739 Y1.7413
N2965 X0.2227 Y1.7358
N2970 X0.2714 Y1.7288
N2975 X0.3198 Y1.7205
N2980 X0.368 Y1.7109
N2985 X0.4159 Y1.6999
N2990 X0.4634 Y1.6875
N2995 X0.5106 Y1.6738
N3000 X0.5574 Y1.6588
N3005 X0.6038 Y1.6425
N3010 X0.6496 Y1.6249
N3015 X0.695 Y1.6061
N3020 X0.7398 Y1.5859
N3025 X0.7841 Y1.5645
N3030 X0.8277 Y1.5419
N3035 X0.8706 Y1.5181
N3040 X0.9129 Y1.493
N3045 X0.9545 Y1.4668
N3050 X0.9953 Y1.4394
N3055 X1.0353 Y1.4109
N3060 X1.0745 Y1.3813
N3065 X1.1128 Y1.3506
N3070 X1.1503 Y1.3188
N3075 X1.1869 Y1.286
N3080 X1.2225 Y1.2521
N3085 X1.2572 Y1.2173
N3090 X1.2909 Y1.1816
N3095 X1.3236 Y1.1448
N3100 X1.3552 Y1.1072
N3105 X1.3857 Y1.0688
N3110 X1.4152 Y1.0294
N3115 X1.4435 Y0.9893
N3120 X1.4707 Y0.9484
N3125 X1.4968 Y0.9067
N3130 X1.5216 Y0.8643
N3135 X1.5453 Y0.8213
N3140 X1.5678 Y0.7776
N3145 X1.589 Y0.7333
N3150 X1.609 Y0.6884
N3155 X1.6277 Y0.6429
N3160 X1.6451 Y0.597
N3165 X1.6612 Y0.5505
N3170 X1.6759 Y0.5037
N3175 X1.6894 Y0.4564
N3180 X1.7016 Y0.4088
N3185 X1.7124 Y0.3609
N3190 X1.7218 Y0.3127
N3195 X1.7299 Y0.2642
N3200 X1.7367 Y0.2155
N3205 X1.742 Y0.1667
N3210 X1.746 Y0.1177
N3215 X1.7486 Y0.0686
N3220 X1.7499 Y0.0195
N3225 X1.7497 Y-0.0296
N3230 X1.7482 Y-0.0787
N3235 X1.7453 Y-0.1278
N3240 X1.741 Y-0.1767
N3245 X1.7354 Y-0.2255
N3250 X1.7284 Y-0.2742
N3255 X1.72 Y-0.3226
N3260 X1.7103 Y-0.3708
N3265 X1.6992 Y-0.4186
N3270 X1.6868 Y-0.4662
N3275 X1.673 Y-0.5133
N3280 X1.6579 Y-0.5601
N3285 X1.6416 Y-0.6064
N3290 X1.6239 Y-0.6523
N3295 X1.6049 Y-0.6976
N3300 X1.5847 Y-0.7424
N3305 X1.5632 Y-0.7866
N3310 X1.5405 Y-0.8302
N3315 X1.5166 Y-0.8731
N3320 X1.4915 Y-0.9153
N3325 X1.4652 Y-0.9568
N3330 X1.4378 Y-0.9976
N3335 X1.4092 Y-1.0376
N3340 X1.3795 Y-1.0767
N3345 X1.3488 Y-1.115
N3350 X1.3169 Y-1.1525
N3355 X1.2841 Y-1.189
N3360 X1.2502 Y-1.2246
N3365 X1.2153 Y-1.2592
N3370 X1.1795 Y-1.2928
N3375 X1.1427 Y-1.3254
N3380 X1.105 Y-1.357
N3385 X1.0665 Y-1.3875
N3390 X1.0271 Y-1.4169
N3395 X0.9869 Y-1.4451
N3400 X0.946 Y-1.4723
N3405 X0.9043 Y-1.4982
N3410 X0.8618 Y-1.523
N3415 X0.8187 Y-1.5466
N3420 X0.775 Y-1.569
N3425 X0.7307 Y-1.5902
N3430 X0.6857 Y-1.61
N3435 X0.6402 Y-1.6287
N3440 X0.5943 Y-1.646
N3445 X0.5478 Y-1.662
N3450 X0.5009 Y-1.6768
N3455 X0.4537 Y-1.6902
N3460 X0.406 Y-1.7023
N3465 X0.3581 Y-1.713
N3470 X0.3099 Y-1.7224
N3475 X0.2614 Y-1.7304
N3480 X0.2127 Y-1.737
N3485 X0.1638 Y-1.7423
N3490 X0.1149 Y-1.7462
N3495 X0.0658 Y-1.7487
N3500 X0.0167 Y-1.7499
N3505 X-0.0325 Y-1.7497
N3510 X-0.0816 Y-1.7481
N3515 X-0.1306 Y-1.7451
N3520 X-0.1796 Y-1.7407
N3525 X-0.2284 Y-1.735
N3530 X-0.277 Y-1.7279
N3535 X-0.3254 Y-1.7195
N3540 X-0.3735 Y-1.7097
N3545 X-0.4214 Y-1.6985
N3550 X-0.4689 Y-1.686
N3555 X-0.5161 Y-1.6722
N3560 X-0.5628 Y-1.657
N3565 X-0.6091 Y-1.6406
N3570 X-0.6549 Y-1.6229
N3575 X-0.7002 Y-1.6038
N3580 X-0.745 Y-1.5835
N3585 X-0.7891 Y-1.562
N3590 X-0.8327 Y-1.5392
N3595 X-0.8756 Y-1.5152
N3600 X-0.9177 Y-1.49
N3605 X-0.9592 Y-1.4637
N3610 X-0.9999 Y-1.4362
N3615 X-1.0399 Y-1.4075
N3620 X-1.079 Y-1.3778
N3625 X-1.1172 Y-1.3469
N3630 X-1.1546 Y-1.315
N3635 X-1.1911 Y-1.2821
N3640 X-1.2266 Y-1.2481
N3645 X-1.261 Y-1.2131
N3650 X-1.2939 Y-1.1766
N3655 X-1.3252 Y-1.1387
N3660 X-1.3546 Y-1.0993
N3665 X-1.3821 Y-1.0586
N3670 X-1.4078 Y-1.0168
N3675 X-1.4318 Y-0.9739
N3680 X-1.4543 Y-0.9302
N3685 X-1.4752 Y-0.8857
N3690 X-1.4949 Y-0.8407
N3695 X-1.5134 Y-0.7952
N3700 X-1.5309 Y-0.7492
N3705 X-1.5473 Y-0.7029
N3710 X-1.5628 Y-0.6563
N3715 X-1.5774 Y-0.6094
N3720 X-1.591 Y-0.5622
N3725 X-1.6036 Y-0.5147
N3730 X-1.6153 Y-0.467
N3735 X-1.626 Y-0.419
N3740 X-1.6355 Y-0.3708
N3745 X-1.644 Y-0.3224
N3750 X-1.6513 Y-0.2738
N3755 X-1.6575 Y-0.2251
N3760 X-1.6623 Y-0.1762
N3765 X-1.666 Y-0.1272
N3770 X-1.6683 Y-0.0781
N3775 X-1.6693 Y-0.029
N3780 X-1.669 Y0.0202
N3785 X-1.6673 Y0.0693
N3790 X-1.6642 Y0.1183
N3795 X-1.6598 Y0.1673
N3800 X-1.6539 Y0.216
N3805 X-1.6466 Y0.2646
N3810 X-1.638 Y0.313
N3815 X-1.6279 Y0.3611
N3820 X-1.6165 Y0.4089
N3825 X-1.6037 Y0.4563
N3830 X-1.5895 Y0.5034
N3835 X-1.5739 Y0.55
N3840 X-1.557 Y0.5961
N3845 X-1.5388 Y0.6417
N3850 X-1.5192 Y0.6868
N3855 X-1.4982 Y0.7313
N3860 X-1.476 Y0.7751
N3865 X-1.4526 Y0.8183
N3870 X-1.4278 Y0.8607
N3875 X-1.4018 Y0.9024
N3880 X-1.3746 Y0.9433
N3885 X-1.3462 Y0.9834
N3890 X-1.3167 Y1.0227
N3895 X-1.2859 Y1.061
N3900 X-1.2541 Y1.0984
N3905 X-1.2212 Y1.1349
N3910 X-1.1872 Y1.1704
N3915 X-1.1522 Y1.2049
N3920 X-1.1162 Y1.2383
N3925 X-1.0792 Y1.2707
N3930 X-1.0413 Y1.3019
N3935 X-1.0025 Y1.332
N3940 X-0.9628 Y1.361
N3945 X-0.9222 Y1.3888
N3950 X-0.8809 Y1.4154
N3955 X-0.8388 Y1.4407
N3960 X-0.796 Y1.4648
N3965 X-0.7525 Y1.4877
N3970 X-0.7083 Y1.5092
N3975 X-0.6635 Y1.5294
N3980 X-0.6182 Y1.5483
N3985 X-0.5723 Y1.5659
N3990 X-0.5259 Y1.582
N3995 X-0.479 Y1.5968
N4000 X-0.4318 Y1.6103
N4005 X-0.3841 Y1.6223
N4010 X-0.3361 Y1.6329
N4015 X-0.2879 Y1.6421
N4020 X-0.2394 Y1.6498
N4025 X-0.1906 Y1.6562
N4030 X-0.1417 Y1.6611
N4035 X-0.0927 Y1.6645
N4040 X-0.0436 Y1.6665
N4045 X0.0055 Y1.6671
N4050 X0.0546 Y1.6662
N4055 X0.1037 Y1.6639
N4060 X0.1527 Y1.6601
N4065 X0.2016 Y1.6549
N4070 X0.2502 Y1.6483
N4075 X0.2987 Y1.6402
N4080 X0.3469 Y1.6307
N4085 X0.3948 Y1.6197
N4090 X0.4424 Y1.6074
N4095 X0.4896 Y1.5936
N4100 X0.5363 Y1.5785
N4105 X0.5826 Y1.562
N4110 X0.6284 Y1.5442
N4115 X0.6736 Y1.525
N4120 X0.7183 Y1.5045
N4125 X0.7623 Y1.4826
N4130 X0.8056 Y1.4595
N4135 X0.8483 Y1.4351
N4140 X0.8902 Y1.4095
N4145 X0.9314 Y1.3827
N4150 X0.9717 Y1.3546
N4155 X1.0112 Y1.3254
N4160 X1.0499 Y1.295
N4165 X1.0876 Y1.2635
N4170 X1.1243 Y1.2309
N4175 X1.1601 Y1.1973
N4180 X1.1949 Y1.1626
N4185 X1.2287 Y1.1269
N4190 X1.2613 Y1.0902
N4195 X1.2929 Y1.0525
N4200 X1.3234 Y1.0139
N4205 X1.3527 Y0.9745
N4210 X1.3808 Y0.9342
N4215 X1.4077 Y0.8931
N4220 X1.4334 Y0.8512
N4225 X1.4579 Y0.8086
N4230 X1.4811 Y0.7653
N4235 X1.503 Y0.7213
N4240 X1.5236 Y0.6767
N4245 X1.5429 Y0.6315
N4250 X1.5608 Y0.5858
N4255 X1.5774 Y0.5395
N4260 X1.5926 Y0.4928
N4265 X1.6065 Y0.4456
N4270 X1.6189 Y0.3981
N4275 X1.63 Y0.3502
N4280 X1.6396 Y0.3021
N4285 X1.6478 Y0.2536
N4290 X1.6545 Y0.2049
N4295 X1.6598 Y0.1561
N4300 X1.6637 Y0.1071
N4305 X1.6661 Y0.058
N4310 X1.6671 Y0.0089
N4315 X1.6666 Y-0.0402
N4320 X1.6647 Y-0.0893
N4325 X1.6614 Y-0.1384
N4330 X1.6566 Y-0.1873
N4335 X1.6503 Y-0.236
N4340 X1.6426 Y-0.2845
N4345 X1.6336 Y-0.3328
N4350 X1.623 Y-0.3808
N4355 X1.6111 Y-0.4285
N4360 X1.5978 Y-0.4758
N4365 X1.5831 Y-0.5227
N4370 X1.567 Y-0.5691
N4375 X1.5496 Y-0.615
N4380 X1.5308 Y-0.6604
N4385 X1.5107 Y-0.7053
N4390 X1.4892 Y-0.7495
N4395 X1.4665 Y-0.793
N4400 X1.4424 Y-0.8359
N4405 X1.4172 Y-0.878
N4410 X1.3907 Y-0.9194
N4415 X1.363 Y-0.96
N4420 X1.3341 Y-0.9997
N4425 X1.304 Y-1.0386
N4430 X1.2729 Y-1.0766
N4435 X1.2406 Y-1.1136
N4440 X1.2072 Y-1.1497
N4445 X1.1728 Y-1.1848
N4450 X1.1374 Y-1.2189
N4455 X1.101 Y-1.2518
N4460 X1.0636 Y-1.2838
N4465 X1.0253 Y-1.3145
N4470 X0.9861 Y-1.3442
N4475 X0.9461 Y-1.3727
N4480 X0.9052 Y-1.4
N4485 X0.8636 Y-1.4261
N4490 X0.8212 Y-1.4509
N4495 X0.7781 Y-1.4745
N4500 X0.7343 Y-1.4967
N4505 X0.6899 Y-1.5177
N4510 X0.6448 Y-1.5374
N4515 X0.5992 Y-1.5557
N4520 X0.5531 Y-1.5727
N4525 X0.5065 Y-1.5883
N4530 X0.4595 Y-1.6025
N4535 X0.4121 Y-1.6154
N4540 X0.3643 Y-1.6268
N4545 X0.3162 Y-1.6368
N4550 X0.2678 Y-1.6455
N4555 X0.2192 Y-1.6526
N4560 X0.1704 Y-1.6584
N4565 X0.1215 Y-1.6627
N4570 X0.0724 Y-1.6656
N4575 X0.0233 Y-1.667
N4580 X-0.0259
N4585 X-0.075 Y-1.6655
N4590 X-0.124 Y-1.6625
N4595 X-0.173 Y-1.6582
N4600 X-0.2217 Y-1.6523
N4605 X-0.2703 Y-1.6451
N4610 X-0.3187 Y-1.6364
N4615 X-0.3668 Y-1.6263
N4620 X-0.4146 Y-1.6148
N4625 X-0.462 Y-1.6018
N4630 X-0.509 Y-1.5875
N4635 X-0.5555 Y-1.5718
N4640 X-0.6016 Y-1.5548
N4645 X-0.6472 Y-1.5364
N4650 X-0.6922 Y-1.5166
N4655 X-0.7366 Y-1.4956
N4660 X-0.7803 Y-1.4732
N4665 X-0.8234 Y-1.4496
N4670 X-0.8658 Y-1.4247
N4675 X-0.9074 Y-1.3986
N4680 X-0.9482 Y-1.3712
N4685 X-0.9882 Y-1.3427
N4690 X-1.0274 Y-1.313
N4695 X-1.0656 Y-1.2821
N4700 X-1.1028 Y-1.2501
N4705 X-1.1389 Y-1.2167
N4710 X-1.1737 Y-1.182
N4715 X-1.207 Y-1.1459
N4720 X-1.2386 Y-1.1083
N4725 X-1.2686 Y-1.0694
N4730 X-1.297 Y-1.0292
N4735 X-1.3236 Y-0.9879
N4740 X-1.3486 Y-0.9456
N4745 X-1.3721 Y-0.9025
N4750 X-1.3941 Y-0.8585
N4755 X-1.4148 Y-0.814
N4760 X-1.4341 Y-0.7688
N4765 X-1.4523 Y-0.7232
N4770 X-1.4694 Y-0.6771
N4775 X-1.4853 Y-0.6306
N4780 X-1.5002 Y-0.5838
N4785 X-1.5139 Y-0.5366
N4790 X-1.5266 Y-0.4891
N4795 X-1.5381 Y-0.4413
N4800 X-1.5485 Y-0.3933
N4805 X-1.5578 Y-0.3451
N4810 X-1.5658 Y-0.2966
N4815 X-1.5726 Y-0.2479
N4820 X-1.5781 Y-0.1991
N4825 X-1.5824 Y-0.1501
N4830 X-1.5853 Y-0.1011
N4835 X-1.5868 Y-0.052
N4840 X-1.587 Y-0.0028
N4845 X-1.5857 Y0.0463
N4850 X-1.583 Y0.0953
N4855 X-1.5789 Y0.1443
N4860 X-1.5734 Y0.1931
N4865 X-1.5664 Y0.2418
N4870 X-1.558 Y0.2902
N4875 X-1.548 Y0.3383
N4880 X-1.5367 Y0.3861
N4885 X-1.5238 Y0.4335
N4890 X-1.5096 Y0.4805
N4895 X-1.4938 Y0.5271
N4900 X-1.4767 Y0.5732
N4905 X-1.4582 Y0.6187
N4910 X-1.4382 Y0.6636
N4915 X-1.4169 Y0.7078
N4920 X-1.3943 Y0.7514
N4925 X-1.3703 Y0.7943
N4930 X-1.345 Y0.8364
N4935 X-1.3184 Y0.8778
N4940 X-1.2905 Y0.9182
N4945 X-1.2614 Y0.9578
N4950 X-1.2311 Y0.9965
N4955 X-1.1996 Y1.0342
N4960 X-1.1669 Y1.0709
N4965 X-1.1331 Y1.1066
N4970 X-1.0983 Y1.1412
N4975 X-1.0623 Y1.1747
N4980 X-1.0254 Y1.2071
N4985 X-0.9874 Y1.2383
N4990 X-0.9485 Y1.2683
N4995 X-0.9087 Y1.2972
N5000 X-0.868 Y1.3247
N5005 X-0.8265 Y1.351
N5010 X-0.7842 Y1.376
N5015 X-0.7412 Y1.3997
N5020 X-0.6974 Y1.422
N5025 X-0.6529 Y1.4429
N5030 X-0.6079 Y1.4625
N5035 X-0.5622 Y1.4806
N5040 X-0.516 Y1.4974
N5045 X-0.4693 Y1.5127
N5050 X-0.4222 Y1.5265
N5055 X-0.3746 Y1.5389
N5060 X-0.3267 Y1.5498
N5065 X-0.2785 Y1.5592
N5070 X-0.23 Y1.5671
N5075 X-0.1812 Y1.5734
N5080 X-0.1324 Y1.5783
N5085 X-0.0833 Y1.5816
N5090 X-0.0342 Y1.5834
N5095 X0.0149 Y1.5837
N5100 X0.064 Y1.5825
N5105 X0.1131 Y1.5797
N5110 X0.162 Y1.5755
N5115 X0.2108 Y1.5697
N5120 X0.2594 Y1.5624
N5125 X0.3078 Y1.5536
N5130 X0.3558 Y1.5433
N5135 X0.4035 Y1.5315
N5140 X0.4508 Y1.5183
N5145 X0.4977 Y1.5036
N5150 X0.5441 Y1.4874
N5155 X0.59 Y1.4698
N5160 X0.6353 Y1.4508
N5165 X0.68 Y1.4304
N5170 X0.7241 Y1.4086
N5175 X0.7674 Y1.3855
N5180 X0.81 Y1.361
N5185 X0.8518 Y1.3352
N5190 X0.8928 Y1.3081
N5195 X0.933 Y1.2798
N5200 X0.9722 Y1.2502
N5205 X1.0105 Y1.2195
N5210 X1.0479 Y1.1876
N5215 X1.0842 Y1.1545
N5220 X1.1195 Y1.1203
N5225 X1.1537 Y1.085
N5230 X1.1868 Y1.0487
N5235 X1.2188 Y1.0114
N5240 X1.2496 Y0.9731
N5245 X1.2792 Y0.9339
N5250 X1.3076 Y0.8938
N5255 X1.3347 Y0.8528
N5260 X1.3605 Y0.811
N5265 X1.385 Y0.7684
N5270 X1.4081 Y0.725
N5275 X1.4299 Y0.681
N5280 X1.4504 Y0.6363
N5285 X1.4694 Y0.591
N5290 X1.487 Y0.5451
N5295 X1.5032 Y0.4987
N5300 X1.518 Y0.4519
N5305 X1.5312 Y0.4046
N5310 X1.5431 Y0.3569
N5315 X1.5534 Y0.3088
N5320 X1.5622 Y0.2605
N5325 X1.5696 Y0.2119
N5330 X1.5754 Y0.1631
N5335 X1.5797 Y0.1142
N5340 X1.5825 Y0.0651
N5345 X1.5838 Y0.016
N5350 X1.5835 Y-0.0331
N5355 X1.5817 Y-0.0822
N5360 X1.5784 Y-0.1313
N5365 X1.5735 Y-0.1802
N5370 X1.5672 Y-0.2289
N5375 X1.5593 Y-0.2774
N5380 X1.5499 Y-0.3256
N5385 X1.5391 Y-0.3736
N5390 X1.5268 Y-0.4211
N5395 X1.513 Y-0.4683
N5400 X1.4977 Y-0.515
N5405 X1.481 Y-0.5612
N5410 X1.4629 Y-0.6069
N5415 X1.4434 Y-0.652
N5420 X1.4225 Y-0.6964
N5425 X1.4002 Y-0.7402
N5430 X1.3766 Y-0.7833
N5435 X1.3516 Y-0.8256
N5440 X1.3254 Y-0.8672
N5445 X1.2978 Y-0.9079
N5450 X1.269 Y-0.9477
N5455 X1.239 Y-0.9866
N5460 X1.2078 Y-1.0245
N5465 X1.1754 Y-1.0615
N5470 X1.1419 Y-1.0974
N5475 X1.1073 Y-1.1323
N5480 X1.0717 Y-1.1661
N5485 X1.035 Y-1.1988
N5490 X0.9973 Y-1.2304
N5495 X0.9586 Y-1.2607
N5500 X0.9191 Y-1.2898
N5505 X0.8786 Y-1.3177
N5510 X0.8373 Y-1.3444
N5515 X0.7952 Y-1.3697
N5520 X0.7524 Y-1.3937
N5525 X0.7088 Y-1.4164
N5530 X0.6645 Y-1.4377
N5535 X0.6196 Y-1.4576
N5540 X0.5741 Y-1.4761
N5545 X0.528 Y-1.4932
N5550 X0.4814 Y-1.5089
N5555 X0.4344 Y-1.5231
N5560 X0.3869 Y-1.5358
N5565 X0.3391 Y-1.5471
N5570 X0.2909 Y-1.5568
N5575 X0.2425 Y-1.5651
N5580 X0.1938 Y-1.5719
N5585 X0.145 Y-1.5771
N5590 X0.096 Y-1.5809
N5595 X0.0469 Y-1.5831
N5600 X-0.0022 Y-1.5838
N5605 X-0.0514 Y-1.583
N5610 X-0.1004 Y-1.5806
N5615 X-0.1494 Y-1.5767
N5620 X-0.1983 Y-1.5714
N5625 X-0.2469 Y-1.5645
N5630 X-0.2953 Y-1.5561
N5635 X-0.3435 Y-1.5462
N5640 X-0.3913 Y-1.5348
N5645 X-0.4387 Y-1.5219
N5650 X-0.4857 Y-1.5075
N5655 X-0.5322 Y-1.4917
N5660 X-0.5782 Y-1.4745
N5665 X-0.6237 Y-1.4558
N5670 X-0.6685 Y-1.4358
N5675 X-0.7127 Y-1.4143
N5680 X-0.7563 Y-1.3915
N5685 X-0.7991 Y-1.3674
N5690 X-0.8411 Y-1.342
N5695 X-0.8823 Y-1.3152
N5700 X-0.9227 Y-1.2872
N5705 X-0.9621 Y-1.2579
N5710 X-1.0005 Y-1.2272
N5715 X-1.0377 Y-1.1951
N5720 X-1.0736 Y-1.1616
N5725 X-1.1081 Y-1.1265
N5730 X-1.141 Y-1.0901
N5735 X-1.1723 Y-1.0522
N5740 X-1.202 Y-1.0131
N5745 X-1.2301 Y-0.9728
N5750 X-1.2566 Y-0.9314
N5755 X-1.2816 Y-0.889
N5760 X-1.305 Y-0.8459
N5765 X-1.327 Y-0.8019
N5770 X-1.3476 Y-0.7573
N5775 X-1.3669 Y-0.7121
N5780 X-1.3849 Y-0.6664
N5785 X-1.4016 Y-0.6202
N5790 X-1.4172 Y-0.5736
N5795 X-1.4315 Y-0.5266
N5800 X-1.4446 Y-0.4792
N5805 X-1.4564 Y-0.4315
N5810 X-1.467 Y-0.3836
N5815 X-1.4764 Y-0.3353
N5820 X-1.4845 Y-0.2868
N5825 X-1.4912 Y-0.2382
N5830 X-1.4966 Y-0.1893
N5835 X-1.5006 Y-0.1404
N5840 X-1.5032 Y-0.0913
N5845 X-1.5044 Y-0.0422
N5850 X-1.5041 Y0.007
N5855 X-1.5023 Y0.0561
N5860 X-1.4991 Y0.1051
N5865 X-1.4944 Y0.154
N5870 X-1.4881 Y0.2027
N5875 X-1.4803 Y0.2513
N5880 X-1.471 Y0.2995
N5885 X-1.4602 Y0.3474
N5890 X-1.4479 Y0.395
N5895 X-1.434 Y0.4421
N5900 X-1.4187 Y0.4888
N5905 X-1.4018 Y0.535
N5910 X-1.3835 Y0.5806
N5915 X-1.3637 Y0.6255
N5920 X-1.3424 Y0.6698
N5925 X-1.3197 Y0.7134
N5930 X-1.2956 Y0.7562
N5935 X-1.2701 Y0.7982
N5940 X-1.2432 Y0.8394
N5945 X-1.215 Y0.8796
N5950 X-1.1856 Y0.9189
N5955 X-1.1548 Y0.9573
N5960 X-1.1228 Y0.9946
N5965 X-1.0897 Y1.0308
N5970 X-1.0553 Y1.0659
N5975 X-1.0198 Y1.0999
N5980 X-0.9832 Y1.1327
N5985 X-0.9456 Y1.1643
N5990 X-0.907 Y1.1947
N5995 X-0.8674 Y1.2238
N6000 X-0.8268 Y1.2515
N6005 X-0.7854 Y1.2779
N6010 X-0.7431 Y1.303
N6015 X-0.7 Y1.3266
N6020 X-0.6562 Y1.3488
N6025 X-0.6117 Y1.3696
N6030 X-0.5665 Y1.3889
N6035 X-0.5207 Y1.4067
N6040 X-0.4743 Y1.423
N6045 X-0.4275 Y1.4377
N6050 X-0.3801 Y1.451
N6055 X-0.3324 Y1.4626
N6060 X-0.2843 Y1.4727
N6065 X-0.2359 Y1.4813
N6070 X-0.1873 Y1.4882
N6075 X-0.1384 Y1.4936
N6080 X-0.0894 Y1.4973
N6085 X-0.0404 Y1.4994
N6090 X0.0088 Y1.5
N6095 X0.0579 Y1.4989
N6100 X0.107 Y1.4961
N6105 X0.1559 Y1.4918
N6110 X0.2047 Y1.4859
N6115 X0.2533 Y1.4784
N6120 X0.3015 Y1.4693
N6125 X0.3495 Y1.4586
N6130 X0.3971 Y1.4464
N6135 X0.4443 Y1.4326
N6140 X0.4909 Y1.4173
N6145 X0.5371 Y1.4005
N6150 X0.5827 Y1.3821
N6155 X0.6277 Y1.3623
N6160 X0.6719 Y1.341
N6165 X0.7155 Y1.3183
N6170 X0.7583 Y1.2942
N6175 X0.8003 Y1.2686
N6180 X0.8414 Y1.2418
N6185 X0.8816 Y1.2135
N6190 X0.9209 Y1.184
N6195 X0.9592 Y1.1532
N6200 X0.9964 Y1.1211
N6205 X1.0326 Y1.0879
N6210 X1.0677 Y1.0535
N6215 X1.1016 Y1.0179
N6220 X1.1344 Y0.9813
N6225 X1.1659 Y0.9436
N6230 X1.1962 Y0.9049
N6235 X1.2252 Y0.8653
N6240 X1.2529 Y0.8247
N6245 X1.2792 Y0.7832
N6250 X1.3042 Y0.7409
N6255 X1.3278 Y0.6978
N6260 X1.3499 Y0.6539
N6265 X1.3706 Y0.6093
N6270 X1.3899 Y0.5641
N6275 X1.4076 Y0.5183
N6280 X1.4238 Y0.4719
N6285 X1.4385 Y0.425
N6290 X1.4516 Y0.3777
N6295 X1.4632 Y0.3299
N6300 X1.4732 Y0.2818
N6305 X1.4816 Y0.2334
N6310 X1.4885 Y0.1848
N6315 X1.4938 Y0.1359
N6320 X1.4974 Y0.0869
N6325 X1.4995 Y0.0378
N6330 X1.4999 Y-0.0113
N6335 X1.4987 Y-0.0605
N6340 X1.496 Y-0.1095
N6345 X1.4916 Y-0.1585
N6350 X1.4856 Y-0.2072
N6355 X1.478 Y-0.2558
N6360 X1.4688 Y-0.304
N6365 X1.4581 Y-0.352
N6370 X1.4458 Y-0.3996
N6375 X1.4319 Y-0.4467
N6380 X1.4165 Y-0.4933
N6385 X1.3996 Y-0.5395
N6390 X1.3811 Y-0.585
N6395 X1.3612 Y-0.63
N6400 X1.3399 Y-0.6742
N6405 X1.3171 Y-0.7177
N6410 X1.2928 Y-0.7605
N6415 X1.2673 Y-0.8024
N6420 X1.2403 Y-0.8435
N6425 X1.212 Y-0.8837
N6430 X1.1824 Y-0.9229
N6435 X1.1516 Y-0.9612
N6440 X1.1195 Y-0.9984
N6445 X1.0862 Y-1.0345
N6450 X1.0517 Y-1.0695
N6455 X1.0161 Y-1.1034
N6460 X0.9794 Y-1.1361
N6465 X0.9417 Y-1.1675
N6470 X0.9029 Y-1.1977
N6475 X0.8632 Y-1.2267
N6480 X0.8225 Y-1.2543
N6485 X0.781 Y-1.2805
N6490 X0.7387 Y-1.3054
N6495 X0.6955 Y-1.3289
N6500 X0.6516 Y-1.351
N6505 X0.607 Y-1.3716
N6510 X0.5618 Y-1.3908
N6515 X0.5159 Y-1.4084
N6520 X0.4695 Y-1.4246
N6525 X0.4226 Y-1.4392
N6530 X0.3752 Y-1.4523
N6535 X0.3275 Y-1.4638
N6540 X0.2793 Y-1.4737
N6545 X0.2309 Y-1.4821
N6550 X0.1822 Y-1.4888
N6555 X0.1334 Y-1.494
N6560 X0.0844 Y-1.4976
N6565 X0.0353 Y-1.4995
N6570 X-0.0139 Y-1.4999
N6575 X-0.063 Y-1.4986
N6580 X-0.112 Y-1.4957
N6585 X-0.161 Y-1.4913
N6590 X-0.2097 Y-1.4852
N6595 X-0.2583 Y-1.4775
N6600 X-0.3065 Y-1.4683
N6605 X-0.3545 Y-1.4575
N6610 X-0.402 Y-1.4451
N6615 X-0.4491 Y-1.4312
N6620 X-0.4958 Y-1.4157
N6625 X-0.5419 Y-1.3987
N6630 X-0.5874 Y-1.3802
N6635 X-0.6323 Y-1.3602
N6640 X-0.6765 Y-1.3387
N6645 X-0.72 Y-1.3159
N6650 X-0.7627 Y-1.2915
N6655 X-0.8045 Y-1.2658
N6660 X-0.8455 Y-1.2386
N6665 X-0.8854 Y-1.21
N6670 X-0.9242 Y-1.1798
N6675 X-0.9617 Y-1.1482
N6680 X-0.998 Y-1.1149
N6685 X-1.0327 Y-1.0802
N6690 X-1.0659 Y-1.044
N6695 X-1.0976 Y-1.0064
N6700 X-1.1276 Y-0.9675
N6705 X-1.156 Y-0.9274
N6710 X-1.1828 Y-0.8863
N6715 X-1.2081 Y-0.8441
N6720 X-1.2318 Y-0.8011
N6725 X-1.2541 Y-0.7573
N6730 X-1.2749 Y-0.7128
N6735 X-1.2942 Y-0.6676
N6740 X-1.3122 Y-0.6219
N6745 X-1.3288 Y-0.5756
N6750 X-1.3441 Y-0.5289
N6755 X-1.3581 Y-0.4818
N6760 X-1.3707 Y-0.4343
N6765 X-1.382 Y-0.3865
N6770 X-1.3919 Y-0.3384
N6775 X-1.4004 Y-0.29
N6780 X-1.4075 Y-0.2414
N6785 X-1.4132 Y-0.1926
N6790 X-1.4174 Y-0.1436
N6795 X-1.4201 Y-0.0945
N6800 X-1.4213 Y-0.0454
N6805 X-1.421 Y0.0037
N6810 X-1.4191 Y0.0528
N6815 X-1.4157 Y0.1018
N6820 X-1.4106 Y0.1507
N6825 X-1.404 Y0.1994
N6830 X-1.3958 Y0.2478
N6835 X-1.386 Y0.296
N6840 X-1.3746 Y0.3438
N6845 X-1.3616 Y0.3912
N6850 X-1.347 Y0.4381
N6855 X-1.3309 Y0.4845
N6860 X-1.3131 Y0.5303
N6865 X-1.2938 Y0.5755
N6870 X-1.273 Y0.62
N6875 X-1.2507 Y0.6638
N6880 X-1.2268 Y0.7067
N6885 X-1.2015 Y0.7489
N6890 X-1.1747 Y0.7901
N6895 X-1.1466 Y0.8303
N6900 X-1.117 Y0.8696
N6905 X-1.0862 Y0.9078
N6910 X-1.054 Y0.9449
N6915 X-1.0205 Y0.9809
N6920 X-0.9859 Y1.0158
N6925 X-0.95 Y1.0494
N6930 X-0.913 Y1.0817
N6935 X-0.8749 Y1.1127
N6940 X-0.8358 Y1.1424
N6945 X-0.7956 Y1.1708
N6950 X-0.7545 Y1.1977
N6955 X-0.7125 Y1.2232
N6960 X-0.6696 Y1.2472
N6965 X-0.6259 Y1.2696
N6970 X-0.5815 Y1.2906
N6975 X-0.5363 Y1.31
N6980 X-0.4905 Y1.3278
N6985 X-0.4442 Y1.344
N6990 X-0.3972 Y1.3586
N6995 X-0.3498 Y1.3716
N7000 X-0.302 Y1.3829
N7005 X-0.2538 Y1.3925
N7010 X-0.2054 Y1.4005
N7015 X-0.1566 Y1.4068
N7020 X-0.1077 Y1.4114
N7025 X-0.0587 Y1.4143
N7030 X-0.0095 Y1.4155
N7035 X0.0396 Y1.415
N7040 X0.0887 Y1.4127
N7045 X0.1377 Y1.4088
N7050 X0.1865 Y1.4032
N7055 X0.2351 Y1.3959
N7060 X0.2834 Y1.3869
N7065 X0.3313 Y1.3762
N7070 X0.3789 Y1.3638
N7075 X0.426 Y1.3498
N7080 X0.4726 Y1.3342
N7085 X0.5186 Y1.317
N7090 X0.564 Y1.2982
N7095 X0.6087 Y1.2779
N7100 X0.6527 Y1.256
N7105 X0.6959 Y1.2326
N7110 X0.7383 Y1.2077
N7115 X0.7798 Y1.1814
N7120 X0.8203 Y1.1536
N7125 X0.8599 Y1.1244
N7130 X0.8984 Y1.0939
N7135 X0.9358 Y1.0621
N7140 X0.9721 Y1.0289
N7145 X1.0072 Y0.9946
N7150 X1.0411 Y0.959
N7155 X1.0738 Y0.9223
N7160 X1.1051 Y0.8845
N7165 X1.1351 Y0.8456
N7170 X1.1638 Y0.8057
N7175 X1.1911 Y0.7648
N7180 X1.2169 Y0.723
N7185 X1.2413 Y0.6803
N7190 X1.2641 Y0.6368
N7195 X1.2855 Y0.5926
N7200 X1.3053 Y0.5476
N7205 X1.3235 Y0.502
N7210 X1.3402 Y0.4557
N7215 X1.3552 Y0.4089
N7220 X1.3686 Y0.3617
N7225 X1.3803 Y0.3139
N7230 X1.3903 Y0.2658
N7235 X1.3987 Y0.2174
N7240 X1.4054 Y0.1688
N7245 X1.4104 Y0.1199
N7250 X1.4137 Y0.0708
N7255 X1.4153 Y0.0217
N7260 X1.4152 Y-0.0274
N7265 X1.4134 Y-0.0765
N7270 X1.4099 Y-0.1255
N7275 X1.4047 Y-0.1744
N7280 X1.3978 Y-0.223
N7285 X1.3893 Y-0.2714
N7290 X1.379 Y-0.3195
N7295 X1.3671 Y-0.3671
N7300 X1.3535 Y-0.4144
N7305 X1.3383 Y-0.4611
N7310 X1.3215 Y-0.5073
N7315 X1.3031 Y-0.5528
N7320 X1.2831 Y-0.5977
N7325 X1.2616 Y-0.6419
N7330 X1.2385 Y-0.6853
N7335 X1.214 Y-0.7278
N7340 X1.188 Y-0.7695
N7345 X1.1606 Y-0.8103
N7350 X1.1318 Y-0.8501
N7355 X1.1016 Y-0.8889
N7360 X1.0701 Y-0.9266
N7365 X1.0373 Y-0.9632
N7370 X1.0032 Y-0.9986
N7375 X0.968 Y-1.0328
N7380 X0.9316 Y-1.0658
N7385 X0.894 Y-1.0975
N7390 X0.8554 Y-1.1279
N7395 X0.8157 Y-1.1569
N7400 X0.775 Y-1.1845
N7405 X0.7335 Y-1.2106
N7410 X0.691 Y-1.2354
N7415 X0.6477 Y-1.2586
N7420 X0.6036 Y-1.2803
N7425 X0.5588 Y-1.3005
N7430 X0.5133 Y-1.3191
N7435 X0.4672 Y-1.3361
N7440 X0.4206 Y-1.3516
N7445 X0.3734 Y-1.3653
N7450 X0.3258 Y-1.3775
N7455 X0.2778 Y-1.388
N7460 X0.2295 Y-1.3968
N7465 X0.1809 Y-1.4039
N7470 X0.132 Y-1.4094
N7475 X0.083 Y-1.4131
N7480 X0.0339 Y-1.4151
N7485 X-0.0152 Y-1.4154
N7490 X-0.0643 Y-1.414
N7495 X-0.1134 Y-1.4109
N7500 X-0.1623 Y-1.4061
N7505 X-0.211 Y-1.3997
N7510 X-0.2594 Y-1.3915
N7515 X-0.3076 Y-1.3817
N7520 X-0.3553 Y-1.3702
N7525 X-0.4027 Y-1.357
N7530 X-0.4495 Y-1.3422
N7535 X-0.4959 Y-1.3258
N7540 X-0.5416 Y-1.3078
N7545 X-0.5866 Y-1.2883
N7550 X-0.631 Y-1.2671
N7555 X-0.6746 Y-1.2444
N7560 X-0.7173 Y-1.2201
N7565 X-0.759 Y-1.1941
N7570 X-0.7997 Y-1.1666
N7575 X-0.8393 Y-1.1375
N7580 X-0.8775 Y-1.1067
N7585 X-0.9145 Y-1.0742
N7590 X-0.9499 Y-1.0402
N7595 X-0.9839 Y-1.0047
N7600 X-1.0163 Y-0.9678
N7605 X-1.047 Y-0.9295
N7610 X-1.0762 Y-0.8899
N7615 X-1.1037 Y-0.8492
N7620 X-1.1296 Y-0.8074
N7625 X-1.1538 Y-0.7647
N7630 X-1.1766 Y-0.7211
N7635 X-1.1977 Y-0.6768
N7640 X-1.2174 Y-0.6317
N7645 X-1.2356 Y-0.5861
N7650 X-1.2523 Y-0.5399
N7655 X-1.2675 Y-0.4932
N7660 X-1.2813 Y-0.446
N7665 X-1.2936 Y-0.3984
N7670 X-1.3044 Y-0.3505
N7675 X-1.3138 Y-0.3023
N7680 X-1.3216 Y-0.2538
N7685 X-1.3279 Y-0.205
N7690 X-1.3327 Y-0.1561
N7695 X-1.3359 Y-0.1071
N7700 X-1.3375 Y-0.058
N7705 Y-0.0088
N7710 X-1.3358 Y0.0403
N7715 X-1.3325 Y0.0893
N7720 X-1.3275 Y0.1382
N7725 X-1.3208 Y0.1869
N7730 X-1.3124 Y0.2353
N7735 X-1.3023 Y0.2834
N7740 X-1.2906 Y0.3311
N7745 X-1.2772 Y0.3783
N7750 X-1.2621 Y0.4251
N7755 X-1.2453 Y0.4713
N7760 X-1.2269 Y0.5168
N7765 X-1.2068 Y0.5617
N7770 X-1.1851 Y0.6058
N7775 X-1.1619 Y0.6491
N7780 X-1.1371 Y0.6915
N7785 X-1.1107 Y0.733
N7790 X-1.0828 Y0.7734
N7795 X-1.0535 Y0.8128
N7800 X-1.0227 Y0.8511
N7805 X-0.9905 Y0.8883
N7810 X-0.957 Y0.9242
N7815 X-0.9222 Y0.9589
N7820 X-0.8862 Y0.9923
N7825 X-0.8489 Y1.0243
N7830 X-0.8105 Y1.055
N7835 X-0.771 Y1.0842
N7840 X-0.7304 Y1.1119
N7845 X-0.6889 Y1.1381
N7850 X-0.6464 Y1.1628
N7855 X-0.603 Y1.1859
N7860 X-0.5588 Y1.2074
N7865 X-0.5139 Y1.2272
N7870 X-0.4682 Y1.2453
N7875 X-0.4219 Y1.2617
N7880 X-0.375 Y1.2764
N7885 X-0.3276 Y1.2894
N7890 X-0.2797 Y1.3006
N7895 X-0.2315 Y1.31
N7900 X-0.183 Y1.3177
N7905 X-0.1342 Y1.3235
N7910 X-0.0852 Y1.3276
N7915 X-0.0361 Y1.3298
N7920 X0.013 Y1.3303
N7925 X0.0621 Y1.3289
N7930 X0.1111 Y1.3257
N7935 X0.16 Y1.3207
N7940 X0.2087 Y1.3139
N7945 X0.2571 Y1.3053
N7950 X0.3051 Y1.2949
N7955 X0.3527 Y1.2828
N7960 X0.3998 Y1.2689
N7965 X0.4464 Y1.2532
N7970 X0.4924 Y1.2359
N7975 X0.5377 Y1.2168
N7980 X0.5822 Y1.1961
N7985 X0.626 Y1.1738
N7990 X0.6689 Y1.1499
N7995 X0.711 Y1.1244
N8000 X0.752 Y1.0974
N8005 X0.792 Y1.0689
N8010 X0.831 Y1.0389
N8015 X0.8688 Y1.0076
N8020 X0.9054 Y0.9748
N8025 X0.9408 Y0.9407
N8030 X0.9749 Y0.9053
N8035 X1.0076 Y0.8687
N8040 X1.039 Y0.8309
N8045 X1.0689 Y0.7919
N8050 X1.0975 Y0.7519
N8055 X1.1245 Y0.7109
N8060 X1.15 Y0.6688
N8065 X1.1739 Y0.6259
N8070 X1.1962 Y0.5821
N8075 X1.2169 Y0.5376
N8080 X1.2359 Y0.4923
N8085 X1.2533 Y0.4463
N8090 X1.2689 Y0.3997
N8095 X1.2828 Y0.3526
N8100 X1.295 Y0.305
N8105 X1.3053 Y0.257
N8110 X1.3139 Y0.2086
N8115 X1.3207 Y0.1599
N8120 X1.3257 Y0.111
N8125 X1.3289 Y0.062
N8130 X1.3303 Y0.0129
N8135 X1.3298 Y-0.0363
N8140 X1.3276 Y-0.0853
N8145 X1.3235 Y-0.1343
N8150 X1.3177 Y-0.1831
N8155 X1.31 Y-0.2316
N8160 X1.3006 Y-0.2799
N8165 X1.2894 Y-0.3277
N8170 X1.2764 Y-0.3751
N8175 X1.2617 Y-0.422
N8180 X1.2453 Y-0.4683
N8185 X1.2271 Y-0.5139
N8190 X1.2073 Y-0.5589
N8195 X1.1858 Y-0.6031
N8200 X1.1627 Y-0.6465
N8205 X1.138 Y-0.6889
N8210 X1.1118 Y-0.7305
N8215 X1.0841 Y-0.7711
N8220 X1.0548 Y-0.8106
N8225 X1.0242 Y-0.849
N8230 X0.9922 Y-0.8862
N8235 X0.9588 Y-0.9223
N8240 X0.9241 Y-0.9571
N8245 X0.8881 Y-0.9905
N8250 X0.8509 Y-1.0227
N8255 X0.8126 Y-1.0534
N8260 X0.7731 Y-1.0827
N8265 X0.7326 Y-1.1105
N8270 X0.6911 Y-1.1368
N8275 X0.6486 Y-1.1615
N8280 X0.6053 Y-1.1846
N8285 X0.5611 Y-1.2062
N8290 X0.5162 Y-1.2261
N8295 X0.4706 Y-1.2443
N8300 X0.4243 Y-1.2608
N8305 X0.3774 Y-1.2757
N8310 X0.3301 Y-1.2887
N8315 X0.2823 Y-1.3001
N8320 X0.2341 Y-1.3096
N8325 X0.1856 Y-1.3174
N8330 X0.1368 Y-1.3234
N8335 X0.0878 Y-1.3275
N8340 X0.0387 Y-1.3298
N8345 X-0.0104 Y-1.3303
N8350 X-0.0595 Y-1.329
N8355 X-0.1085 Y-1.3259
N8360 X-0.1574 Y-1.321
N8365 X-0.2061 Y-1.3143
N8370 X-0.2545 Y-1.3057
N8375 X-0.3026 Y-1.2954
N8380 X-0.3502 Y-1.2834
N8385 X-0.3973 Y-1.2696
N8390 X-0.444 Y-1.2541
N8395 X-0.49 Y-1.2368
N8400 X-0.5353 Y-1.2179
N8405 X-0.5799 Y-1.1972
N8410 X-0.6236 Y-1.1747
N8415 X-0.6663 Y-1.1505
N8420 X-0.708 Y-1.1245
N8425 X-0.7486 Y-1.0968
N8430 X-0.7879 Y-1.0673
N8435 X-0.8258 Y-1.0361
N8440 X-0.8623 Y-1.0031
N8445 X-0.8973 Y-0.9686
N8450 X-0.9306 Y-0.9325
N8455 X-0.9624 Y-0.895
N8460 X-0.9925 Y-0.8562
N8465 X-1.0209 Y-0.8161
N8470 X-1.0476 Y-0.7749
N8475 X-1.0726 Y-0.7326
N8480 X-1.096 Y-0.6894
N8485 X-1.1177 Y-0.6453
N8490 X-1.1379 Y-0.6005
N8495 X-1.1563 Y-0.5549
N8500 X-1.1732 Y-0.5088
N8505 X-1.1885 Y-0.4621
N8510 X-1.2023 Y-0.4149
N8515 X-1.2144 Y-0.3673
N8520 X-1.2249 Y-0.3193
N8525 X-1.2338 Y-0.271
N8530 X-1.241 Y-0.2224
N8535 X-1.2466 Y-0.1736
N8540 X-1.2505 Y-0.1246
N8545 X-1.2527 Y-0.0755
N8550 X-1.2532 Y-0.0264
N8555 X-1.252 Y0.0228
N8560 X-1.249 Y0.0718
N8565 X-1.2442 Y0.1207
N8570 X-1.2376 Y0.1694
N8575 X-1.2292 Y0.2178
N8580 X-1.2191 Y0.2659
N8585 X-1.2071 Y0.3136
N8590 X-1.1934 Y0.3607
N8595 X-1.1778 Y0.4074
N8600 X-1.1606 Y0.4533
N8605 X-1.1415 Y0.4987
N8610 X-1.1208 Y0.5432
N8615 X-1.0983 Y0.5869
N8620 X-1.0742 Y0.6297
N8625 X-1.0484 Y0.6715
N8630 X-1.021 Y0.7123
N8635 X-0.992 Y0.752
N8640 X-0.9615 Y0.7905
N8645 X-0.9295 Y0.8278
N8650 X-0.8961 Y0.8638
N8655 X-0.8612 Y0.8984
N8660 X-0.8251 Y0.9317
N8665 X-0.7876 Y0.9635
N8670 X-0.749 Y0.9938
N8675 X-0.7091 Y1.0226
N8680 X-0.6682 Y1.0498
N8685 X-0.6262 Y1.0754
N8690 X-0.5833 Y1.0993
N8695 X-0.5395 Y1.1215
N8700 X-0.4948 Y1.1419
N8705 X-0.4493 Y1.1605
N8710 X-0.4031 Y1.1774
N8715 X-0.3563 Y1.1923
N8720 X-0.309 Y1.2054
N8725 X-0.2612 Y1.2167
N8730 X-0.2129 Y1.226
N8735 X-0.1644 Y1.2335
N8740 X-0.1155 Y1.239
N8745 X-0.0665 Y1.2426
N8750 X-0.0174 Y1.2442
N8755 X0.0317 Y1.244
N8760 X0.0808 Y1.2418
N8765 X0.1298 Y1.2376
N8770 X0.1785 Y1.2316
N8775 X0.227 Y1.2236
N8780 X0.2751 Y1.2137
N8785 X0.3228 Y1.2018
N8790 X0.37 Y1.1881
N8795 X0.4166 Y1.1726
N8800 X0.4626 Y1.1552
N8805 X0.5078 Y1.136
N8810 X0.5523 Y1.1151
N8815 X0.5959 Y1.0924
N8820 X0.6385 Y1.068
N8825 X0.6802 Y1.042
N8830 X0.7208 Y1.0144
N8835 X0.7603 Y0.9851
N8840 X0.7986 Y0.9544
N8845 X0.8357 Y0.9221
N8850 X0.8715 Y0.8884
N8855 X0.9058 Y0.8533
N8860 X0.9388 Y0.8169
N8865 X0.9703 Y0.7791
N8870 X1.0003 Y0.7402
N8875 X1.0287 Y0.7001
N8880 X1.0555 Y0.659
N8885 X1.0807 Y0.6168
N8890 X1.1042 Y0.5736
N8895 X1.126 Y0.5296
N8900 X1.1461 Y0.4847
N8905 X1.1644 Y0.4391
N8910 X1.1808 Y0.3928
N8915 X1.1954 Y0.3459
N8920 X1.2082 Y0.2984
N8925 X1.219 Y0.2505
N8930 X1.2279 Y0.2022
N8935 X1.2349 Y0.1536
N8940 X1.24 Y0.1047
N8945 X1.2431 Y0.0557
N8950 X1.2443 Y0.0065
N8955 X1.2436 Y-0.0426
N8960 X1.241 Y-0.0917
N8965 X1.2364 Y-0.1406
N8970 X1.2299 Y-0.1893
N8975 X1.2215 Y-0.2377
N8980 X1.2112 Y-0.2857
N8985 X1.199 Y-0.3333
N8990 X1.1849 Y-0.3804
N8995 X1.169 Y-0.4269
N9000 X1.1512 Y-0.4727
N9005 X1.1316 Y-0.5178
N9010 X1.1103 Y-0.562
N9015 X1.0872 Y-0.6054
N9020 X1.0624 Y-0.6479
N9025 X1.036 Y-0.6893
N9030 X1.008 Y-0.7296
N9035 X0.9784 Y-0.7689
N9040 X0.9473 Y-0.8069
N9045 X0.9147 Y-0.8437
N9050 X0.8807 Y-0.8792
N9055 X0.8453 Y-0.9133
N9060 X0.8086 Y-0.9459
N9065 X0.7707 Y-0.9771
N9070 X0.7315 Y-1.0068
N9075 X0.6912 Y-1.0349
N9080 X0.6497 Y-1.0613
N9085 X0.6073 Y-1.0861
N9090 X0.564 Y-1.1092
N9095 X0.5197 Y-1.1306
N9100 X0.4747 Y-1.1503
N9105 X0.4289 Y-1.1681
N9110 X0.3825 Y-1.1841
N9115 X0.3354 Y-1.1983
N9120 X0.2878 Y-1.2106
N9125 X0.2398 Y-1.2211
N9130 X0.1914 Y-1.2296
N9135 X0.1428 Y-1.2363
N9140 X0.0938 Y-1.2409
N9145 X0.0448 Y-1.2436
N9150 X-0.0044 Y-1.2444
N9155 X-0.0535 Y-1.2433
N9160 X-0.1025 Y-1.2402
N9165 X-0.1514 Y-1.2351
N9170 X-0.2 Y-1.2282
N9175 X-0.2484 Y-1.2193
N9180 X-0.2963 Y-1.2085
N9185 X-0.3438 Y-1.1959
N9190 X-0.3907 Y-1.1814
N9195 X-0.437 Y-1.165
N9200 X-0.4827 Y-1.1467
N9205 X-0.5274 Y-1.1265
N9210 X-0.5713 Y-1.1043
N9215 X-0.6141 Y-1.0802
N9220 X-0.6558 Y-1.0542
N9225 X-0.6963 Y-1.0263
N9230 X-0.7353 Y-0.9965
N9235 X-0.773 Y-0.9649
N9240 X-0.8091 Y-0.9316
N9245 X-0.8436 Y-0.8966
N9250 X-0.8764 Y-0.8601
N9255 X-0.9075 Y-0.822
N9260 X-0.9369 Y-0.7826
N9265 X-0.9645 Y-0.742
N9270 X-0.9904 Y-0.7002
N9275 X-1.0144 Y-0.6574
N9280 X-1.0368 Y-0.6136
N9285 X-1.0573 Y-0.569
N9290 X-1.0762 Y-0.5236
N9295 X-1.0933 Y-0.4775
N9300 X-1.1086 Y-0.4309
N9305 X-1.1222 Y-0.3836
N9310 X-1.1341 Y-0.336
N9315 X-1.1442 Y-0.2879
N9320 X-1.1526 Y-0.2395
N9325 X-1.1592 Y-0.1908
N9330 X-1.164 Y-0.1419
N9335 X-1.1669 Y-0.0928
N9340 X-1.1681 Y-0.0437
N9345 X-1.1673 Y0.0054
N9350 X-1.1647 Y0.0545
N9355 X-1.1601 Y0.1034
N9360 X-1.1536 Y0.1521
N9365 X-1.1452 Y0.2005
N9370 X-1.1349 Y0.2486
N9375 X-1.1227 Y0.2962
N9380 X-1.1086 Y0.3432
N9385 X-1.0926 Y0.3897
N9390 X-1.0747 Y0.4355
N9395 X-1.055 Y0.4805
N9400 X-1.0334 Y0.5246
N9405 X-1.0101 Y0.5679
N9410 X-0.9849 Y0.6101
N9415 X-0.958 Y0.6512
N9420 X-0.9294 Y0.6911
N9425 X-0.8992 Y0.7299
N9430 X-0.8673 Y0.7673
N9435 X-0.8339 Y0.8033
N9440 X-0.799 Y0.8379
N9445 X-0.7627 Y0.871
N9450 X-0.725 Y0.9025
N9455 X-0.686 Y0.9324
N9460 X-0.6458 Y0.9607
N9465 X-0.6045 Y0.9872
N9470 X-0.562 Y1.012
N9475 X-0.5186 Y1.035
N9480 X-0.4742 Y1.056
N9485 X-0.4289 Y1.0752
N9490 X-0.3829 Y1.0924
N9495 X-0.3362 Y1.1076
N9500 X-0.2889 Y1.1209
N9505 X-0.2411 Y1.1321
N9510 X-0.1928 Y1.1413
N9515 X-0.1442 Y1.1484
N9520 X-0.0953 Y1.1535
N9525 X-0.0463 Y1.1565
N9530 X0.0029 Y1.1575
N9535 X0.052 Y1.1563
N9540 X0.101 Y1.1531
N9545 X0.1499 Y1.1478
N9550 X0.1985 Y1.1404
N9555 X0.2467 Y1.131
N9560 X0.2944 Y1.1194
N9565 X0.3417 Y1.1059
N9570 X0.3883 Y1.0904
N9575 X0.4342 Y1.0729
N9580 X0.4794 Y1.0535
N9585 X0.5236 Y1.0322
N9590 X0.567 Y1.0091
N9595 X0.6093 Y0.9841
N9600 X0.6505 Y0.9574
N9605 X0.6906 Y0.9289
N9610 X0.7294 Y0.8988
N9615 X0.7669 Y0.867
N9620 X0.803 Y0.8337
N9625 X0.8377 Y0.7989
N9630 X0.8708 Y0.7626
N9635 X0.9024 Y0.7249
N9640 X0.9323 Y0.6859
N9645 X0.9606 Y0.6458
N9650 X0.9871 Y0.6044
N9655 X1.0119 Y0.562
N9660 X1.0348 Y0.5185
N9665 X1.0559 Y0.4741
N9670 X1.0751 Y0.4289
N9675 X1.0924 Y0.3829
N9680 X1.1077 Y0.3362
N9685 X1.1209 Y0.2889
N9690 X1.1322 Y0.2411
N9695 X1.1413 Y0.1928
N9700 X1.1485 Y0.1442
N9705 X1.1535 Y0.0953
N9710 X1.1565 Y0.0463
N9715 X1.1574 Y-0.0029
N9720 X1.1563 Y-0.052
N9725 X1.153 Y-0.101
N9730 X1.1477 Y-0.1499
N9735 X1.1404 Y-0.1985
N9740 X1.1309 Y-0.2467
N9745 X1.1195 Y-0.2945
N9750 X1.106 Y-0.3417
N9755 X1.0905 Y-0.3883
N9760 X1.073 Y-0.4343
N9765 X1.0536 Y-0.4794
N9770 X1.0322 Y-0.5237
N9775 X1.0091 Y-0.567
N9780 X0.9841 Y-0.6093
N9785 X0.9573 Y-0.6505
N9790 X0.9289 Y-0.6906
N9795 X0.8987 Y-0.7294
N9800 X0.867 Y-0.7669
N9805 X0.8337 Y-0.803
N9810 X0.7989 Y-0.8377
N9815 X0.7626 Y-0.8709
N9820 X0.725 Y-0.9024
N9825 X0.686 Y-0.9324
N9830 X0.6458 Y-0.9606
N9835 X0.6044 Y-0.9871
N9840 X0.562 Y-1.0119
N9845 X0.5185 Y-1.0348
N9850 X0.4741 Y-1.0559
N9855 X0.4289 Y-1.075
N9860 X0.3829 Y-1.0923
N9865 X0.3362 Y-1.1076
N9870 X0.2889 Y-1.1209
N9875 X0.241 Y-1.1322
N9880 X0.1928 Y-1.1414
N9885 X0.1442 Y-1.1485
N9890 X0.0953 Y-1.1536
N9895 X0.0463 Y-1.1566
N9900 X-0.0029 Y-1.1575
N9905 X-0.052 Y-1.1563
N9910 X-0.101 Y-1.153
N9915 X-0.1499 Y-1.1477
N9920 X-0.1984 Y-1.1403
N9925 X-0.2467 Y-1.1308
N9930 X-0.2944 Y-1.1193
N9935 X-0.3417 Y-1.1057
N9940 X-0.3882 Y-1.09
N9945 X-0.434 Y-1.0722
N9950 X-0.4789 Y-1.0523
N9955 X-0.5229 Y-1.0303
N9960 X-0.5657 Y-1.0061
N9965 X-0.6072 Y-0.9799
N9970 X-0.6474 Y-0.9517
N9975 X-0.6862 Y-0.9215
N9980 X-0.7234 Y-0.8894
N9985 X-0.7589 Y-0.8554
N9990 X-0.7928 Y-0.8198
N9995 X-0.8248 Y-0.7826
N10000 X-0.855 Y-0.7438
N10005 X-0.8834 Y-0.7037
N10010 X-0.9099 Y-0.6623
N10015 X-0.9345 Y-0.6198
N10020 X-0.9573 Y-0.5762
N10025 X-0.9781 Y-0.5317
N10030 X-0.9971 Y-0.4864
N10035 X-1.0141 Y-0.4403
N10040 X-1.0293 Y-0.3936
N10045 X-1.0426 Y-0.3463
N10050 X-1.054 Y-0.2985
N10055 X-1.0635 Y-0.2503
N10060 X-1.071 Y-0.2017
N10065 X-1.0766 Y-0.1529
N10070 X-1.0802 Y-0.1039
N10075 X-1.0818 Y-0.0548
N10080 X-1.0813 Y-0.0057
N10085 X-1.0788 Y0.0434
N10090 X-1.0742 Y0.0923
N10095 X-1.0676 Y0.141
N10100 X-1.059 Y0.1894
N10105 X-1.0483 Y0.2373
N10110 X-1.0355 Y0.2848
N10115 X-1.0207 Y0.3317
N10120 X-1.0039 Y0.3778
N10125 X-0.9851 Y0.4232
N10130 X-0.9643 Y0.4677
N10135 X-0.9416 Y0.5113
N10140 X-0.9168 Y0.5537
N10145 X-0.8902 Y0.5951
N10150 X-0.8618 Y0.6351
N10155 X-0.8316 Y0.6739
N10160 X-0.7996 Y0.7112
N10165 X-0.766 Y0.747
N10170 X-0.7308 Y0.7813
N10175 X-0.6941 Y0.814
N10180 X-0.656 Y0.845
N10185 X-0.6165 Y0.8742
N10190 X-0.5757 Y0.9016
N10195 X-0.5336 Y0.927
N10200 X-0.4905 Y0.9505
N10205 X-0.4463 Y0.972
N10210 X-0.4012 Y0.9914
N10215 X-0.3552 Y1.0088
N10220 X-0.3085 Y1.024
N10225 X-0.2611 Y1.037
N10230 X-0.2132 Y1.0479
N10235 X-0.1648 Y1.0566
N10240 X-0.1161 Y1.0631
N10245 X-0.0672 Y1.0673
N10250 X-0.0181 Y1.0693
N10255 X0.0311 Y1.069
N10260 X0.0802 Y1.0665
N10265 X0.129 Y1.0617
N10270 X0.1777 Y1.0546
N10275 X0.2259 Y1.0453
N10280 X0.2737 Y1.0338
N10285 X0.3209 Y1.0201
N10290 X0.3674 Y1.0043
N10295 X0.4131 Y0.9863
N10300 X0.458 Y0.9663
N10305 X0.502 Y0.9443
N10310 X0.5448 Y0.9203
N10315 X0.5865 Y0.8943
N10320 X0.627 Y0.8664
N10325 X0.6661 Y0.8367
N10330 X0.7038 Y0.8052
N10335 X0.7401 Y0.772
N10340 X0.7747 Y0.7372
N10345 X0.8077 Y0.7008
N10350 X0.8391 Y0.6629
N10355 X0.8686 Y0.6237
N10360 X0.8964 Y0.5831
N10365 X0.9223 Y0.5414
N10370 X0.9462 Y0.4985
N10375 X0.9681 Y0.4545
N10380 X0.988 Y0.4095
N10385 X1.0057 Y0.3637
N10390 X1.0214 Y0.3171
N10395 X1.0348 Y0.2699
N10400 X1.0461 Y0.2221
N10405 X1.0552 Y0.1738
N10410 X1.062 Y0.1251
N10415 X1.0666 Y0.0762
N10420 X1.069 Y0.0271
N10425 X1.0692 Y-0.022
N10430 X1.0671 Y-0.0711
N10435 X1.0627 Y-0.1201
N10440 X1.0561 Y-0.1688
N10445 X1.0472 Y-0.2171
N10450 X1.0361 Y-0.2649
N10455 X1.0228 Y-0.3123
N10460 X1.0074 Y-0.3589
N10465 X0.9898 Y-0.4048
N10470 X0.9702 Y-0.4498
N10475 X0.9485 Y-0.4939
N10480 X0.9248 Y-0.537
N10485 X0.8992 Y-0.5789
N10490 X0.8717 Y-0.6196
N10495 X0.8423 Y-0.659
N10500 X0.8112 Y-0.697
N10505 X0.7783 Y-0.7335
N10510 X0.7438 Y-0.7685
N10515 X0.7077 Y-0.8018
N10520 X0.6701 Y-0.8335
N10525 X0.631 Y-0.8633
N10530 X0.5907 Y-0.8914
N10535 X0.5491 Y-0.9176
N10540 X0.5064 Y-0.9419
N10545 X0.4626 Y-0.9641
N10550 X0.4179 Y-0.9844
N10555 X0.3722 Y-1.0026
N10560 X0.3258 Y-1.0187
N10565 X0.2786 Y-1.0325
N10570 X0.2309 Y-1.0442
N10575 X0.1827 Y-1.0537
N10580 X0.1341 Y-1.061
N10585 X0.0852 Y-1.066
N10590 X0.0362 Y-1.0688
N10595 X-0.013 Y-1.0693
N10600 X-0.0621 Y-1.0675
N10605 X-0.1111 Y-1.0636
N10610 X-0.1598 Y-1.0573
N10615 X-0.2082 Y-1.0488
N10620 X-0.2561 Y-1.038
N10625 X-0.3035 Y-1.0248
N10630 X-0.3501 Y-1.0094
N10635 X-0.3959 Y-0.9916
N10640 X-0.4407 Y-0.9714
N10645 X-0.4844 Y-0.949
N10650 X-0.5269 Y-0.9243
N10655 X-0.568 Y-0.8974
N10660 X-0.6077 Y-0.8684
N10665 X-0.6456 Y-0.8372
N10670 X-0.6819 Y-0.804
N10675 X-0.7164 Y-0.769
N10680 X-0.749 Y-0.7322
N10685 X-0.7796 Y-0.6938
N10690 X-0.8083 Y-0.654
N10695 X-0.835 Y-0.6127
N10700 X-0.8597 Y-0.5702
N10705 X-0.8824 Y-0.5266
N10710 X-0.903 Y-0.482
N10715 X-0.9216 Y-0.4365
N10720 X-0.9381 Y-0.3903
N10725 X-0.9525 Y-0.3433
N10730 X-0.9648 Y-0.2957
N10735 X-0.975 Y-0.2476
N10740 X-0.9831 Y-0.1992
N10745 X-0.989 Y-0.1504
N10750 X-0.9927 Y-0.1014
N10755 X-0.9942 Y-0.0523
N10760 X-0.9935 Y-0.0032
N10765 X-0.9906 Y0.0459
N10770 X-0.9855 Y0.0948
N10775 X-0.9782 Y0.1434
N10780 X-0.9687 Y0.1916
N10785 X-0.9569 Y0.2393
N10790 X-0.9429 Y0.2864
N10795 X-0.9267 Y0.3327
N10800 X-0.9082 Y0.3783
N10805 X-0.8876 Y0.4229
N10810 X-0.8649 Y0.4665
N10815 X-0.8401 Y0.5089
N10820 X-0.8133 Y0.55
N10825 X-0.7845 Y0.5898
N10830 X-0.7537 Y0.6282
N10835 X-0.7212 Y0.665
N10840 X-0.6869 Y0.7002
N10845 X-0.6509 Y0.7336
N10850 X-0.6132 Y0.7652
N10855 X-0.574 Y0.7948
N10860 X-0.5334 Y0.8225
N10865 X-0.4915 Y0.8481
N10870 X-0.4483 Y0.8716
N10875 X-0.4041 Y0.8929
N10880 X-0.3588 Y0.912
N10885 X-0.3126 Y0.9288
N10890 X-0.2657 Y0.9433
N10895 X-0.2181 Y0.9555
N10900 X-0.1699 Y0.9652
N10905 X-0.1213 Y0.9725
N10910 X-0.0724 Y0.9773
N10915 X-0.0233 Y0.9797
N10920 X0.0258 Y0.9796
N10925 X0.0749 Y0.9771
N10930 X0.1238 Y0.9721
N10935 X0.1723 Y0.9646
N10940 X0.2205 Y0.9548
N10945 X0.2681 Y0.9425
N10950 X0.315 Y0.9279
N10955 X0.3611 Y0.911
N10960 X0.4063 Y0.8918
N10965 X0.4505 Y0.8703
N10970 X0.4935 Y0.8466
N10975 X0.5354 Y0.8208
N10980 X0.5758 Y0.7929
N10985 X0.6148 Y0.763
N10990 X0.6523 Y0.7312
N10995 X0.6881 Y0.6976
N11000 X0.7223 Y0.6622
N11005 X0.7546 Y0.6252
N11010 X0.785 Y0.5866
N11015 X0.8134 Y0.5465
N11020 X0.8398 Y0.5051
N11025 X0.864 Y0.4623
N11030 X0.8861 Y0.4184
N11035 X0.9059 Y0.3735
N11040 X0.9235 Y0.3276
N11045 X0.9388 Y0.2809
N11050 X0.9517 Y0.2335
N11055 X0.9622 Y0.1855
N11060 X0.9703 Y0.137
N11065 X0.976 Y0.0882
N11070 X0.9792 Y0.0392
N11075 X0.9799 Y-0.0099
N11080 X0.9782 Y-0.059
N11085 X0.974 Y-0.108
N11090 X0.9673 Y-0.1567
N11095 X0.9582 Y-0.205
N11100 X0.9467 Y-0.2528
N11105 X0.9329 Y-0.2999
N11110 X0.9167 Y-0.3463
N11115 X0.8982 Y-0.3918
N11120 X0.8774 Y-0.4363
N11125 X0.8545 Y-0.4798
N11130 X0.8293 Y-0.522
N11135 X0.8021 Y-0.5629
N11140 X0.7729 Y-0.6024
N11145 X0.7417 Y-0.6404
N11150 X0.7087 Y-0.6768
N11155 X0.6738 Y-0.7114
N11160 X0.6373 Y-0.7443
N11165 X0.5992 Y-0.7753
N11170 X0.5596 Y-0.8044
N11175 X0.5186 Y-0.8315
N11180 X0.4763 Y-0.8564
N11185 X0.4327 Y-0.8792
N11190 X0.3881 Y-0.8998
N11195 X0.3425 Y-0.9181
N11200 X0.2961 Y-0.9341
N11205 X0.2489 Y-0.9478
N11210 X0.201 Y-0.9591
N11215 X0.1527 Y-0.9679
N11220 X0.104 Y-0.9744
N11225 X0.055 Y-0.9784
N11230 X0.0059 Y-0.9799
N11235 X-0.0432 Y-0.9789
N11240 X-0.0922 Y-0.9754
N11245 X-0.141 Y-0.9694
N11250 X-0.1894 Y-0.9608
N11255 X-0.2372 Y-0.9497
N11260 X-0.2844 Y-0.936
N11265 X-0.3308 Y-0.9198
N11270 X-0.3762 Y-0.9009
N11275 X-0.4204 Y-0.8795
N11280 X-0.4633 Y-0.8556
N11285 X-0.5048 Y-0.8292
N11290 X-0.5446 Y-0.8005
N11295 X-0.5828 Y-0.7695
N11300 X-0.6191 Y-0.7364
N11305 X-0.6535 Y-0.7013
N11310 X-0.6859 Y-0.6643
N11315 X-0.7161 Y-0.6256
N11320 X-0.7443 Y-0.5854
N11325 X-0.7703 Y-0.5437
N11330 X-0.794 Y-0.5006
N11335 X-0.8155 Y-0.4565
N11340 X-0.8348 Y-0.4113
N11345 X-0.8518 Y-0.3652
N11350 X-0.8665 Y-0.3183
N11355 X-0.8788 Y-0.2707
N11360 X-0.8888 Y-0.2226
N11365 X-0.8965 Y-0.1741
N11370 X-0.9017 Y-0.1252
N11375 X-0.9046 Y-0.0762
N11380 X-0.905 Y-0.027
N11385 X-0.903 Y0.0221
N11390 X-0.8985 Y0.071
N11395 X-0.8916 Y0.1197
N11400 X-0.8823 Y0.1679
N11405 X-0.8704 Y0.2156
N11410 X-0.8562 Y0.2626
N11415 X-0.8395 Y0.3088
N11420 X-0.8205 Y0.3541
N11425 X-0.7991 Y0.3984
N11430 X-0.7754 Y0.4414
N11435 X-0.7494 Y0.4831
N11440 X-0.7212 Y0.5234
N11445 X-0.691 Y0.5621
N11450 X-0.6587 Y0.5991
N11455 X-0.6244 Y0.6343
N11460 X-0.5883 Y0.6676
N11465 X-0.5504 Y0.6989
N11470 X-0.5109 Y0.7281
N11475 X-0.4698 Y0.7551
N11480 X-0.4273 Y0.7798
N11485 X-0.3835 Y0.8021
N11490 X-0.3386 Y0.822
N11495 X-0.2926 Y0.8393
N11500 X-0.2458 Y0.8542
N11505 X-0.1982 Y0.8664
N11510 X-0.15 Y0.876
N11515 X-0.1014 Y0.8829
N11520 X-0.0524 Y0.8872
N11525 X-0.0033 Y0.8887
N11530 X0.0458 Y0.8875
N11535 X0.0948 Y0.8836
N11540 X0.1435 Y0.877
N11545 X0.1917 Y0.8677
N11550 X0.2394 Y0.8557
N11555 X0.2863 Y0.8412
N11560 X0.3324 Y0.8241
N11565 X0.3775 Y0.8045
N11570 X0.4214 Y0.7824
N11575 X0.464 Y0.7579
N11580 X0.5051 Y0.7311
N11585 X0.5448 Y0.702
N11590 X0.5827 Y0.6708
N11595 X0.6189 Y0.6376
N11600 X0.6532 Y0.6024
N11605 X0.6855 Y0.5654
N11610 X0.7157 Y0.5266
N11615 X0.7438 Y0.4863
N11620 X0.7695 Y0.4444
N11625 X0.7929 Y0.4012
N11630 X0.8138 Y0.3568
N11635 X0.8323 Y0.3112
N11640 X0.8482 Y0.2648
N11645 X0.8616 Y0.2175
N11650 X0.8723 Y0.1695
N11655 X0.8803 Y0.121
N11660 X0.8857 Y0.0722
N11665 X0.8883 Y0.0231
N11670 Y-0.026
N11675 X0.8854 Y-0.0751
N11680 X0.8799 Y-0.1239
N11685 X0.8717 Y-0.1723
N11690 X0.8608 Y-0.2203
N11695 X0.8473 Y-0.2675
N11700 X0.8313 Y-0.3139
N11705 X0.8127 Y-0.3594
N11710 X0.7916 Y-0.4038
N11715 X0.7681 Y-0.4469
N11720 X0.7422 Y-0.4887
N11725 X0.714 Y-0.529
N11730 X0.6837 Y-0.5676
N11735 X0.6512 Y-0.6045
N11740 X0.6168 Y-0.6396
N11745 X0.5805 Y-0.6727
N11750 X0.5425 Y-0.7038
N11755 X0.5027 Y-0.7327
N11760 X0.4615 Y-0.7594
N11765 X0.4188 Y-0.7838
N11770 X0.3748 Y-0.8057
N11775 X0.3297 Y-0.8252
N11780 X0.2836 Y-0.8421
N11785 X0.2366 Y-0.8565
N11790 X0.1889 Y-0.8683
N11795 X0.1406 Y-0.8774
N11800 X0.0919 Y-0.8838
N11805 X0.0429 Y-0.8874
N11810 X-0.0062 Y-0.8884
N11815 X-0.0553 Y-0.8865
N11820 X-0.1042 Y-0.8817
N11825 X-0.1528 Y-0.8741
N11830 X-0.2008 Y-0.8636
N11835 X-0.248 Y-0.8502
N11840 X-0.2944 Y-0.8339
N11845 X-0.3397 Y-0.8148
N11850 X-0.3836 Y-0.7929
N11855 X-0.4261 Y-0.7682
N11860 X-0.4669 Y-0.7408
N11865 X-0.5059 Y-0.7109
N11870 X-0.543 Y-0.6787
N11875 X-0.578 Y-0.6442
N11880 X-0.6108 Y-0.6076
N11885 X-0.6414 Y-0.5692
N11890 X-0.6697 Y-0.529
N11895 X-0.6955 Y-0.4872
N11900 X-0.7189 Y-0.444
N11905 X-0.7398 Y-0.3995
N11910 X-0.7582 Y-0.3539
N11915 X-0.774 Y-0.3074
N11920 X-0.7872 Y-0.2601
N11925 X-0.7978 Y-0.2121
N11930 X-0.8058 Y-0.1636
N11935 X-0.8111 Y-0.1148
N11940 X-0.8137 Y-0.0657
N11945 X-0.8136 Y-0.0166
N11950 X-0.8107 Y0.0325
N11955 X-0.8052 Y0.0813
N11960 X-0.7968 Y0.1297
N11965 X-0.7858 Y0.1776
N11970 X-0.772 Y0.2248
N11975 X-0.7556 Y0.2711
N11980 X-0.7365 Y0.3164
N11985 X-0.7149 Y0.3605
N11990 X-0.6907 Y0.4033
N11995 X-0.664 Y0.4445
N12000 X-0.6349 Y0.4841
N12005 X-0.6034 Y0.5219
N12010 X-0.5698 Y0.5577
N12015 X-0.5341 Y0.5914
N12020 X-0.4964 Y0.623
N12025 X-0.4569 Y0.6522
N12030 X-0.4157 Y0.6789
N12035 X-0.3729 Y0.7031
N12040 X-0.3287 Y0.7246
N12045 X-0.2833 Y0.7434
N12050 X-0.2368 Y0.7593
N12055 X-0.1895 Y0.7724
N12060 X-0.1414 Y0.7825
N12065 X-0.0928 Y0.7897
N12070 X-0.0438 Y0.7939
N12075 X0.0053 Y0.7951
N12080 X0.0544 Y0.7932
N12085 X0.1033 Y0.7883
N12090 X0.1518 Y0.7803
N12095 X0.1997 Y0.7694
N12100 X0.2468 Y0.7556
N12105 X0.2931 Y0.7389
N12110 X0.3381 Y0.7194
N12115 X0.382 Y0.6972
N12120 X0.4243 Y0.6722
N12125 X0.465 Y0.6447
N12130 X0.5039 Y0.6147
N12135 X0.541 Y0.5824
N12140 X0.5759 Y0.5479
N12145 X0.6086 Y0.5112
N12150 X0.6391 Y0.4727
N12155 X0.6671 Y0.4323
N12160 X0.6925 Y0.3902
N12165 X0.7153 Y0.3467
N12170 X0.7353 Y0.3018
N12175 X0.7526 Y0.2558
N12180 X0.7669 Y0.2088
N12185 X0.7784 Y0.161
N12190 X0.7868 Y0.1126
N12195 X0.7923 Y0.0638
N12200 X0.7948 Y0.0147
N12205 X0.7942 Y-0.0344
N12210 X0.7905 Y-0.0834
N12215 X0.7838 Y-0.1321
N12220 X0.7741 Y-0.1802
N12225 X0.7615 Y-0.2277
N12230 X0.746 Y-0.2744
N12235 X0.7276 Y-0.3199
N12240 X0.7065 Y-0.3643
N12245 X0.6827 Y-0.4073
N12250 X0.6562 Y-0.4487
N12255 X0.6272 Y-0.4883
N12260 X0.5958 Y-0.5261
N12265 X0.5622 Y-0.5619
N12270 X0.5264 Y-0.5956
N12275 X0.4886 Y-0.627
N12280 X0.4489 Y-0.656
N12285 X0.4075 Y-0.6825
N12290 X0.3646 Y-0.7064
N12295 X0.3202 Y-0.7275
N12300 X0.2747 Y-0.7459
N12305 X0.228 Y-0.7614
N12310 X0.1805 Y-0.774
N12315 X0.1323 Y-0.7836
N12320 X0.0837 Y-0.7902
N12325 X0.0346 Y-0.7937
N12330 X-0.0145 Y-0.7939
N12335 X-0.0635 Y-0.7909
N12340 X-0.1123 Y-0.7847
N12345 X-0.1605 Y-0.7752
N12350 X-0.2079 Y-0.7624
N12355 X-0.2544 Y-0.7463
N12360 X-0.2996 Y-0.727
N12365 X-0.3433 Y-0.7046
N12370 X-0.3853 Y-0.6791
N12375 X-0.4254 Y-0.6508
N12380 X-0.4635 Y-0.6197
N12385 X-0.4993 Y-0.5861
N12390 X-0.5328 Y-0.5502
N12395 X-0.5639 Y-0.512
N12400 X-0.5923 Y-0.472
N12405 X-0.618 Y-0.4301
N12410 X-0.6409 Y-0.3866
N12415 X-0.661 Y-0.3418
N12420 X-0.6783 Y-0.2958
N12425 X-0.6926 Y-0.2488
N12430 X-0.7039 Y-0.201
N12435 X-0.7123 Y-0.1526
N12440 X-0.7177 Y-0.1037
N12445 X-0.7199 Y-0.0546
N12450 X-0.7191 Y-0.0055
N12455 X-0.7152 Y0.0435
N12460 X-0.7081 Y0.0921
N12465 X-0.698 Y0.1402
N12470 X-0.6848 Y0.1875
N12475 X-0.6686 Y0.2339
N12480 X-0.6494 Y0.2792
N12485 X-0.6273 Y0.323
N12490 X-0.6023 Y0.3653
N12495 X-0.5745 Y0.4059
N12500 X-0.5441 Y0.4444
N12505 X-0.5111 Y0.4809
N12510 X-0.4758 Y0.515
N12515 X-0.4382 Y0.5467
N12520 X-0.3986 Y0.5757
N12525 X-0.357 Y0.6019
N12530 X-0.3137 Y0.6251
N12535 X-0.2689 Y0.6453
N12540 X-0.2228 Y0.6624
N12545 X-0.1757 Y0.6763
N12550 X-0.1277 Y0.6868
N12555 X-0.0791 Y0.694
N12560 X-0.0301 Y0.6977
N12565 X0.019 Y0.698
N12570 X0.0681 Y0.6948
N12575 X0.1168 Y0.6882
N12580 X0.1649 Y0.6782
N12585 X0.2122 Y0.665
N12590 X0.2584 Y0.6484
N12595 X0.3034 Y0.6285
N12600 X0.3469 Y0.6056
N12605 X0.3886 Y0.5797
N12610 X0.4284 Y0.5509
N12615 X0.4661 Y0.5193
N12620 X0.5015 Y0.4853
N12625 X0.5344 Y0.4488
N12630 X0.5647 Y0.4101
N12635 X0.5921 Y0.3693
N12640 X0.6166 Y0.3267
N12645 X0.638 Y0.2825
N12650 X0.6563 Y0.2369
N12655 X0.6714 Y0.1901
N12660 X0.6832 Y0.1424
N12665 X0.6915 Y0.094
N12670 X0.6964 Y0.0451
N12675 X0.6978 Y-0.004
N12680 X0.6957 Y-0.0531
N12685 X0.6903 Y-0.102
N12690 X0.6814 Y-0.1503
N12695 X0.6692 Y-0.1979
N12700 X0.6536 Y-0.2445
N12705 X0.6348 Y-0.2899
N12710 X0.6128 Y-0.3338
N12715 X0.5877 Y-0.3761
N12720 X0.5598 Y-0.4165
N12725 X0.5291 Y-0.4549
N12730 X0.4958 Y-0.491
N12735 X0.4601 Y-0.5247
N12740 X0.422 Y-0.5558
N12745 X0.3818 Y-0.5841
N12750 X0.3398 Y-0.6095
N12755 X0.296 Y-0.6318
N12760 X0.2508 Y-0.6511
N12765 X0.2043 Y-0.6671
N12770 X0.1568 Y-0.6796
N12775 X0.1085 Y-0.6887
N12780 X0.0597 Y-0.6941
N12785 X0.0106 Y-0.6959
N12790 X-0.0385 Y-0.694
N12795 X-0.0873 Y-0.6883
N12800 X-0.1355 Y-0.6787
N12805 X-0.1828 Y-0.6654
N12810 X-0.2289 Y-0.6483
N12815 X-0.2734 Y-0.6276
N12820 X-0.3162 Y-0.6034
N12825 X-0.3569 Y-0.5759
N12830 X-0.3953 Y-0.5453
N12835 X-0.4312 Y-0.5117
N12840 X-0.4644 Y-0.4755
N12845 X-0.4948 Y-0.4369
N12850 X-0.5221 Y-0.396
N12855 X-0.5464 Y-0.3533
N12860 X-0.5674 Y-0.3089
N12865 X-0.5851 Y-0.2631
N12870 X-0.5994 Y-0.2161
N12875 X-0.6103 Y-0.1681
N12880 X-0.6173 Y-0.1225
N12885 X-0.618 Y-0.1198
N12890 X-0.6212 Y-0.1049
N12895 X-0.6244 Y-0.0749
N12900 X-0.6292 Y0.
N12905 X-0.629 Y0.03
N12910 X-0.6276 Y0.045
N12915 X-0.6215 Y0.0899
N12920 X-0.6146 Y0.1357
N12925 X-0.6075 Y0.1648
N12930 X-0.6028 Y0.1798
N12935 X-0.581 Y0.2397
N12940 X-0.5688 Y0.2697
N12945 X-0.5613 Y0.2847
N12950 X-0.553 Y0.2997
N12955 X-0.5158 Y0.3596
N12960 X-0.506 Y0.3746
N12965 X-0.4944 Y0.3896
N12970 X-0.4821 Y0.4046
N12975 X-0.4347 Y0.4537
N12980 X-0.4086 Y0.4795
N12985 X-0.3748 Y0.5045
N12990 X-0.3231 Y0.5394
N12995 X-0.3148 Y0.5449
N13000 X-0.2982 Y0.5544
N13005 X-0.2848 Y0.5611
N13010 X-0.2665 Y0.5694
N13015 X-0.2099 Y0.5928
N13020 X-0.1799 Y0.6033
N13025 X-0.1649 Y0.6074
N13030 X-0.1314 Y0.6143
N13035 X-0.0749 Y0.6247
N13040 X-0.0599 Y0.6266
N13045 X-0.045 Y0.6279
N13050 X-0.03 Y0.6286
N13055 X0.045 Y0.627
N13060 X0.06 Y0.6264
N13065 X0.075 Y0.6251
N13070 X0.105 Y0.6203
N13075 X0.1649 Y0.6064
N13080 X0.1916 Y0.5993
N13085 X0.2099 Y0.5937
N13090 X0.2327 Y0.5843
N13095 X0.2999 Y0.553
N13100 X0.3148 Y0.5451
N13105 X0.3448 Y0.5262
N13110 X0.4075 Y0.4795
N13115 X0.4245 Y0.4645
N13120 X0.4404 Y0.4495
N13125 X0.4541 Y0.4345
N13130 X0.4947 Y0.3882
N13135 X0.5062 Y0.3746
N13140 X0.5171 Y0.3596
N13145 X0.5265 Y0.3446
N13150 X0.5605 Y0.2847
N13155 X0.5697 Y0.2672
N13160 X0.5823 Y0.2397
N13165 X0.6018 Y0.1798
N13170 X0.6152 Y0.1349
N13175 X0.6182 Y0.1199
N13180 X0.6205 Y0.1049
N13185 X0.6281 Y0.03
N13190 X0.6299 Y0.
N13195 X0.6289 Y-0.0299
N13200 X0.6267 Y-0.0599
N13205 X0.6247 Y-0.0749
N13210 X0.6136 Y-0.1348
N13215 X0.6074 Y-0.1648
N13220 X0.6033 Y-0.1798
N13225 X0.5929 Y-0.2097
N13230 X0.568 Y-0.2697
N13235 X0.5611 Y-0.2846
N13240 X0.5537 Y-0.2996
N13245 X0.5451 Y-0.3146
N13250 X0.5149 Y-0.3596
N13255 X0.5047 Y-0.3745
N13260 X0.4798 Y-0.4083
N13265 X0.4498 Y-0.4387
N13270 X0.4048 Y-0.4818
N13275 X0.3895 Y-0.4944
N13280 X0.3748 Y-0.5058
N13285 X0.3598 Y-0.5157
N13290 X0.2999 Y-0.5529
N13295 X0.2849 Y-0.5612
N13300 X0.2686 Y-0.5693
N13305 X0.2399 Y-0.5809
N13310 X0.1799 Y-0.6027
N13315 X0.1649 Y-0.6075
N13320 X0.1383 Y-0.6143
N13325 X0.075 Y-0.6237
N13330 X0.045 Y-0.6276
N13335 X0.03 Y-0.629
N13340 X0. Y-0.6292
N13345 X-0.0749 Y-0.6243
N13350 X-0.1049 Y-0.6212
N13355 X-0.1199 Y-0.618
N13360 X-0.1499 Y-0.6101
N13365 X-0.2099 Y-0.5933
N13370 X-0.2354 Y-0.5843
N13375 X-0.2698 Y-0.5674
N13380 X-0.3148 Y-0.5441
N13385 X-0.3448 Y-0.5272
N13390 X-0.3598 Y-0.5167
N13395 X-0.4058 Y-0.4794
N13400 X-0.4409 Y-0.4495
N13405 X-0.4497 Y-0.4407
N13410 X-0.4797 Y-0.4055
N13415 X-0.5168 Y-0.3596
N13420 X-0.5273 Y-0.3446
N13425 X-0.5442 Y-0.3146
N13430 X-0.5697 Y-0.2652
N13435 X-0.5824 Y-0.2397
N13440 X-0.5846 Y-0.2345
N13445 X-0.5934 Y-0.2097
N13450 X-0.6146 Y-0.1331
N13455 X-0.618 Y-0.1198
N13460 G3 X-0.6269 Y-0.1025 I-0.0481 J-0.0138 F92.
N13465 G1 X-0.6304 Y-0.0981 Z-0.0622
N13470 X-0.6338 Y-0.0938 Z-0.0612
N13475 X-0.6372 Y-0.0896 Z-0.0597
N13480 X-0.6404 Y-0.0855 Z-0.0575
N13485 X-0.6435 Y-0.0817 Z-0.0548
N13490 X-0.6463 Y-0.0781 Z-0.0516
N13495 X-0.6489 Y-0.0748 Z-0.0479
N13500 X-0.6512 Y-0.0719 Z-0.0437
N13505 X-0.6533 Y-0.0694 Z-0.0391
N13510 X-0.655 Y-0.0673 Z-0.0342
N13515 X-0.6563 Y-0.0656 Z-0.029
N13520 X-0.6573 Y-0.0644 Z-0.0236
N13525 X-0.6578 Y-0.0636 Z-0.0181
N13530 X-0.658 Y-0.0634 Z-0.0125
N13535 G0 Z0.6

(Adaptive1)
N13545 G0 Z0.65
N13550 X1.0545 Y0.0608
N13555 Z0.25
N13560 Z0.0875
N13565 G1 Z0.0375 F92.
N13570 G3 X1.0651 Y0.0581 Z0.0105 I-0.026 J-0.1223
N13575 X1.0753 Y0.0544 Z-0.0166 I-0.0365 J-0.1195
N13580 X1.0853 Y0.0499 Z-0.0436 I-0.0468 J-0.1159
N13585 X1.0947 Y0.0446 Z-0.0707 I-0.0567 J-0.1114
N13590 X1.1037 Y0.0384 Z-0.0977 I-0.0662 J-0.106
N13595 X1.1122 Y0.0314 Z-0.1248 I-0.0752 J-0.0998
N13600 X1.1199 Y0.0238 Z-0.1518 I-0.0836 J-0.0929
N13605 X1.127 Y0.0155 Z-0.1789 I-0.0914 J-0.0853
N13610 X1.1334 Y0.0066 Z-0.2059 I-0.0985 J-0.077
N13615 X1.1389 Y-0.0028 Z-0.233 I-0.1048 J-0.0681
N13620 X1.1436 Y-0.0126 Z-0.26 I-0.1104 J-0.0587
N13625 X1.1474 Y-0.0228 Z-0.287 I-0.1151 J-0.0489
N13630 X1.1503 Y-0.0333 Z-0.3141 I-0.1189 J-0.0387
N13635 X1.1523 Y-0.044 Z-0.3411 I-0.1218 J-0.0282
N13640 X1.1535 Y-0.0615 Z-0.368 I-0.1238 J-0.0174
N13645 X0.9035 I-0.125 J0.
N13650 X1.1535 I0.125 J0.
N13655 G1 X1.1543 Y-0.0093 F100.
N13660 X1.1528 Y0.0013
N13665 X1.1499 Y0.0118
N13670 X1.1459 Y0.0218
N13675 X1.1408 Y0.0313
N13680 X1.1347 Y0.0402
N13685 X1.1279 Y0.0486
N13690 X1.1203 Y0.0563
N13695 X1.1122 Y0.0633
N13700 X1.1034 Y0.0697
N13705 X1.094 Y0.0754
N13710 X1.0839 Y0.0804
N13715 X1.0733 Y0.0847
N13720 X1.0622 Y0.0881
N13725 X1.0507 Y0.0907
N13730 X1.0389 Y0.0923
N13735 X1.0269 Y0.093
N13740 X1.0148 Y0.0926
N13745 X1.0027 Y0.0913
N13750 X0.9907 Y0.089
N13755 X0.9788 Y0.0857
N13760 X0.9672 Y0.0814
N13765 X0.9559 Y0.0762
N13770 X0.945 Y0.07
N13775 X0.9346 Y0.0629
N13780 X0.9249 Y0.055
N13785 X0.9158 Y0.0463
N13790 X0.9074 Y0.0369
N13795 X0.8998 Y0.0268
N13800 X0.893 Y0.0161
N13805 X0.8871 Y0.0049
N13810 X0.8821 Y-0.0068
N13815 X0.8782 Y-0.0188
N13820 X0.8752 Y-0.0312
N13825 X0.8732 Y-0.0437
N13830 X0.8722 Y-0.0564
N13835 X0.8723 Y-0.0692
N13840 X0.8735 Y-0.0818
N13845 X0.8756 Y-0.0944
N13850 X0.8788 Y-0.1068
N13855 X0.883 Y-0.1188
N13860 X0.8881 Y-0.1305
N13865 X0.8942 Y-0.1417
N13870 X0.9012 Y-0.1524
N13875 X0.909 Y-0.1625
N13880 X0.9176 Y-0.1719
N13885 X0.927 Y-0.1805
N13890 X0.937 Y-0.1884
N13895 X0.9477 Y-0.1955
N13900 X0.9589 Y-0.2016
N13905 X0.9705 Y-0.2068
N13910 X0.9826 Y-0.2111
N13915 X0.9949 Y-0.2143
N13920 X1.0075 Y-0.2166
N13925 X1.0202 Y-0.2178
N13930 X1.033 Y-0.2179
N13935 X1.0457 Y-0.217
N13940 X1.0584 Y-0.2151
N13945 X1.0708 Y-0.2122
N13950 X1.083 Y-0.2082
N13955 X1.0947 Y-0.2033
N13960 X1.1061 Y-0.1974
N13965 X1.1169 Y-0.1906
N13970 X1.1272 Y-0.183
N13975 X1.1367 Y-0.1746
N13980 X1.1456 Y-0.1654
N13985 X1.1537 Y-0.1555
N13990 X1.1609 Y-0.1449
N13995 X1.1677 Y-0.1332
N14000 X1.1758 Y-0.1159
N14005 X1.1796 Y-0.1062
N14010 X1.1854 Y-0.0888
N14015 X1.1893 Y-0.0727
N14020 X1.1916 Y-0.0577
N14025 X1.1926 Y-0.0434
N14030 X1.1925 Y-0.0295
N14035 X1.1913 Y-0.0162
N14040 X1.189 Y-0.0032
N14045 X1.1858 Y0.0094
N14050 X1.1815 Y0.0217
N14055 X1.1762 Y0.0337
N14060 X1.1699 Y0.0452
N14065 X1.1627 Y0.0562
N14070 X1.1545 Y0.0667
N14075 X1.1454 Y0.0766
N14080 X1.1354 Y0.0858
N14085 X1.1246 Y0.0942
N14090 X1.1131 Y0.1018
N14095 X1.1008 Y0.1085
N14100 X1.0879 Y0.1142
N14105 X1.0745 Y0.1189
N14110 X1.0606 Y0.1226
N14115 X1.0464 Y0.1251
N14120 X1.0318 Y0.1264
N14125 X1.0172 Y0.1266
N14130 X1.0024 Y0.1255
N14135 X0.9877 Y0.1233
N14140 X0.9732 Y0.1198
N14145 X0.9589 Y0.1151
N14150 X0.945 Y0.1093
N14155 X0.9315 Y0.1023
N14160 X0.9186 Y0.0942
N14165 X0.9064 Y0.085
N14170 X0.8949 Y0.0749
N14175 X0.8843 Y0.0638
N14180 X0.8786 Y0.0569
N14185 X0.8695 Y0.0438
N14190 X0.8622 Y0.0296
N14195 X0.8566 Y0.0146
N14200 X0.853 Y-0.0009
N14205 X0.8512 Y-0.0168
N14210 X0.848 Y-0.0749
N14215 X0.8479 Y-0.0884
N14220 X0.8489 Y-0.1007
N14225 X0.851 Y-0.1132
N14230 X0.8542 Y-0.1259
N14235 X0.8585 Y-0.1386
N14240 X0.8639 Y-0.1512
N14245 X0.8705 Y-0.1635
N14250 X0.8782 Y-0.1754
N14255 X0.8869 Y-0.1869
N14260 X0.8967 Y-0.1977
N14265 X0.9074 Y-0.2078
N14270 X0.9191 Y-0.2171
N14275 X0.9315 Y-0.2255
N14280 X0.9447 Y-0.2328
N14285 X0.9585 Y-0.2391
N14290 X0.9729 Y-0.2443
N14295 X0.9877 Y-0.2483
N14300 X1.0028 Y-0.2511
N14305 X1.0181 Y-0.2527
N14310 X1.0336 Y-0.253
N14315 X1.0491 Y-0.252
N14320 X1.0644 Y-0.2498
N14325 X1.0796 Y-0.2464
N14330 X1.0944 Y-0.2417
N14335 X1.1088 Y-0.2358
N14340 X1.1227 Y-0.2287
N14345 X1.136 Y-0.2205
N14350 X1.1488 Y-0.2111
N14355 X1.1614 Y-0.2002
N14360 X1.1697 Y-0.1919
N14365 X1.1804 Y-0.1788
N14370 X1.1894 Y-0.1645
N14375 X1.1964 Y-0.1491
N14380 X1.2014 Y-0.1329
N14385 X1.2042 Y-0.1162
N14390 X1.2066 Y-0.0899
N14395 X1.2084 Y-0.0599
N14400 X1.2098 Y-0.015
N14405 Y-0.003
N14410 X1.2089 Y0.0113
N14415 X1.2072 Y0.0224
N14420 X1.2044 Y0.0339
N14425 X1.2006 Y0.0457
N14430 X1.1956 Y0.0575
N14435 X1.1894 Y0.0694
N14440 X1.182 Y0.0811
N14445 X1.1735 Y0.0926
N14450 X1.1637 Y0.1036
N14455 X1.1528 Y0.114
N14460 X1.1409 Y0.1238
N14465 X1.128 Y0.1326
N14470 X1.1141 Y0.1406
N14475 X1.0994 Y0.1475
N14480 X1.084 Y0.1532
N14485 X1.0679 Y0.1578
N14490 X1.0513 Y0.161
N14495 X1.0342 Y0.1629
N14500 X1.0169 Y0.1634
N14505 X0.9995 Y0.1625
N14510 X0.9821 Y0.1602
N14515 X0.9647 Y0.1564
N14520 X0.9477 Y0.1512
N14525 X0.931 Y0.1446
N14530 X0.9153 Y0.1369
N14535 X0.908 Y0.1326
N14540 X0.8931 Y0.1217
N14545 X0.8801 Y0.1086
N14550 X0.8692 Y0.0936
N14555 X0.8607 Y0.0773
N14560 X0.8547 Y0.0598
N14565 X0.8514 Y0.0416
N14570 X0.8509 Y0.0231
N14575 X0.8513 Y0.015
N14580 X0.8512 Y-0.0168
N14585 G3 X0.8548 Y-0.0359 I0.05 J-0.0007 F92.
N14590 X0.9043 Y-0.0673 I0.0464 J0.0185 F100.
N14595 G1 X1.163 Y-0.0512
N14600 G3 X1.2054 Y-0.022 I-0.0031 J0.0499
N14605 X1.2098 Y-0.003 I-0.0455 J0.0207 F92.
N14610 G1 X1.2095 Y0.03 F100.
N14615 X1.2086 Y0.0552
N14620 X1.2074 Y0.0665
N14625 X1.2051 Y0.0771
N14630 X1.2018 Y0.0873
N14635 X1.1975 Y0.0974
N14640 X1.1921 Y0.1077
N14645 X1.1855 Y0.1184
N14650 X1.1774 Y0.1291
N14655 X1.168 Y0.1397
N14660 X1.1573 Y0.1499
N14665 X1.1452 Y0.1598
N14670 X1.1317 Y0.169
N14675 X1.1171 Y0.1773
N14680 X1.1013 Y0.1847
N14685 X1.0846 Y0.1909
N14690 X1.0669 Y0.1959
N14695 X1.0484 Y0.1995
N14700 X1.0293 Y0.2016
N14705 X1.0097 Y0.2022
N14710 X0.9998 Y0.2018
N14715 X0.9899 Y0.2011
N14720 X0.9711 Y0.1986
N14725 X0.9532 Y0.1946
N14730 X0.9376 Y0.1899
N14735 X0.9218 Y0.1836
N14740 X0.9081 Y0.1768
N14745 X0.8926 Y0.1661
N14750 X0.8789 Y0.1531
N14755 X0.8674 Y0.1381
N14760 X0.8584 Y0.1215
N14765 X0.8522 Y0.1037
N14770 X0.8489 Y0.0851
N14775 X0.8485 Y0.0662
N14780 X0.8509 Y0.0231
N14785 G3 X0.8563 Y0.0044 I0.0498 J0.0041 F92.
N14790 X0.9061 Y-0.0224 I0.0445 J0.0229 F100.
N14795 G1 X1.1639 Y0.0054
N14800 G3 X1.2048 Y0.0361 I-0.0054 J0.0497
N14805 X1.2086 Y0.0552 I-0.0462 J0.019 F92.
N14810 G1 X1.2059 Y0.0981 F100.
N14815 X1.2056 Y0.1018
N14820 X1.2038 Y0.1142
N14825 X1.2009 Y0.1247
N14830 X1.1971 Y0.1347
N14835 X1.1923 Y0.1444
N14840 X1.1863 Y0.1544
N14845 X1.1789 Y0.1646
N14850 X1.1702 Y0.175
N14855 X1.1598 Y0.1853
N14860 X1.1481 Y0.1953
N14865 X1.1348 Y0.2048
N14870 X1.1199 Y0.2137
N14875 X1.1037 Y0.2217
N14880 X1.0862 Y0.2286
N14885 X1.0676 Y0.2343
N14890 X1.0579 Y0.2366
N14895 X1.0481 Y0.2385
N14900 X1.0382 Y0.24
N14905 X1.0281 Y0.2411
N14910 X1.0181 Y0.2419
N14915 X1.008 Y0.2422
N14920 X0.998 Y0.242
N14925 X0.9881 Y0.2415
N14930 X0.9699 Y0.2395
N14935 X0.9518 Y0.2359
N14940 X0.9365 Y0.2316
N14945 X0.921 Y0.2258
N14950 X0.9073 Y0.2194
N14955 X0.8945 Y0.212
N14960 X0.8802 Y0.2009
N14965 X0.868 Y0.1876
N14970 X0.858 Y0.1726
N14975 X0.8506 Y0.1561
N14980 X0.8459 Y0.1387
N14985 X0.844 Y0.1207
N14990 X0.8451 Y0.1027
N14995 G3 X0.8522 Y0.0845 I0.0492 J0.0087 F92.
N15000 X0.8921 Y0.0614 I0.0421 J0.0269 F100.
N15005 G1 X1.1534 Y0.0495
N15010 G3 X1.2027 Y0.0825 I0.0023 J0.0499
N15015 X1.2056 Y0.1018 I-0.0471 J0.0169 F92.
N15020 G1 X1.2005 Y0.1498 F100.
N15025 X1.1984 Y0.1604
N15030 X1.195 Y0.1706
N15035 X1.1907 Y0.1805
N15040 X1.1853 Y0.1901
N15045 X1.1787 Y0.2
N15050 X1.1706 Y0.2102
N15055 X1.1609 Y0.2205
N15060 X1.1497 Y0.2307
N15065 X1.1368 Y0.2406
N15070 X1.1222 Y0.25
N15075 X1.1063 Y0.2585
N15080 X1.0889 Y0.266
N15085 X1.0797 Y0.2694
N15090 X1.0702 Y0.2724
N15095 X1.0606 Y0.275
N15100 X1.0508 Y0.2773
N15105 X1.0409 Y0.2791
N15110 X1.0309 Y0.2806
N15115 X1.0209 Y0.2816
N15120 X1.0109 Y0.2823
N15125 X1.0008 Y0.2825
N15130 X0.9909 Y0.2823
N15135 X0.9811 Y0.2817
N15140 X0.9617 Y0.2793
N15145 X0.9448 Y0.2759
N15150 X0.9284 Y0.2711
N15155 X0.9134 Y0.2653
N15160 X0.9002 Y0.259
N15165 X0.8917 Y0.2541
N15170 X0.8781 Y0.2444
N15175 X0.8661 Y0.2327
N15180 X0.856 Y0.2194
N15185 X0.848 Y0.2047
N15190 X0.8422 Y0.189
N15195 X0.8388 Y0.1726
N15200 X0.8379 Y0.1559
N15205 X0.8395 Y0.1392
N15210 X0.8427 Y0.1198
N15215 X0.8451 Y0.1027
N15220 G3 X0.8522 Y0.0845 I0.0492 J0.0087 F92.
N15225 X0.901 Y0.0618 I0.0421 J0.0269 F100.
N15230 G1 X1.1573 Y0.0961
N15235 G3 X1.1983 Y0.1304 I-0.0066 J0.0496
N15240 X1.2005 Y0.1498 I-0.0476 J0.0152 F92.
N15245 G1 X1.1966 Y0.1798 F100.
N15250 X1.1941 Y0.1947
N15255 X1.1915 Y0.2052
N15260 X1.1877 Y0.2154
N15265 X1.183 Y0.2251
N15270 X1.1774 Y0.2345
N15275 X1.1703 Y0.2444
N15280 X1.1617 Y0.2545
N15285 X1.1515 Y0.2647
N15290 X1.1396 Y0.2749
N15295 X1.1262 Y0.2845
N15300 X1.1111 Y0.2936
N15305 X1.0944 Y0.3019
N15310 X1.0765 Y0.309
N15315 X1.0672 Y0.312
N15320 X1.0576 Y0.3148
N15325 X1.0477 Y0.3171
N15330 X1.0378 Y0.3191
N15335 X1.0278 Y0.3206
N15340 X1.0177 Y0.3218
N15345 X1.0076 Y0.3225
N15350 X0.9975 Y0.3228
N15355 X0.9875 Y0.3227
N15360 X0.9775 Y0.3222
N15365 X0.9585 Y0.3201
N15370 X0.9406 Y0.3166
N15375 X0.9249 Y0.3122
N15380 X0.9092 Y0.3064
N15385 X0.8956 Y0.3
N15390 X0.8829 Y0.2927
N15395 X0.877 Y0.2889
N15400 X0.8633 Y0.2772
N15405 X0.8516 Y0.2635
N15410 X0.8423 Y0.2481
N15415 X0.8356 Y0.2314
N15420 X0.8317 Y0.2138
N15425 X0.8306 Y0.1958
N15430 X0.8325 Y0.1778
N15435 X0.8395 Y0.1392
N15440 G3 X0.847 Y0.1213 I0.049 J0.0101 F92.
N15445 X0.8959 Y0.0999 I0.0414 J0.0281 F100.
N15450 G1 X1.152 Y0.1385
N15455 G3 X1.1929 Y0.1753 I-0.0075 J0.0494
N15460 X1.1941 Y0.1947 I-0.0484 J0.0127 F92.
N15465 G1 X1.1866 Y0.2366 F100.
N15470 X1.1837 Y0.2481
N15475 X1.1799 Y0.2582
N15480 X1.175 Y0.2679
N15485 X1.1692 Y0.2773
N15490 X1.162 Y0.2871
N15495 X1.1533 Y0.297
N15500 X1.1429 Y0.3072
N15505 X1.131 Y0.317
N15510 X1.1173 Y0.3266
N15515 X1.102 Y0.3355
N15520 X1.0854 Y0.3435
N15525 X1.0674 Y0.3503
N15530 X1.058 Y0.3533
N15535 X1.0483 Y0.3559
N15540 X1.0385 Y0.3581
N15545 X1.0285 Y0.3599
N15550 X1.0185 Y0.3614
N15555 X1.0084 Y0.3624
N15560 X0.9983 Y0.3629
N15565 X0.9883 Y0.3631
N15570 X0.9783 Y0.3629
N15575 X0.9684 Y0.3623
N15580 X0.949 Y0.3598
N15585 X0.9316 Y0.3562
N15590 X0.9146 Y0.3511
N15595 X0.9003 Y0.3456
N15600 X0.8859 Y0.3386
N15605 X0.8736 Y0.3314
N15610 X0.8617 Y0.323
N15615 X0.8486 Y0.3106
N15620 X0.8378 Y0.2962
N15625 X0.8295 Y0.2803
N15630 X0.824 Y0.2631
N15635 X0.8214 Y0.2454
N15640 X0.8218 Y0.2274
N15645 X0.8251 Y0.2097
N15650 X0.8297 Y0.1922
N15655 X0.8325 Y0.1778
N15660 G3 X0.8404 Y0.16 I0.0488 J0.011 F92.
N15665 X0.8891 Y0.1394 I0.0409 J0.0288 F100.
N15670 G1 X1.145 Y0.18
N15675 G3 X1.1856 Y0.2172 I-0.0078 J0.0494
N15680 X1.1866 Y0.2366 I-0.0485 J0.0122 F92.
N15685 G1 X1.1831 Y0.2547 F100.
N15690 X1.1758 Y0.2846
N15695 X1.1721 Y0.2963
N15700 X1.1677 Y0.3062
N15705 X1.1624 Y0.3156
N15710 X1.1559 Y0.3249
N15715 X1.1481 Y0.3344
N15720 X1.1386 Y0.3443
N15725 X1.1276 Y0.3541
N15730 X1.1148 Y0.3636
N15735 X1.1004 Y0.3726
N15740 X1.0845 Y0.3808
N15745 X1.0673 Y0.388
N15750 X1.0487 Y0.394
N15755 X1.0391 Y0.3965
N15760 X1.0292 Y0.3987
N15765 X1.0193 Y0.4004
N15770 X1.0093 Y0.4017
N15775 X0.9991 Y0.4026
N15780 X0.9891 Y0.4031
N15785 X0.9791 Y0.4032
N15790 X0.9691 Y0.4029
N15795 X0.9591 Y0.4022
N15800 X0.9398 Y0.3995
N15805 X0.9211 Y0.3954
N15810 X0.9048 Y0.3904
N15815 X0.8893 Y0.3843
N15820 X0.8753 Y0.3773
N15825 X0.8628 Y0.3698
N15830 X0.8509 Y0.3612
N15835 X0.8377 Y0.3485
N15840 X0.8269 Y0.3337
N15845 X0.8186 Y0.3174
N15850 X0.8131 Y0.2999
N15855 X0.8107 Y0.2817
N15860 X0.8112 Y0.2634
N15865 X0.8148 Y0.2455
N15870 X0.8251 Y0.2097
N15875 G3 X0.8344 Y0.1926 I0.0477 J0.015 F92.
N15880 X0.8824 Y0.1756 I0.0383 J0.0321 F100.
N15885 G1 X1.1365 Y0.2254
N15890 G3 X1.176 Y0.2651 I-0.0096 J0.0491
N15895 X1.1758 Y0.2846 I-0.0491 J0.0094 F92.
N15900 G1 X1.1646 Y0.3296 F100.
N15905 X1.1589 Y0.3444
N15910 X1.1539 Y0.354
N15915 X1.1481 Y0.363
N15920 X1.141 Y0.3723
N15925 X1.1324 Y0.3817
N15930 X1.1221 Y0.3913
N15935 X1.1103 Y0.4007
N15940 X1.0968 Y0.4097
N15945 X1.0816 Y0.4181
N15950 X1.0651 Y0.4256
N15955 X1.0473 Y0.432
N15960 X1.0379 Y0.4347
N15965 X1.0283 Y0.4371
N15970 X1.0185 Y0.4391
N15975 X1.0085 Y0.4407
N15980 X0.9984 Y0.4419
N15985 X0.9883 Y0.4427
N15990 X0.9781 Y0.4431
N15995 X0.968
N16000 X0.958 Y0.4426
N16005 X0.948 Y0.4418
N16010 X0.9381 Y0.4405
N16015 X0.919 Y0.4369
N16020 X0.9017 Y0.4322
N16025 X0.885 Y0.4261
N16030 X0.8711 Y0.4197
N16035 X0.8571 Y0.4118
N16040 X0.8455 Y0.4039
N16045 X0.8339 Y0.3947
N16050 X0.8216 Y0.3814
N16055 X0.8116 Y0.3663
N16060 X0.8043 Y0.3497
N16065 X0.7998 Y0.3322
N16070 X0.7983 Y0.3142
N16075 X0.7999 Y0.2961
N16080 X0.8044 Y0.2786
N16085 X0.8099 Y0.2623
N16090 X0.8148 Y0.2455
N16095 G3 X0.8244 Y0.2285 I0.0475 J0.0155 F92.
N16100 X0.8735 Y0.2123 I0.038 J0.0325 F100.
N16105 G1 X1.1269 Y0.2703
N16110 G3 X1.1649 Y0.3101 I-0.0112 J0.0487
N16115 X1.1646 Y0.3296 I-0.0492 J0.009 F92.
N16120 G1 X1.1496 Y0.377 F100.
N16125 X1.1454 Y0.3877
N16130 X1.1403 Y0.3973
N16135 X1.1344 Y0.4063
N16140 X1.1274 Y0.4152
N16145 X1.1189 Y0.4243
N16150 X1.1088 Y0.4335
N16155 X1.0971 Y0.4425
N16160 X1.0837 Y0.4512
N16165 X1.0687 Y0.4593
N16170 X1.0522 Y0.4665
N16175 X1.0345 Y0.4726
N16180 X1.0156 Y0.4774
N16185 X1.0058 Y0.4793
N16190 X0.9958 Y0.4807
N16195 X0.9858 Y0.4818
N16200 X0.9757 Y0.4825
N16205 X0.9655 Y0.4827
N16210 X0.9554 Y0.4826
N16215 X0.9454 Y0.482
N16220 X0.9354 Y0.481
N16225 X0.9256 Y0.4797
N16230 X0.9064 Y0.4758
N16235 X0.8881 Y0.4705
N16240 X0.8721 Y0.4644
N16245 X0.8571 Y0.4573
N16250 X0.8435 Y0.4494
N16255 X0.8317 Y0.4412
N16260 X0.8203 Y0.4317
N16265 X0.8152 Y0.427
N16270 X0.8037 Y0.4132
N16275 X0.7947 Y0.3977
N16280 X0.7883 Y0.3809
N16285 X0.7849 Y0.3633
N16290 X0.7844 Y0.3454
N16295 X0.787 Y0.3276
N16300 X0.7924 Y0.3105
N16305 X0.7974 Y0.2982
N16310 X0.8044 Y0.2786
N16315 G3 X0.8148 Y0.2621 I0.0466 J0.018 F92.
N16320 X0.8639 Y0.2483 I0.0362 J0.0345 F100.
N16325 G1 X1.1144 Y0.3152
N16330 G3 X1.1511 Y0.3575 I-0.0129 J0.0483
N16335 X1.1496 Y0.377 I-0.0496 J0.006 F92.
N16340 G1 X1.1393 Y0.4087 F100.
N16345 X1.1333 Y0.424
N16350 X1.1276 Y0.4359
N16355 X1.122 Y0.4451
N16360 X1.1155 Y0.4538
N16365 X1.1078 Y0.4625
N16370 X1.0986 Y0.4713
N16375 X1.0877 Y0.4801
N16380 X1.0752 Y0.4886
N16385 X1.0612 Y0.4967
N16390 X1.0454 Y0.504
N16395 X1.0284 Y0.5103
N16400 X1.0102 Y0.5154
N16405 X1.0007 Y0.5175
N16410 X0.9909 Y0.5192
N16415 X0.981 Y0.5205
N16420 X0.9709 Y0.5214
N16425 X0.9608 Y0.5219
N16430 X0.9507 Y0.522
N16435 X0.9405 Y0.5216
N16440 X0.9304 Y0.5209
N16445 X0.9205 Y0.5197
N16450 X0.9106 Y0.5182
N16455 X0.9008 Y0.5163
N16460 X0.882 Y0.5113
N16465 X0.8642 Y0.5051
N16470 X0.8486 Y0.4981
N16475 X0.8344 Y0.4903
N16480 X0.8213 Y0.4816
N16485 X0.8101 Y0.4729
N16490 X0.803 Y0.4664
N16495 X0.792 Y0.454
N16500 X0.783 Y0.4402
N16505 X0.7761 Y0.4252
N16510 X0.7716 Y0.4093
N16515 X0.7696 Y0.3929
N16520 X0.77 Y0.3764
N16525 X0.7729 Y0.3602
N16530 X0.7782 Y0.3445
N16535 X0.7924 Y0.3105
N16540 G3 X0.8038 Y0.2946 I0.0455 J0.0207 F92.
N16545 X0.8526 Y0.2834 I0.0341 J0.0366 F100.
N16550 G1 X1.1008 Y0.3595
N16555 G3 X1.1361 Y0.4047 I-0.0146 J0.0478
N16560 X1.1333 Y0.424 I-0.0499 J0.0026 F92.
N16565 G1 X1.1155 Y0.4689 F100.
N16570 X1.1107 Y0.4786
N16575 X1.105 Y0.4878
N16580 X1.0984 Y0.4963
N16585 X1.0907 Y0.5047
N16590 X1.0816 Y0.5132
N16595 X1.0708 Y0.5216
N16600 X1.0584 Y0.5298
N16605 X1.0445 Y0.5375
N16610 X1.0288 Y0.5444
N16615 X1.0119 Y0.5504
N16620 X0.9937 Y0.5552
N16625 X0.9746 Y0.5586
N16630 X0.9647 Y0.5597
N16635 X0.9546 Y0.5604
N16640 X0.9444 Y0.5608
N16645 X0.9343 Y0.5607
N16650 X0.9241 Y0.5602
N16655 X0.914 Y0.5593
N16660 X0.9039 Y0.558
N16665 X0.8941 Y0.5563
N16670 X0.8843 Y0.5541
N16675 X0.8747 Y0.5517
N16680 X0.8563 Y0.5457
N16685 X0.8398 Y0.5388
N16690 X0.825 Y0.5311
N16695 X0.8111 Y0.5224
N16700 X0.7994 Y0.5137
N16705 X0.7881 Y0.5038
N16710 X0.7774 Y0.4925
N16715 X0.767 Y0.4779
N16720 X0.7592 Y0.4618
N16725 X0.7543 Y0.4446
N16730 X0.7523 Y0.4268
N16735 X0.7534 Y0.4089
N16740 X0.7575 Y0.3915
N16745 X0.7645 Y0.375
N16750 G3 X0.7773 Y0.3603 I0.0434 J0.0249 F92.
N16755 X0.8177 Y0.3509 I0.0305 J0.0396 F100.
N16760 G1 X1.0782 Y0.403
N16765 G3 X1.1183 Y0.4496 I-0.0098 J0.049
N16770 X1.1155 Y0.4689 I-0.0499 J0.0024 F92.
N16775 G1 X1.1093 Y0.4843 F100.
N16780 X1.0943 Y0.5159
N16785 X1.0888 Y0.5255
N16790 X1.0826 Y0.5343
N16795 X1.0755 Y0.5424
N16800 X1.0672 Y0.5505
N16805 X1.0575 Y0.5585
N16810 X1.046 Y0.5665
N16815 X1.033 Y0.5741
N16820 X1.0185 Y0.581
N16825 X1.0023 Y0.5872
N16830 X0.9848 Y0.5923
N16835 X0.9663 Y0.596
N16840 X0.9567 Y0.5974
N16845 X0.9468 Y0.5984
N16850 X0.9368 Y0.5989
N16855 X0.9268 Y0.5991
N16860 X0.9166 Y0.5989
N16865 X0.9065 Y0.5982
N16870 X0.8964 Y0.5971
N16875 X0.8865 Y0.5957
N16880 X0.8766 Y0.5938
N16885 X0.8669 Y0.5915
N16890 X0.8574 Y0.5889
N16895 X0.8389 Y0.5826
N16900 X0.8215 Y0.575
N16905 X0.8064 Y0.5669
N16910 X0.7924 Y0.5578
N16915 X0.7801 Y0.5483
N16920 X0.7694 Y0.5386
N16925 X0.7631 Y0.5321
N16930 X0.7528 Y0.5185
N16935 X0.7446 Y0.5035
N16940 X0.7388 Y0.4874
N16945 X0.7356 Y0.4706
N16950 X0.735 Y0.4535
N16955 X0.737 Y0.4365
N16960 X0.7416 Y0.42
N16965 X0.7487 Y0.4045
N16970 X0.7645 Y0.375
N16975 G3 X0.7773 Y0.3603 I0.0434 J0.0249 F92.
N16980 X0.8264 Y0.3535 I0.0305 J0.0396 F100.
N16985 G1 X1.067 Y0.4495
N16990 G3 X1.0984 Y0.4968 I-0.0185 J0.0464
N16995 X1.0943 Y0.5159 I-0.05 J-0.0008 F92.
N17000 G1 X1.0733 Y0.5588 F100.
N17005 X1.0669 Y0.5692
N17010 X1.0603 Y0.5778
N17015 X1.0529 Y0.5856
N17020 X1.0444 Y0.5933
N17025 X1.0343 Y0.6011
N17030 X1.0226 Y0.6086
N17035 X1.0093 Y0.6156
N17040 X0.9944 Y0.6221
N17045 X0.9782 Y0.6276
N17050 X0.9606 Y0.632
N17055 X0.9418 Y0.635
N17060 X0.9321 Y0.636
N17065 X0.9223 Y0.6366
N17070 X0.9123 Y0.6368
N17075 X0.9022 Y0.6366
N17080 X0.892 Y0.636
N17085 X0.8819 Y0.635
N17090 X0.8719 Y0.6335
N17095 X0.8619 Y0.6317
N17100 X0.852 Y0.6294
N17105 X0.8424 Y0.6268
N17110 X0.8328 Y0.6238
N17115 X0.8146 Y0.6168
N17120 X0.7987 Y0.6091
N17125 X0.7833 Y0.6001
N17130 X0.7701 Y0.5908
N17135 X0.7586 Y0.5813
N17140 X0.7477 Y0.5705
N17145 X0.743 Y0.5653
N17150 X0.7329 Y0.551
N17155 X0.7251 Y0.5354
N17160 X0.7197 Y0.5188
N17165 X0.7169 Y0.5016
N17170 X0.7168 Y0.4841
N17175 X0.7194 Y0.4668
N17180 X0.7245 Y0.4501
N17185 X0.7321 Y0.4344
N17190 X0.7487 Y0.4045
N17195 G3 X0.7618 Y0.39 I0.0429 J0.0257 F92.
N17200 X0.8122 Y0.3846 I0.0298 J0.0402 F100.
N17205 G1 X1.0489 Y0.4915
N17210 G3 X1.0782 Y0.5399 I-0.0206 J0.0456
N17215 X1.0733 Y0.5588 I-0.0499 J-0.0028 F92.
N17220 G1 X1.0594 Y0.5842 F100.
N17225 X1.0493 Y0.6021
N17230 X1.0419 Y0.613
N17235 X1.0349 Y0.6213
N17240 X1.0272 Y0.6288
N17245 X1.0182 Y0.6362
N17250 X1.0078 Y0.6434
N17255 X0.9956 Y0.6504
N17260 X0.9821 Y0.6569
N17265 X0.9668 Y0.6627
N17270 X0.9502 Y0.6674
N17275 X0.9325 Y0.671
N17280 X0.9136 Y0.6732
N17285 X0.9038 Y0.6738
N17290 X0.8939 Y0.6739
N17295 X0.8839 Y0.6736
N17300 X0.8739 Y0.673
N17305 X0.8638 Y0.6719
N17310 X0.8538 Y0.6704
N17315 X0.8439 Y0.6685
N17320 X0.8341 Y0.6662
N17325 X0.8245 Y0.6635
N17330 X0.815 Y0.6605
N17335 X0.8058 Y0.6571
N17340 X0.788 Y0.6493
N17345 X0.7727 Y0.641
N17350 X0.7585 Y0.6318
N17355 X0.7457 Y0.6218
N17360 X0.7349 Y0.612
N17365 X0.7244 Y0.6007
N17370 X0.7159 Y0.5899
N17375 X0.7111 Y0.5829
N17380 X0.7028 Y0.567
N17385 X0.6972 Y0.55
N17390 X0.6946 Y0.5322
N17395 X0.695 Y0.5143
N17400 X0.6984 Y0.4967
N17405 X0.7047 Y0.4799
N17410 X0.7137 Y0.4644
N17415 G3 X0.7281 Y0.4512 I0.0402 J0.0297 F92.
N17420 X0.7699 Y0.4467 I0.0258 J0.0428 F100.
N17425 G1 X1.0211 Y0.5312
N17430 G3 X1.055 Y0.5834 I-0.0159 J0.0474
N17435 X1.0493 Y0.6021 I-0.0498 J-0.0048 F92.
N17440 G1 X1.0335 Y0.6292 F100.
N17445 X1.0243 Y0.6441
N17450 X1.0156 Y0.6557
N17455 X1.0082 Y0.6636
N17460 X1.0001 Y0.6708
N17465 X0.9907 Y0.6778
N17470 X0.9798 Y0.6846
N17475 X0.9673 Y0.6911
N17480 X0.9534 Y0.697
N17485 X0.9377 Y0.7021
N17490 X0.9209 Y0.7061
N17495 X0.903 Y0.7088
N17500 X0.884 Y0.7102
N17505 X0.8742
N17510 X0.8643 Y0.7099
N17515 X0.8544 Y0.7092
N17520 X0.8445 Y0.7081
N17525 X0.8345 Y0.7065
N17530 X0.8247 Y0.7046
N17535 X0.815 Y0.7023
N17540 X0.8054 Y0.6996
N17545 X0.796 Y0.6965
N17550 X0.7778 Y0.6892
N17555 X0.7606 Y0.6807
N17560 X0.7444 Y0.671
N17565 X0.7307 Y0.6611
N17570 X0.7178 Y0.6502
N17575 X0.7069 Y0.6392
N17580 X0.6975 Y0.6281
N17585 X0.689 Y0.6163
N17590 X0.6815 Y0.602
N17595 X0.6761 Y0.5868
N17600 X0.6731 Y0.5709
N17605 X0.6723 Y0.5548
N17610 X0.674 Y0.5388
N17615 X0.678 Y0.5231
N17620 X0.6842 Y0.5082
N17625 X0.6926 Y0.4944
N17630 X0.7137 Y0.4644
N17635 G3 X0.7283 Y0.4514 I0.04 J0.03 F92.
N17640 X0.7778 Y0.4506 I0.0254 J0.0431 F100.
N17645 G1 X1.0049 Y0.5758
N17650 G3 X1.0304 Y0.6256 I-0.0241 J0.0438
N17655 X1.0243 Y0.6441 I-0.0496 J-0.006 F92.
N17660 G1 X0.9967 Y0.6861 F100.
N17665 X0.9901 Y0.6947
N17670 X0.9826 Y0.7024
N17675 X0.9744 Y0.7095
N17680 X0.9651 Y0.7161
N17685 X0.9543 Y0.7226
N17690 X0.942 Y0.7287
N17695 X0.928 Y0.7342
N17700 X0.9128 Y0.7389
N17705 X0.8961 Y0.7425
N17710 X0.8782 Y0.7449
N17715 X0.8595 Y0.7458
N17720 X0.8402 Y0.7452
N17725 X0.8304 Y0.7443
N17730 X0.8205 Y0.743
N17735 X0.8105 Y0.7412
N17740 X0.8006 Y0.7391
N17745 X0.7908 Y0.7365
N17750 X0.7811 Y0.7336
N17755 X0.7716 Y0.7302
N17760 X0.7623 Y0.7265
N17765 X0.7532 Y0.7225
N17770 X0.7443 Y0.7181
N17775 X0.7274 Y0.7084
N17780 X0.7129 Y0.6985
N17785 X0.6993 Y0.6874
N17790 X0.6879 Y0.6764
N17795 X0.6781 Y0.6653
N17800 X0.669 Y0.6532
N17805 X0.6618 Y0.6417
N17810 X0.6546 Y0.6253
N17815 X0.6501 Y0.6079
N17820 X0.6485 Y0.59
N17825 X0.65 Y0.5721
N17830 X0.6543 Y0.5547
N17835 X0.6615 Y0.5382
N17840 X0.6712 Y0.5232
N17845 X0.6826 Y0.5083
N17850 X0.6926 Y0.4944
N17855 G3 X0.7072 Y0.4815 I0.0397 J0.0303 F92.
N17860 X0.7583 Y0.4821 I0.0251 J0.0432 F100.
N17865 G1 X0.9801 Y0.6173
N17870 G3 X1.0034 Y0.6678 I-0.026 J0.0427
N17875 X0.9967 Y0.6861 I-0.0494 J-0.0078 F92.
N17880 G1 X0.9894 Y0.6972 F100.
N17885 X0.9668 Y0.7273
N17890 X0.9592 Y0.7359
N17895 X0.9513 Y0.7433
N17900 X0.9427 Y0.7499
N17905 X0.9329 Y0.7561
N17910 X0.9218 Y0.762
N17915 X0.909 Y0.7675
N17920 X0.8948 Y0.7722
N17925 X0.8792 Y0.7761
N17930 X0.8621 Y0.7788
N17935 X0.8441 Y0.7803
N17940 X0.8253 Y0.7802
N17945 X0.8058 Y0.7785
N17950 X0.7959 Y0.7771
N17955 X0.7859 Y0.7752
N17960 X0.7761 Y0.7729
N17965 X0.7663 Y0.7702
N17970 X0.7566 Y0.7672
N17975 X0.7472 Y0.7637
N17980 X0.7379 Y0.7599
N17985 X0.7288 Y0.7557
N17990 X0.72 Y0.7512
N17995 X0.7032 Y0.7413
N18000 X0.6878 Y0.7304
N18005 X0.6747 Y0.7194
N18010 X0.6631 Y0.708
N18015 X0.6528 Y0.6961
N18020 X0.6444 Y0.6846
N18025 X0.6367 Y0.6719
N18030 X0.6302 Y0.6568
N18035 X0.6259 Y0.6409
N18040 X0.6241 Y0.6246
N18045 X0.6247 Y0.6081
N18050 X0.6278 Y0.592
N18055 X0.6332 Y0.5765
N18060 X0.6409 Y0.5619
N18065 X0.6507 Y0.5487
N18070 X0.6596 Y0.5382
N18075 X0.6712 Y0.5232
N18080 G3 X0.6864 Y0.5109 I0.0385 J0.0319 F92.
N18085 X0.7374 Y0.5134 I0.0233 J0.0442 F100.
N18090 G1 X0.9535 Y0.6568
N18095 G3 X0.9747 Y0.7094 I-0.0276 J0.0417
N18100 X0.9668 Y0.7273 I-0.0488 J-0.011 F92.
N18105 G1 X0.9444 Y0.7566 F100.
N18110 X0.9369 Y0.7658
N18115 X0.9289 Y0.7743
N18120 X0.9207 Y0.7813
N18125 X0.9119 Y0.7876
N18130 X0.902 Y0.7933
N18135 X0.8905 Y0.7989
N18140 X0.8776 Y0.8038
N18145 X0.8632 Y0.8081
N18150 X0.8473 Y0.8114
N18155 X0.8303 Y0.8134
N18160 X0.8122 Y0.8142
N18165 X0.7933 Y0.8134
N18170 X0.7836 Y0.8124
N18175 X0.7738 Y0.811
N18180 X0.764 Y0.8092
N18185 X0.7541 Y0.8069
N18190 X0.7444 Y0.8043
N18195 X0.7347 Y0.8012
N18200 X0.7252 Y0.7978
N18205 X0.7158 Y0.7939
N18210 X0.7066 Y0.7898
N18215 X0.6977 Y0.7853
N18220 X0.6891 Y0.7804
N18225 X0.6727 Y0.7699
N18230 X0.6581 Y0.7587
N18235 X0.645 Y0.7469
N18240 X0.6343 Y0.7355
N18245 X0.6244 Y0.7231
N18250 X0.6162 Y0.7109
N18255 X0.6094 Y0.6988
N18260 X0.6034 Y0.6834
N18265 X0.5997 Y0.6674
N18270 X0.5983 Y0.651
N18275 X0.5994 Y0.6345
N18280 X0.6029 Y0.6184
N18285 X0.6088 Y0.603
N18290 X0.6168 Y0.5886
N18295 X0.6268 Y0.5756
N18300 X0.6507 Y0.5487
N18305 G3 X0.6664 Y0.5372 I0.0367 J0.0339 F92.
N18310 X0.7168 Y0.5422 I0.0209 J0.0454 F100.
N18315 G1 X0.9266 Y0.695
N18320 G3 X0.9455 Y0.7483 I-0.0294 J0.0404
N18325 X0.9369 Y0.7658 I-0.0483 J-0.0128 F92.
N18330 G1 X0.9259 Y0.779 F100.
N18335 X0.9037 Y0.8042
N18340 X0.8959 Y0.8118
N18345 X0.8875 Y0.8185
N18350 X0.8784 Y0.8243
N18355 X0.8683 Y0.8297
N18360 X0.8566 Y0.8347
N18365 X0.8435 Y0.8391
N18370 X0.8289 Y0.8427
N18375 X0.8129 Y0.8454
N18380 X0.7958 Y0.8467
N18385 X0.7777
N18390 X0.7588 Y0.8451
N18395 X0.7492 Y0.8437
N18400 X0.7395 Y0.8419
N18405 X0.7297 Y0.8397
N18410 X0.72 Y0.837
N18415 X0.7104 Y0.834
N18420 X0.7009 Y0.8305
N18425 X0.6915 Y0.8267
N18430 X0.6824 Y0.8225
N18435 X0.6734 Y0.818
N18440 X0.6647 Y0.8131
N18445 X0.6564 Y0.8079
N18450 X0.6404 Y0.7967
N18455 X0.6266 Y0.7852
N18460 X0.614 Y0.7728
N18465 X0.6038 Y0.761
N18470 X0.5946 Y0.7484
N18475 X0.5868 Y0.7356
N18480 X0.5806 Y0.7234
N18485 X0.5777 Y0.7166
N18490 X0.5727 Y0.6996
N18495 X0.5706 Y0.6821
N18500 X0.5714 Y0.6644
N18505 X0.5751 Y0.6471
N18510 X0.5815 Y0.6307
N18515 X0.5906 Y0.6155
N18520 X0.602 Y0.602
N18525 X0.6154 Y0.5884
N18530 X0.6268 Y0.5756
N18535 G3 X0.6428 Y0.5644 I0.0361 J0.0346 F92.
N18540 X0.6942 Y0.5712 I0.0201 J0.0458 F100.
N18545 G1 X0.8964 Y0.7333
N18550 G3 X0.913 Y0.7871 I-0.0313 J0.039
N18555 X0.9037 Y0.8042 I-0.0478 J-0.0147 F92.
N18560 G1 X0.8844 Y0.8258 F100.
N18565 X0.872 Y0.8389
N18570 X0.8609 Y0.8486
N18575 X0.8521 Y0.8549
N18580 X0.8427 Y0.8602
N18585 X0.8321 Y0.8652
N18590 X0.8201 Y0.8696
N18595 X0.8065 Y0.8734
N18600 X0.7916 Y0.8763
N18605 X0.7754 Y0.8781
N18610 X0.758 Y0.8786
N18615 X0.7399 Y0.8777
N18620 X0.7211 Y0.8751
N18625 X0.7115 Y0.8732
N18630 X0.7019 Y0.8709
N18635 X0.6922 Y0.8681
N18640 X0.6827 Y0.865
N18645 X0.6733 Y0.8615
N18650 X0.6639 Y0.8575
N18655 X0.6548 Y0.8532
N18660 X0.646 Y0.8486
N18665 X0.6373 Y0.8436
N18670 X0.6289 Y0.8383
N18675 X0.6131 Y0.8269
N18680 X0.5985 Y0.8144
N18685 X0.5862 Y0.8021
N18690 X0.5749 Y0.7888
N18695 X0.5661 Y0.7765
N18700 X0.5581 Y0.763
N18705 X0.5519 Y0.7505
N18710 X0.549 Y0.7436
N18715 X0.5445 Y0.7279
N18720 X0.5424 Y0.7117
N18725 X0.5427 Y0.6953
N18730 X0.5455 Y0.6792
N18735 X0.5506 Y0.6637
N18740 X0.5579 Y0.6491
N18745 X0.5674 Y0.6358
N18750 X0.5787 Y0.624
N18755 X0.5906 Y0.6133
N18760 X0.602 Y0.602
N18765 G3 X0.6186 Y0.5917 I0.0341 J0.0365 F92.
N18770 X0.6684 Y0.6003 I0.0176 J0.0468 F100.
N18775 G1 X0.8668 Y0.7676
N18780 G3 X0.8818 Y0.822 I-0.0322 J0.0382
N18785 X0.872 Y0.8389 I-0.0473 J-0.0162 F92.
N18790 G1 X0.8355 Y0.8752 F100.
N18795 X0.8268 Y0.8823
N18800 X0.8178 Y0.8883
N18805 X0.8083 Y0.8934
N18810 X0.7978 Y0.8979
N18815 X0.7857 Y0.902
N18820 X0.7723 Y0.9054
N18825 X0.7573 Y0.9078
N18830 X0.7413 Y0.9091
N18835 X0.7242
N18840 X0.7061 Y0.9076
N18845 X0.6874 Y0.9045
N18850 X0.6685 Y0.8998
N18855 X0.659 Y0.8968
N18860 X0.6495 Y0.8934
N18865 X0.6402 Y0.8895
N18870 X0.631 Y0.8853
N18875 X0.6219 Y0.8807
N18880 X0.6131 Y0.8758
N18885 X0.6045 Y0.8705
N18890 X0.5962 Y0.8649
N18895 X0.5882 Y0.859
N18900 X0.5732 Y0.8465
N18905 X0.5599 Y0.8335
N18910 X0.5484 Y0.8203
N18915 X0.5392 Y0.8076
N18920 X0.5308 Y0.794
N18925 X0.5242 Y0.781
N18930 X0.5213 Y0.7741
N18935 X0.5163 Y0.7574
N18940 X0.5139 Y0.74
N18945 X0.5142 Y0.7225
N18950 X0.5172 Y0.7053
N18955 X0.5227 Y0.6887
N18960 X0.5308 Y0.6731
N18965 X0.5411 Y0.659
N18970 X0.5534 Y0.6466
N18975 X0.5787 Y0.624
N18980 G3 X0.5959 Y0.6147 I0.032 J0.0384 F92.
N18985 X0.645 Y0.626 I0.0149 J0.0477 F100.
N18990 G1 X0.8341 Y0.8037
N18995 G3 X0.8462 Y0.8589 I-0.0342 J0.0364
N19000 X0.8355 Y0.8752 I-0.0464 J-0.0187 F92.
N19005 G1 X0.8245 Y0.8855 F100.
N19010 X0.7992 Y0.9081
N19015 X0.7902 Y0.9151
N19020 X0.781 Y0.9208
N19025 X0.7713 Y0.9255
N19030 X0.7608 Y0.9296
N19035 X0.7486 Y0.9332
N19040 X0.7352 Y0.9361
N19045 X0.7204 Y0.938
N19050 X0.7043 Y0.9387
N19055 X0.6873 Y0.9381
N19060 X0.6694 Y0.9359
N19065 X0.6508 Y0.9322
N19070 X0.632 Y0.9267
N19075 X0.6226 Y0.9234
N19080 X0.6133 Y0.9196
N19085 X0.6041 Y0.9154
N19090 X0.595 Y0.9109
N19095 X0.5861 Y0.906
N19100 X0.5775 Y0.9007
N19105 X0.5692 Y0.8952
N19110 X0.5611 Y0.8893
N19115 X0.5533 Y0.8832
N19120 X0.5388 Y0.8701
N19125 X0.5268 Y0.8575
N19130 X0.5158 Y0.8439
N19135 X0.5068 Y0.8305
N19140 X0.4994 Y0.8175
N19145 X0.493 Y0.8035
N19150 X0.4883 Y0.7907
N19155 X0.4859 Y0.7825
N19160 X0.4829 Y0.7648
N19165 X0.483 Y0.7468
N19170 X0.4859 Y0.7291
N19175 X0.4918 Y0.7121
N19180 X0.5004 Y0.6963
N19185 X0.5114 Y0.6822
N19190 X0.5247 Y0.6701
N19195 X0.5409 Y0.6574
N19200 X0.5534 Y0.6466
N19205 G3 X0.5707 Y0.6376 I0.0313 J0.039 F92.
N19210 X0.6207 Y0.6509 I0.014 J0.048 F100.
N19215 G1 X0.8006 Y0.8373
N19220 G3 X0.8104 Y0.8922 I-0.036 J0.0347
N19225 X0.7992 Y0.9081 I-0.0457 J-0.0202 F92.
N19230 G1 X0.7757 Y0.9288 F100.
N19235 X0.7624 Y0.9397
N19240 X0.7527 Y0.9466
N19245 X0.7433 Y0.9519
N19250 X0.7335 Y0.9563
N19255 X0.7227 Y0.96
N19260 X0.7104 Y0.9631
N19265 X0.6968 Y0.9654
N19270 X0.6819 Y0.9667
N19275 X0.6657 Y0.9668
N19280 X0.6487 Y0.9655
N19285 X0.6309 Y0.9627
N19290 X0.6125 Y0.9582
N19295 X0.5939 Y0.9521
N19300 X0.5847 Y0.9484
N19305 X0.5756 Y0.9443
N19310 X0.5667 Y0.9398
N19315 X0.5578 Y0.9349
N19320 X0.5493 Y0.9297
N19325 X0.541 Y0.9242
N19330 X0.5329 Y0.9184
N19335 X0.5251 Y0.9123
N19340 X0.5105 Y0.8992
N19345 X0.4973 Y0.8854
N19350 X0.486 Y0.8713
N19355 X0.4761 Y0.8568
N19360 X0.4685 Y0.8435
N19365 X0.4618 Y0.8289
N19370 X0.457 Y0.8159
N19375 X0.453 Y0.8016
N19380 X0.4508 Y0.7839
N19385 X0.4515 Y0.766
N19390 X0.4551 Y0.7485
N19395 X0.4616 Y0.7319
N19400 X0.4708 Y0.7165
N19405 X0.4824 Y0.7029
N19410 X0.496 Y0.6914
N19415 X0.5097 Y0.6817
N19420 X0.5247 Y0.6701
N19425 G3 X0.5424 Y0.662 I0.0292 J0.0406 F92.
N19430 X0.5907 Y0.6769 I0.0115 J0.0487 F100.
N19435 G1 X0.7662 Y0.8684
N19440 G3 X0.7742 Y0.9242 I-0.0369 J0.0338
N19445 X0.7624 Y0.9397 I-0.0449 J-0.022 F92.
N19450 G1 X0.7345 Y0.9613 F100.
N19455 X0.7226 Y0.9703
N19460 X0.713 Y0.9766
N19465 X0.7034 Y0.9815
N19470 X0.6934 Y0.9855
N19475 X0.6825 Y0.9888
N19480 X0.6701 Y0.9914
N19485 X0.6564 Y0.9932
N19490 X0.6416 Y0.9938
N19495 X0.6254 Y0.9933
N19500 X0.6085 Y0.9913
N19505 X0.591 Y0.9878
N19510 X0.5729 Y0.9826
N19515 X0.5547 Y0.9757
N19520 X0.5457 Y0.9716
N19525 X0.5367 Y0.9671
N19530 X0.5279 Y0.9622
N19535 X0.5193 Y0.957
N19540 X0.5108 Y0.9514
N19545 X0.5026 Y0.9455
N19550 X0.4947 Y0.9393
N19555 X0.4872 Y0.9328
N19560 X0.4799 Y0.926
N19565 X0.4664 Y0.9118
N19570 X0.4543 Y0.8969
N19575 X0.4448 Y0.8828
N19580 X0.4363 Y0.868
N19585 X0.4299 Y0.8539
N19590 X0.4247 Y0.84
N19595 X0.4205 Y0.8243
N19600 X0.4183 Y0.8064
N19605 X0.419 Y0.7883
N19610 X0.4228 Y0.7707
N19615 X0.4295 Y0.754
N19620 X0.4389 Y0.7386
N19625 X0.4508 Y0.7249
N19630 X0.4647 Y0.7135
N19635 X0.496 Y0.6914
N19640 G3 X0.5141 Y0.6841 I0.0275 J0.0418 F92.
N19645 X0.5617 Y0.7009 I0.0094 J0.0491 F100.
N19650 G1 X0.7292 Y0.8993
N19655 G3 X0.735 Y0.9553 I-0.0382 J0.0322
N19660 X0.7226 Y0.9703 I-0.044 J-0.0237 F92.
N19665 G1 X0.6981 Y0.9887 F100.
N19670 X0.6819 Y0.9995
N19675 X0.6708 Y1.0058
N19680 X0.6609 Y1.0102
N19685 X0.6507 Y1.0136
N19690 X0.6393 Y1.0163
N19695 X0.6268 Y1.0183
N19700 X0.6128 Y1.0193
N19705 X0.5977 Y1.0192
N19710 X0.5816 Y1.0177
N19715 X0.5645 Y1.0147
N19720 X0.547 Y1.0102
N19725 X0.5292 Y1.004
N19730 X0.5202 Y1.0002
N19735 X0.5112 Y0.9961
N19740 X0.5023 Y0.9914
N19745 X0.4935 Y0.9864
N19750 X0.4849 Y0.981
N19755 X0.4766 Y0.9753
N19760 X0.4684 Y0.9692
N19765 X0.4605 Y0.9628
N19770 X0.453 Y0.9562
N19775 X0.4458 Y0.9493
N19780 X0.4389 Y0.9421
N19785 X0.4262 Y0.9272
N19790 X0.4156 Y0.9125
N19795 X0.4063 Y0.8971
N19800 X0.3995 Y0.8833
N19805 X0.3935 Y0.8683
N19810 X0.3894 Y0.8549
N19815 X0.3862 Y0.8405
N19820 X0.3853 Y0.8342
N19825 X0.3847 Y0.8167
N19830 X0.3871 Y0.7994
N19835 X0.3922 Y0.7827
N19840 X0.4001 Y0.767
N19845 X0.4104 Y0.7529
N19850 X0.4228 Y0.7406
N19855 X0.4372 Y0.7305
N19860 X0.4567 Y0.719
N19865 X0.4647 Y0.7135
N19870 G3 X0.4829 Y0.7064 I0.0269 J0.0422 F92.
N19875 X0.5308 Y0.7246 I0.0087 J0.0492 F100.
N19880 G1 X0.6919 Y0.9278
N19885 G3 X0.6952 Y0.9852 I-0.0392 J0.0311
N19890 X0.6819 Y0.9995 I-0.0425 J-0.0264 F92.
N19895 G1 X0.6401 Y1.0268 F100.
N19900 X0.6294 Y1.0323
N19905 X0.6193 Y1.0363
N19910 X0.609 Y1.0393
N19915 X0.5977 Y1.0416
N19920 X0.585 Y1.0431
N19925 X0.5711 Y1.0435
N19930 X0.5561 Y1.0428
N19935 X0.5399 Y1.0407
N19940 X0.5231 Y1.0372
N19945 X0.5057 Y1.0319
N19950 X0.488 Y1.025
N19955 X0.4791 Y1.0209
N19960 X0.4703 Y1.0163
N19965 X0.4616 Y1.0114
N19970 X0.453 Y1.0061
N19975 X0.4447 Y1.0004
N19980 X0.4365 Y0.9943
N19985 X0.4286 Y0.9879
N19990 X0.421 Y0.9813
N19995 X0.4137 Y0.9743
N20000 X0.4068 Y0.9671
N20005 X0.4002 Y0.9598
N20010 X0.3881 Y0.9444
N20015 X0.3776 Y0.9286
N20020 X0.3695 Y0.9139
N20025 X0.3626 Y0.8985
N20030 X0.3575 Y0.8841
N20035 X0.3537 Y0.8699
N20040 X0.3512 Y0.8557
N20045 X0.3504 Y0.8489
N20050 X0.3505 Y0.8317
N20055 X0.3534 Y0.8148
N20060 X0.359 Y0.7985
N20065 X0.3672 Y0.7834
N20070 X0.3777 Y0.7698
N20075 X0.3903 Y0.7581
N20080 X0.4046 Y0.7486
N20085 X0.4372 Y0.7305
N20090 G3 X0.4558 Y0.7248 I0.0237 J0.044 F92.
N20095 X0.5015 Y0.7453 I0.0051 J0.0497 F100.
N20100 G1 X0.6531 Y0.9559
N20105 G3 X0.6539 Y1.0131 I-0.0406 J0.0292
N20110 X0.6401 Y1.0268 I-0.0414 J-0.028 F92.
N20115 G1 X0.5971 Y1.0522 F100.
N20120 X0.5867 Y1.0571
N20125 X0.5766 Y1.0607
N20130 X0.5661 Y1.0633
N20135 X0.5548 Y1.0651
N20140 X0.542 Y1.0661
N20145 X0.5282 Y1.066
N20150 X0.5132 Y1.0647
N20155 X0.4971 Y1.062
N20160 X0.4805 Y1.0578
N20165 X0.4633 Y1.0519
N20170 X0.4459 Y1.0443
N20175 X0.4372 Y1.0398
N20180 X0.4286 Y1.035
N20185 X0.4201 Y1.0297
N20190 X0.4117 Y1.024
N20195 X0.4036 Y1.018
N20200 X0.3956 Y1.0116
N20205 X0.388 Y1.005
N20210 X0.3806 Y0.998
N20215 X0.3736 Y0.9907
N20220 X0.3669 Y0.9833
N20225 X0.3606 Y0.9756
N20230 X0.3491 Y0.9598
N20235 X0.3392 Y0.9435
N20240 X0.3316 Y0.9283
N20245 X0.3252 Y0.9126
N20250 X0.3207 Y0.8979
N20255 X0.3175 Y0.8837
N20260 X0.3157 Y0.8711
N20265 X0.315 Y0.8548
N20270 X0.3169 Y0.8387
N20275 X0.3213 Y0.8231
N20280 X0.328 Y0.8083
N20285 X0.337 Y0.7948
N20290 X0.348 Y0.7828
N20295 X0.3607 Y0.7727
N20300 X0.3748 Y0.7647
N20305 X0.4046 Y0.7486
N20310 G3 X0.4234 Y0.7433 I0.0226 J0.0446 F92.
N20315 X0.4689 Y0.7655 I0.0039 J0.0499 F100.
N20320 G1 X0.6127 Y0.9818
N20325 G3 X0.6115 Y1.039 I-0.0416 J0.0277
N20330 X0.5971 Y1.0522 I-0.0404 J-0.0295 F92.
N20335 G1 X0.5696 Y1.0676 F100.
N20340 X0.5546 Y1.0755
N20345 X0.5416 Y1.0808
N20350 X0.5312 Y1.0838
N20355 X0.5206 Y1.0859
N20360 X0.5089 Y1.0871
N20365 X0.496 Y1.0874
N20370 X0.4818 Y1.0866
N20375 X0.4668 Y1.0845
N20380 X0.4507 Y1.0809
N20385 X0.4341 Y1.0757
N20390 X0.4171 Y1.0689
N20395 X0.4001 Y1.0603
N20400 X0.3916 Y1.0554
N20405 X0.3832 Y1.0501
N20410 X0.3749 Y1.0443
N20415 X0.3668 Y1.0381
N20420 X0.359 Y1.0317
N20425 X0.3514 Y1.0249
N20430 X0.3441 Y1.0177
N20435 X0.3371 Y1.0104
N20440 X0.3305 Y1.0028
N20445 X0.3242 Y0.995
N20450 X0.3183 Y0.987
N20455 X0.3076 Y0.9706
N20460 X0.2989 Y0.9544
N20465 X0.2919 Y0.9383
N20470 X0.2866 Y0.9227
N20475 X0.2829 Y0.9085
N20480 X0.2804 Y0.8935
N20485 X0.2794 Y0.8816
N20490 X0.2796 Y0.8655
N20495 X0.2822 Y0.8497
N20500 X0.2873 Y0.8344
N20505 X0.2947 Y0.8201
N20510 X0.3041 Y0.8072
N20515 X0.3155 Y0.7958
N20520 X0.3285 Y0.7863
N20525 X0.3427 Y0.779
N20530 X0.3611 Y0.7711
N20535 X0.3748 Y0.7647
N20540 G3 X0.3938 Y0.7606 I0.0197 J0.046 F92.
N20545 X0.4371 Y0.7845 I0.0006 J0.05 F100.
N20550 G1 X0.5725 Y1.006
N20555 G3 X0.5694 Y1.0627 I-0.0427 J0.0261
N20560 X0.5546 Y1.0755 I-0.0395 J-0.0306 F92.
N20565 G1 X0.5097 Y1.0972 F100.
N20570 X0.4995 Y1.1012
N20575 X0.4891 Y1.1041
N20580 X0.4785 Y1.1059
N20585 X0.4671 Y1.1069
N20590 X0.4545 Y1.107
N20595 X0.4408 Y1.106
N20600 X0.4259 Y1.1036
N20605 X0.4104 Y1.0998
N20610 X0.394 Y1.0944
N20615 X0.3773 Y1.0873
N20620 X0.3606 Y1.0785
N20625 X0.3441 Y1.068
N20630 X0.336 Y1.0621
N20635 X0.328 Y1.0559
N20640 X0.3203 Y1.0492
N20645 X0.3128 Y1.0423
N20650 X0.3056 Y1.035
N20655 X0.2988 Y1.0275
N20660 X0.2922 Y1.0197
N20665 X0.286 Y1.0117
N20670 X0.2803 Y1.0036
N20675 X0.2749 Y0.9953
N20680 X0.2653 Y0.9784
N20685 X0.2576 Y0.9618
N20690 X0.2517 Y0.9458
N20695 X0.2473 Y0.9299
N20700 X0.2446 Y0.9157
N20705 X0.243 Y0.9008
N20710 X0.2426 Y0.8871
N20715 X0.2446 Y0.8701
N20720 X0.2494 Y0.8536
N20725 X0.2568 Y0.8381
N20730 X0.2665 Y0.824
N20735 X0.2785 Y0.8117
N20740 X0.2923 Y0.8015
N20745 X0.3075 Y0.7937
N20750 X0.3427 Y0.779
N20755 G3 X0.362 Y0.7757 I0.0178 J0.0467 F92.
N20760 X0.4043 Y0.8014 I-0.0014 J0.05 F100.
N20765 G1 X0.5304 Y1.0286
N20770 G3 X0.5249 Y1.085 I-0.0437 J0.0243
N20775 X0.5097 Y1.0972 I-0.0383 J-0.0322 F92.
N20780 G1 X0.4859 Y1.1085 F100.
N20785 X0.4622 Y1.1181
N20790 X0.4519 Y1.1214
N20795 X0.4414 Y1.1236
N20800 X0.4306 Y1.1249
N20805 X0.4189 Y1.1252
N20810 X0.4061 Y1.1246
N20815 X0.3921 Y1.1227
N20820 X0.3773 Y1.1195
N20825 X0.3617 Y1.1147
N20830 X0.3455 Y1.1083
N20835 X0.3291 Y1.1001
N20840 X0.3128 Y1.0903
N20845 X0.3047 Y1.0848
N20850 X0.2967 Y1.0788
N20855 X0.2889 Y1.0725
N20860 X0.2813 Y1.0657
N20865 X0.2739 Y1.0587
N20870 X0.2668 Y1.0512
N20875 X0.2601 Y1.0436
N20880 X0.2536 Y1.0357
N20885 X0.2476 Y1.0276
N20890 X0.2419 Y1.0193
N20895 X0.2366 Y1.0109
N20900 X0.2317 Y1.0023
N20905 X0.2231 Y0.9849
N20910 X0.2167 Y0.9687
N20915 X0.2116 Y0.952
N20920 X0.2084 Y0.9373
N20925 X0.2063 Y0.9219
N20930 X0.2056 Y0.9078
N20935 X0.2057 Y0.9006
N20940 X0.2077 Y0.8848
N20945 X0.212 Y0.8695
N20950 X0.2185 Y0.855
N20955 X0.2271 Y0.8416
N20960 X0.2375 Y0.8297
N20965 X0.2496 Y0.8194
N20970 X0.2631 Y0.811
N20975 X0.2777 Y0.8047
N20980 X0.3037 Y0.7952
N20985 X0.3075 Y0.7937
N20990 G3 X0.3268 Y0.7905 I0.0175 J0.0468 F92.
N20995 X0.3697 Y0.818 I-0.0017 J0.05 F100.
N21000 G1 X0.4867 Y1.0498
N21005 G3 X0.4782 Y1.1069 I-0.0446 J0.0225
N21010 X0.4622 Y1.1181 I-0.0361 J-0.0346 F92.
N21015 G1 X0.4197 Y1.1349 F100.
N21020 X0.409 Y1.1383
N21025 X0.3984 Y1.1405
N21030 X0.3877 Y1.1416
